<?xml version="1.0" encoding="UTF-8"?>
<map version="1.0" orientation="orthogonal" width="32" height="30" tilewidth="16" tileheight="16">
 <tileset firstgid="1" name="42004344" tilewidth="16" tileheight="16">
  <image source="42004344.png" trans="ffffff"/>
 </tileset>
 <layer name="Tile Layer 1" width="32" height="30">
  <properties>
   <property name="Main" value =""/>
  </properties>
  <data>
  <tile gid="338"/>
  <tile gid="338"/>
  <tile gid="338"/>
  <tile gid="338"/>
  <tile gid="338"/>
  <tile gid="803"/>
  <tile gid="803"/>
  <tile gid="966"/>
  <tile gid="733"/>
  <tile gid="966"/>
  <tile gid="733"/>
  <tile gid="966"/>
  <tile gid="902"/>
  <tile gid="902"/>
  <tile gid="807"/>
  <tile gid="771"/>
  <tile gid="771"/>
  <tile gid="902"/>
  <tile gid="902"/>
  <tile gid="966"/>
  <tile gid="733"/>
  <tile gid="966"/>
  <tile gid="733"/>
  <tile gid="966"/>
  <tile gid="733"/>
  <tile gid="966"/>
  <tile gid="733"/>
  <tile gid="966"/>
  <tile gid="733"/>
  <tile gid="966"/>
  <tile gid="733"/>
  <tile gid="803"/>
  <tile gid="338"/>
  <tile gid="338"/>
  <tile gid="338"/>
  <tile gid="338"/>
  <tile gid="338"/>
  <tile gid="803"/>
  <tile gid="902"/>
  <tile gid="966"/>
  <tile gid="733"/>
  <tile gid="701"/>
  <tile gid="701"/>
  <tile gid="701"/>
  <tile gid="934"/>
  <tile gid="934"/>
  <tile gid="867"/>
  <tile gid="868"/>
  <tile gid="868"/>
  <tile gid="934"/>
  <tile gid="934"/>
  <tile gid="702"/>
  <tile gid="701"/>
  <tile gid="701"/>
  <tile gid="701"/>
  <tile gid="701"/>
  <tile gid="701"/>
  <tile gid="701"/>
  <tile gid="701"/>
  <tile gid="701"/>
  <tile gid="701"/>
  <tile gid="701"/>
  <tile gid="701"/>
  <tile gid="803"/>
  <tile gid="338"/>
  <tile gid="338"/>
  <tile gid="338"/>
  <tile gid="338"/>
  <tile gid="338"/>
  <tile gid="803"/>
  <tile gid="966"/>
  <tile gid="702"/>
  <tile gid="701"/>
  <tile gid="701"/>
  <tile gid="701"/>
  <tile gid="701"/>
  <tile gid="966"/>
  <tile gid="966"/>
  <tile gid="867"/>
  <tile gid="931"/>
  <tile gid="868"/>
  <tile gid="966"/>
  <tile gid="966"/>
  <tile gid="733"/>
  <tile gid="701"/>
  <tile gid="701"/>
  <tile gid="701"/>
  <tile gid="701"/>
  <tile gid="701"/>
  <tile gid="701"/>
  <tile gid="701"/>
  <tile gid="701"/>
  <tile gid="701"/>
  <tile gid="701"/>
  <tile gid="701"/>
  <tile gid="803"/>
  <tile gid="306"/>
  <tile gid="306"/>
  <tile gid="306"/>
  <tile gid="306"/>
  <tile gid="306"/>
  <tile gid="902"/>
  <tile gid="807"/>
  <tile gid="898"/>
  <tile gid="902"/>
  <tile gid="733"/>
  <tile gid="701"/>
  <tile gid="701"/>
  <tile gid="701"/>
  <tile gid="936"/>
  <tile gid="936"/>
  <tile gid="702"/>
  <tile gid="936"/>
  <tile gid="936"/>
  <tile gid="702"/>
  <tile gid="701"/>
  <tile gid="701"/>
  <tile gid="701"/>
  <tile gid="701"/>
  <tile gid="902"/>
  <tile gid="897"/>
  <tile gid="807"/>
  <tile gid="902"/>
  <tile gid="733"/>
  <tile gid="701"/>
  <tile gid="701"/>
  <tile gid="701"/>
  <tile gid="902"/>
  <tile gid="902"/>
  <tile gid="176"/>
  <tile gid="132"/>
  <tile gid="132"/>
  <tile gid="132"/>
  <tile gid="966"/>
  <tile gid="867"/>
  <tile gid="803"/>
  <tile gid="966"/>
  <tile gid="733"/>
  <tile gid="701"/>
  <tile gid="701"/>
  <tile gid="701"/>
  <tile gid="764"/>
  <tile gid="936"/>
  <tile gid="733"/>
  <tile gid="936"/>
  <tile gid="764"/>
  <tile gid="765"/>
  <tile gid="701"/>
  <tile gid="701"/>
  <tile gid="701"/>
  <tile gid="701"/>
  <tile gid="966"/>
  <tile gid="803"/>
  <tile gid="867"/>
  <tile gid="966"/>
  <tile gid="961"/>
  <tile gid="962"/>
  <tile gid="962"/>
  <tile gid="963"/>
  <tile gid="966"/>
  <tile gid="966"/>
  <tile gid="897"/>
  <tile gid="807"/>
  <tile gid="771"/>
  <tile gid="771"/>
  <tile gid="966"/>
  <tile gid="867"/>
  <tile gid="902"/>
  <tile gid="807"/>
  <tile gid="898"/>
  <tile gid="902"/>
  <tile gid="733"/>
  <tile gid="701"/>
  <tile gid="701"/>
  <tile gid="764"/>
  <tile gid="765"/>
  <tile gid="764"/>
  <tile gid="701"/>
  <tile gid="701"/>
  <tile gid="701"/>
  <tile gid="701"/>
  <tile gid="902"/>
  <tile gid="897"/>
  <tile gid="807"/>
  <tile gid="902"/>
  <tile gid="867"/>
  <tile gid="934"/>
  <tile gid="961"/>
  <tile gid="962"/>
  <tile gid="962"/>
  <tile gid="963"/>
  <tile gid="966"/>
  <tile gid="897"/>
  <tile gid="840"/>
  <tile gid="702"/>
  <tile gid="734"/>
  <tile gid="734"/>
  <tile gid="934"/>
  <tile gid="867"/>
  <tile gid="966"/>
  <tile gid="867"/>
  <tile gid="803"/>
  <tile gid="966"/>
  <tile gid="733"/>
  <tile gid="701"/>
  <tile gid="701"/>
  <tile gid="701"/>
  <tile gid="701"/>
  <tile gid="701"/>
  <tile gid="701"/>
  <tile gid="701"/>
  <tile gid="701"/>
  <tile gid="701"/>
  <tile gid="966"/>
  <tile gid="803"/>
  <tile gid="867"/>
  <tile gid="966"/>
  <tile gid="713"/>
  <tile gid="966"/>
  <tile gid="961"/>
  <tile gid="962"/>
  <tile gid="962"/>
  <tile gid="963"/>
  <tile gid="966"/>
  <tile gid="803"/>
  <tile gid="702"/>
  <tile gid="701"/>
  <tile gid="701"/>
  <tile gid="701"/>
  <tile gid="966"/>
  <tile gid="867"/>
  <tile gid="966"/>
  <tile gid="867"/>
  <tile gid="902"/>
  <tile gid="807"/>
  <tile gid="898"/>
  <tile gid="902"/>
  <tile gid="733"/>
  <tile gid="701"/>
  <tile gid="701"/>
  <tile gid="701"/>
  <tile gid="701"/>
  <tile gid="701"/>
  <tile gid="902"/>
  <tile gid="897"/>
  <tile gid="807"/>
  <tile gid="902"/>
  <tile gid="867"/>
  <tile gid="934"/>
  <tile gid="867"/>
  <tile gid="966"/>
  <tile gid="961"/>
  <tile gid="962"/>
  <tile gid="962"/>
  <tile gid="963"/>
  <tile gid="803"/>
  <tile gid="803"/>
  <tile gid="733"/>
  <tile gid="34"/>
  <tile gid="733"/>
  <tile gid="34"/>
  <tile gid="966"/>
  <tile gid="713"/>
  <tile gid="934"/>
  <tile gid="867"/>
  <tile gid="966"/>
  <tile gid="867"/>
  <tile gid="803"/>
  <tile gid="966"/>
  <tile gid="733"/>
  <tile gid="701"/>
  <tile gid="701"/>
  <tile gid="701"/>
  <tile gid="701"/>
  <tile gid="701"/>
  <tile gid="966"/>
  <tile gid="803"/>
  <tile gid="867"/>
  <tile gid="966"/>
  <tile gid="713"/>
  <tile gid="966"/>
  <tile gid="867"/>
  <tile gid="966"/>
  <tile gid="702"/>
  <tile gid="734"/>
  <tile gid="734"/>
  <tile gid="734"/>
  <tile gid="803"/>
  <tile gid="803"/>
  <tile gid="733"/>
  <tile gid="734"/>
  <tile gid="701"/>
  <tile gid="734"/>
  <tile gid="934"/>
  <tile gid="867"/>
  <tile gid="966"/>
  <tile gid="867"/>
  <tile gid="966"/>
  <tile gid="867"/>
  <tile gid="902"/>
  <tile gid="807"/>
  <tile gid="771"/>
  <tile gid="771"/>
  <tile gid="771"/>
  <tile gid="771"/>
  <tile gid="771"/>
  <tile gid="771"/>
  <tile gid="771"/>
  <tile gid="902"/>
  <tile gid="867"/>
  <tile gid="934"/>
  <tile gid="867"/>
  <tile gid="966"/>
  <tile gid="702"/>
  <tile gid="734"/>
  <tile gid="701"/>
  <tile gid="897"/>
  <tile gid="807"/>
  <tile gid="771"/>
  <tile gid="902"/>
  <tile gid="897"/>
  <tile gid="807"/>
  <tile gid="930"/>
  <tile gid="931"/>
  <tile gid="929"/>
  <tile gid="966"/>
  <tile gid="867"/>
  <tile gid="966"/>
  <tile gid="713"/>
  <tile gid="934"/>
  <tile gid="867"/>
  <tile gid="966"/>
  <tile gid="867"/>
  <tile gid="868"/>
  <tile gid="868"/>
  <tile gid="868"/>
  <tile gid="868"/>
  <tile gid="868"/>
  <tile gid="868"/>
  <tile gid="868"/>
  <tile gid="966"/>
  <tile gid="713"/>
  <tile gid="966"/>
  <tile gid="867"/>
  <tile gid="966"/>
  <tile gid="733"/>
  <tile gid="897"/>
  <tile gid="807"/>
  <tile gid="902"/>
  <tile gid="867"/>
  <tile gid="868"/>
  <tile gid="966"/>
  <tile gid="803"/>
  <tile gid="702"/>
  <tile gid="936"/>
  <tile gid="702"/>
  <tile gid="936"/>
  <tile gid="966"/>
  <tile gid="713"/>
  <tile gid="934"/>
  <tile gid="867"/>
  <tile gid="966"/>
  <tile gid="713"/>
  <tile gid="934"/>
  <tile gid="867"/>
  <tile gid="868"/>
  <tile gid="868"/>
  <tile gid="868"/>
  <tile gid="868"/>
  <tile gid="868"/>
  <tile gid="868"/>
  <tile gid="868"/>
  <tile gid="934"/>
  <tile gid="867"/>
  <tile gid="966"/>
  <tile gid="702"/>
  <tile gid="734"/>
  <tile gid="701"/>
  <tile gid="803"/>
  <tile gid="867"/>
  <tile gid="966"/>
  <tile gid="867"/>
  <tile gid="868"/>
  <tile gid="966"/>
  <tile gid="803"/>
  <tile gid="733"/>
  <tile gid="764"/>
  <tile gid="765"/>
  <tile gid="764"/>
  <tile gid="934"/>
  <tile gid="867"/>
  <tile gid="966"/>
  <tile gid="867"/>
  <tile gid="966"/>
  <tile gid="867"/>
  <tile gid="966"/>
  <tile gid="713"/>
  <tile gid="868"/>
  <tile gid="746"/>
  <tile gid="868"/>
  <tile gid="868"/>
  <tile gid="746"/>
  <tile gid="868"/>
  <tile gid="746"/>
  <tile gid="966"/>
  <tile gid="867"/>
  <tile gid="966"/>
  <tile gid="733"/>
  <tile gid="897"/>
  <tile gid="807"/>
  <tile gid="902"/>
  <tile gid="867"/>
  <tile gid="966"/>
  <tile gid="867"/>
  <tile gid="868"/>
  <tile gid="934"/>
  <tile gid="803"/>
  <tile gid="733"/>
  <tile gid="936"/>
  <tile gid="733"/>
  <tile gid="936"/>
  <tile gid="966"/>
  <tile gid="867"/>
  <tile gid="966"/>
  <tile gid="713"/>
  <tile gid="934"/>
  <tile gid="867"/>
  <tile gid="966"/>
  <tile gid="867"/>
  <tile gid="868"/>
  <tile gid="868"/>
  <tile gid="868"/>
  <tile gid="868"/>
  <tile gid="868"/>
  <tile gid="868"/>
  <tile gid="868"/>
  <tile gid="966"/>
  <tile gid="702"/>
  <tile gid="734"/>
  <tile gid="701"/>
  <tile gid="803"/>
  <tile gid="867"/>
  <tile gid="966"/>
  <tile gid="867"/>
  <tile gid="934"/>
  <tile gid="867"/>
  <tile gid="868"/>
  <tile gid="966"/>
  <tile gid="803"/>
  <tile gid="733"/>
  <tile gid="764"/>
  <tile gid="765"/>
  <tile gid="764"/>
  <tile gid="966"/>
  <tile gid="867"/>
  <tile gid="934"/>
  <tile gid="867"/>
  <tile gid="966"/>
  <tile gid="713"/>
  <tile gid="966"/>
  <tile gid="867"/>
  <tile gid="868"/>
  <tile gid="868"/>
  <tile gid="868"/>
  <tile gid="868"/>
  <tile gid="868"/>
  <tile gid="868"/>
  <tile gid="868"/>
  <tile gid="966"/>
  <tile gid="733"/>
  <tile gid="897"/>
  <tile gid="807"/>
  <tile gid="902"/>
  <tile gid="867"/>
  <tile gid="966"/>
  <tile gid="867"/>
  <tile gid="966"/>
  <tile gid="867"/>
  <tile gid="868"/>
  <tile gid="966"/>
  <tile gid="902"/>
  <tile gid="733"/>
  <tile gid="701"/>
  <tile gid="701"/>
  <tile gid="701"/>
  <tile gid="966"/>
  <tile gid="867"/>
  <tile gid="966"/>
  <tile gid="867"/>
  <tile gid="966"/>
  <tile gid="867"/>
  <tile gid="966"/>
  <tile gid="702"/>
  <tile gid="734"/>
  <tile gid="734"/>
  <tile gid="734"/>
  <tile gid="734"/>
  <tile gid="734"/>
  <tile gid="734"/>
  <tile gid="734"/>
  <tile gid="734"/>
  <tile gid="701"/>
  <tile gid="803"/>
  <tile gid="867"/>
  <tile gid="966"/>
  <tile gid="867"/>
  <tile gid="934"/>
  <tile gid="867"/>
  <tile gid="966"/>
  <tile gid="867"/>
  <tile gid="868"/>
  <tile gid="902"/>
  <tile gid="966"/>
  <tile gid="733"/>
  <tile gid="701"/>
  <tile gid="701"/>
  <tile gid="701"/>
  <tile gid="734"/>
  <tile gid="734"/>
  <tile gid="966"/>
  <tile gid="867"/>
  <tile gid="934"/>
  <tile gid="867"/>
  <tile gid="902"/>
  <tile gid="807"/>
  <tile gid="771"/>
  <tile gid="898"/>
  <tile gid="733"/>
  <tile gid="701"/>
  <tile gid="897"/>
  <tile gid="807"/>
  <tile gid="771"/>
  <tile gid="771"/>
  <tile gid="771"/>
  <tile gid="902"/>
  <tile gid="867"/>
  <tile gid="966"/>
  <tile gid="867"/>
  <tile gid="966"/>
  <tile gid="867"/>
  <tile gid="966"/>
  <tile gid="702"/>
  <tile gid="734"/>
  <tile gid="966"/>
  <tile gid="966"/>
  <tile gid="733"/>
  <tile gid="701"/>
  <tile gid="701"/>
  <tile gid="701"/>
  <tile gid="701"/>
  <tile gid="701"/>
  <tile gid="966"/>
  <tile gid="867"/>
  <tile gid="966"/>
  <tile gid="867"/>
  <tile gid="966"/>
  <tile gid="867"/>
  <tile gid="868"/>
  <tile gid="902"/>
  <tile gid="733"/>
  <tile gid="701"/>
  <tile gid="902"/>
  <tile gid="867"/>
  <tile gid="868"/>
  <tile gid="868"/>
  <tile gid="868"/>
  <tile gid="966"/>
  <tile gid="867"/>
  <tile gid="934"/>
  <tile gid="867"/>
  <tile gid="966"/>
  <tile gid="702"/>
  <tile gid="734"/>
  <tile gid="701"/>
  <tile gid="701"/>
  <tile gid="966"/>
  <tile gid="702"/>
  <tile gid="701"/>
  <tile gid="701"/>
  <tile gid="701"/>
  <tile gid="701"/>
  <tile gid="701"/>
  <tile gid="701"/>
  <tile gid="734"/>
  <tile gid="734"/>
  <tile gid="966"/>
  <tile gid="867"/>
  <tile gid="966"/>
  <tile gid="867"/>
  <tile gid="868"/>
  <tile gid="966"/>
  <tile gid="733"/>
  <tile gid="701"/>
  <tile gid="966"/>
  <tile gid="867"/>
  <tile gid="868"/>
  <tile gid="868"/>
  <tile gid="868"/>
  <tile gid="966"/>
  <tile gid="867"/>
  <tile gid="966"/>
  <tile gid="867"/>
  <tile gid="966"/>
  <tile gid="733"/>
  <tile gid="701"/>
  <tile gid="701"/>
  <tile gid="701"/>
  <tile gid="734"/>
  <tile gid="902"/>
  <tile gid="733"/>
  <tile gid="701"/>
  <tile gid="701"/>
  <tile gid="701"/>
  <tile gid="701"/>
  <tile gid="701"/>
  <tile gid="701"/>
  <tile gid="701"/>
  <tile gid="966"/>
  <tile gid="867"/>
  <tile gid="934"/>
  <tile gid="713"/>
  <tile gid="746"/>
  <tile gid="966"/>
  <tile gid="961"/>
  <tile gid="963"/>
  <tile gid="966"/>
  <tile gid="867"/>
  <tile gid="746"/>
  <tile gid="746"/>
  <tile gid="868"/>
  <tile gid="934"/>
  <tile gid="867"/>
  <tile gid="966"/>
  <tile gid="702"/>
  <tile gid="734"/>
  <tile gid="701"/>
  <tile gid="701"/>
  <tile gid="701"/>
  <tile gid="701"/>
  <tile gid="902"/>
  <tile gid="803"/>
  <tile gid="733"/>
  <tile gid="701"/>
  <tile gid="701"/>
  <tile gid="701"/>
  <tile gid="701"/>
  <tile gid="701"/>
  <tile gid="701"/>
  <tile gid="701"/>
  <tile gid="734"/>
  <tile gid="734"/>
  <tile gid="966"/>
  <tile gid="867"/>
  <tile gid="868"/>
  <tile gid="966"/>
  <tile gid="961"/>
  <tile gid="963"/>
  <tile gid="966"/>
  <tile gid="867"/>
  <tile gid="868"/>
  <tile gid="868"/>
  <tile gid="868"/>
  <tile gid="966"/>
  <tile gid="867"/>
  <tile gid="966"/>
  <tile gid="733"/>
  <tile gid="701"/>
  <tile gid="701"/>
  <tile gid="701"/>
  <tile gid="701"/>
  <tile gid="701"/>
  <tile gid="803"/>
  <tile gid="803"/>
  <tile gid="733"/>
  <tile gid="701"/>
  <tile gid="701"/>
  <tile gid="701"/>
  <tile gid="701"/>
  <tile gid="701"/>
  <tile gid="701"/>
  <tile gid="701"/>
  <tile gid="701"/>
  <tile gid="701"/>
  <tile gid="966"/>
  <tile gid="867"/>
  <tile gid="868"/>
  <tile gid="934"/>
  <tile gid="961"/>
  <tile gid="963"/>
  <tile gid="934"/>
  <tile gid="867"/>
  <tile gid="868"/>
  <tile gid="868"/>
  <tile gid="868"/>
  <tile gid="966"/>
  <tile gid="702"/>
  <tile gid="734"/>
  <tile gid="701"/>
  <tile gid="701"/>
  <tile gid="701"/>
  <tile gid="701"/>
  <tile gid="701"/>
  <tile gid="701"/>
  <tile gid="803"/>
  <tile gid="803"/>
  <tile gid="733"/>
  <tile gid="701"/>
  <tile gid="701"/>
  <tile gid="701"/>
  <tile gid="701"/>
  <tile gid="701"/>
  <tile gid="701"/>
  <tile gid="701"/>
  <tile gid="701"/>
  <tile gid="701"/>
  <tile gid="966"/>
  <tile gid="867"/>
  <tile gid="868"/>
  <tile gid="966"/>
  <tile gid="961"/>
  <tile gid="963"/>
  <tile gid="966"/>
  <tile gid="867"/>
  <tile gid="868"/>
  <tile gid="868"/>
  <tile gid="868"/>
  <tile gid="966"/>
  <tile gid="733"/>
  <tile gid="701"/>
  <tile gid="701"/>
  <tile gid="701"/>
  <tile gid="701"/>
  <tile gid="701"/>
  <tile gid="701"/>
  <tile gid="701"/>
  <tile gid="803"/>
  <tile gid="803"/>
  <tile gid="733"/>
  <tile gid="701"/>
  <tile gid="701"/>
  <tile gid="701"/>
  <tile gid="701"/>
  <tile gid="701"/>
  <tile gid="701"/>
  <tile gid="701"/>
  <tile gid="701"/>
  <tile gid="701"/>
  <tile gid="734"/>
  <tile gid="734"/>
  <tile gid="734"/>
  <tile gid="966"/>
  <tile gid="961"/>
  <tile gid="963"/>
  <tile gid="966"/>
  <tile gid="702"/>
  <tile gid="734"/>
  <tile gid="734"/>
  <tile gid="734"/>
  <tile gid="734"/>
  <tile gid="701"/>
  <tile gid="701"/>
  <tile gid="701"/>
  <tile gid="701"/>
  <tile gid="701"/>
  <tile gid="701"/>
  <tile gid="701"/>
  <tile gid="701"/>
  <tile gid="803"/>
  <tile gid="803"/>
  <tile gid="733"/>
  <tile gid="701"/>
  <tile gid="701"/>
  <tile gid="701"/>
  <tile gid="701"/>
  <tile gid="701"/>
  <tile gid="701"/>
  <tile gid="701"/>
  <tile gid="701"/>
  <tile gid="701"/>
  <tile gid="701"/>
  <tile gid="701"/>
  <tile gid="701"/>
  <tile gid="966"/>
  <tile gid="961"/>
  <tile gid="963"/>
  <tile gid="966"/>
  <tile gid="733"/>
  <tile gid="701"/>
  <tile gid="701"/>
  <tile gid="701"/>
  <tile gid="701"/>
  <tile gid="701"/>
  <tile gid="701"/>
  <tile gid="701"/>
  <tile gid="701"/>
  <tile gid="701"/>
  <tile gid="701"/>
  <tile gid="701"/>
  <tile gid="701"/>
  <tile gid="803"/>
  <tile gid="803"/>
  <tile gid="733"/>
  <tile gid="701"/>
  <tile gid="701"/>
  <tile gid="701"/>
  <tile gid="701"/>
  <tile gid="701"/>
  <tile gid="701"/>
  <tile gid="701"/>
  <tile gid="701"/>
  <tile gid="701"/>
  <tile gid="701"/>
  <tile gid="701"/>
  <tile gid="701"/>
  <tile gid="734"/>
  <tile gid="734"/>
  <tile gid="734"/>
  <tile gid="734"/>
  <tile gid="701"/>
  <tile gid="701"/>
  <tile gid="701"/>
  <tile gid="701"/>
  <tile gid="701"/>
  <tile gid="701"/>
  <tile gid="701"/>
  <tile gid="701"/>
  <tile gid="701"/>
  <tile gid="701"/>
  <tile gid="701"/>
  <tile gid="701"/>
  <tile gid="701"/>
  <tile gid="803"/>
  <tile gid="902"/>
  <tile gid="733"/>
  <tile gid="701"/>
  <tile gid="701"/>
  <tile gid="701"/>
  <tile gid="902"/>
  <tile gid="733"/>
  <tile gid="701"/>
  <tile gid="701"/>
  <tile gid="902"/>
  <tile gid="733"/>
  <tile gid="701"/>
  <tile gid="701"/>
  <tile gid="701"/>
  <tile gid="902"/>
  <tile gid="733"/>
  <tile gid="701"/>
  <tile gid="902"/>
  <tile gid="733"/>
  <tile gid="701"/>
  <tile gid="701"/>
  <tile gid="701"/>
  <tile gid="902"/>
  <tile gid="733"/>
  <tile gid="701"/>
  <tile gid="701"/>
  <tile gid="902"/>
  <tile gid="733"/>
  <tile gid="701"/>
  <tile gid="701"/>
  <tile gid="701"/>
  <tile gid="902"/>
  <tile gid="966"/>
  <tile gid="776"/>
  <tile gid="771"/>
  <tile gid="771"/>
  <tile gid="771"/>
  <tile gid="966"/>
  <tile gid="776"/>
  <tile gid="771"/>
  <tile gid="771"/>
  <tile gid="966"/>
  <tile gid="776"/>
  <tile gid="771"/>
  <tile gid="771"/>
  <tile gid="771"/>
  <tile gid="966"/>
  <tile gid="733"/>
  <tile gid="701"/>
  <tile gid="966"/>
  <tile gid="776"/>
  <tile gid="771"/>
  <tile gid="771"/>
  <tile gid="771"/>
  <tile gid="966"/>
  <tile gid="776"/>
  <tile gid="771"/>
  <tile gid="771"/>
  <tile gid="966"/>
  <tile gid="776"/>
  <tile gid="771"/>
  <tile gid="771"/>
  <tile gid="771"/>
  <tile gid="966"/>
  <tile gid="966"/>
  <tile gid="867"/>
  <tile gid="868"/>
  <tile gid="868"/>
  <tile gid="868"/>
  <tile gid="966"/>
  <tile gid="867"/>
  <tile gid="868"/>
  <tile gid="868"/>
  <tile gid="966"/>
  <tile gid="867"/>
  <tile gid="868"/>
  <tile gid="868"/>
  <tile gid="868"/>
  <tile gid="966"/>
  <tile gid="961"/>
  <tile gid="963"/>
  <tile gid="966"/>
  <tile gid="867"/>
  <tile gid="868"/>
  <tile gid="868"/>
  <tile gid="868"/>
  <tile gid="966"/>
  <tile gid="867"/>
  <tile gid="868"/>
  <tile gid="868"/>
  <tile gid="966"/>
  <tile gid="867"/>
  <tile gid="868"/>
  <tile gid="868"/>
  <tile gid="868"/>
  <tile gid="966"/>
  <tile gid="966"/>
  <tile gid="867"/>
  <tile gid="868"/>
  <tile gid="868"/>
  <tile gid="868"/>
  <tile gid="966"/>
  <tile gid="867"/>
  <tile gid="868"/>
  <tile gid="868"/>
  <tile gid="966"/>
  <tile gid="867"/>
  <tile gid="868"/>
  <tile gid="868"/>
  <tile gid="868"/>
  <tile gid="966"/>
  <tile gid="961"/>
  <tile gid="963"/>
  <tile gid="966"/>
  <tile gid="867"/>
  <tile gid="868"/>
  <tile gid="868"/>
  <tile gid="868"/>
  <tile gid="966"/>
  <tile gid="867"/>
  <tile gid="868"/>
  <tile gid="868"/>
  <tile gid="966"/>
  <tile gid="867"/>
  <tile gid="868"/>
  <tile gid="868"/>
  <tile gid="868"/>
  <tile gid="966"/>
  </data>
 </layer>
</map>
