<?xml version="1.0" encoding="UTF-8"?>
<map version="1.0" orientation="orthogonal" width="32" height="15" tilewidth="16" tileheight="16">
 <tileset firstgid="1" name="0E00EA10" tilewidth="16" tileheight="16">
  <image source="0E00EA10.png" trans="ffffff"/>
 </tileset>
 <layer name="Tile Layer 1" width="32" height="15">
  <properties>
   <property name="Main" value =""/>
  </properties>
  <data>
  <tile gid="161"/>
  <tile gid="171"/>
  <tile gid="376"/>
  <tile gid="377"/>
  <tile gid="378"/>
  <tile gid="272"/>
  <tile gid="829"/>
  <tile gid="947"/>
  <tile gid="725"/>
  <tile gid="893"/>
  <tile gid="240"/>
  <tile gid="272"/>
  <tile gid="767"/>
  <tile gid="853"/>
  <tile gid="886"/>
  <tile gid="885"/>
  <tile gid="885"/>
  <tile gid="885"/>
  <tile gid="885"/>
  <tile gid="888"/>
  <tile gid="853"/>
  <tile gid="853"/>
  <tile gid="828"/>
  <tile gid="272"/>
  <tile gid="272"/>
  <tile gid="272"/>
  <tile gid="272"/>
  <tile gid="166"/>
  <tile gid="194"/>
  <tile gid="726"/>
  <tile gid="853"/>
  <tile gid="853"/>
  <tile gid="289"/>
  <tile gid="133"/>
  <tile gid="408"/>
  <tile gid="409"/>
  <tile gid="410"/>
  <tile gid="272"/>
  <tile gid="166"/>
  <tile gid="921"/>
  <tile gid="21"/>
  <tile gid="22"/>
  <tile gid="23"/>
  <tile gid="205"/>
  <tile gid="799"/>
  <tile gid="853"/>
  <tile gid="853"/>
  <tile gid="886"/>
  <tile gid="885"/>
  <tile gid="885"/>
  <tile gid="888"/>
  <tile gid="853"/>
  <tile gid="853"/>
  <tile gid="828"/>
  <tile gid="272"/>
  <tile gid="272"/>
  <tile gid="272"/>
  <tile gid="272"/>
  <tile gid="175"/>
  <tile gid="234"/>
  <tile gid="194"/>
  <tile gid="420"/>
  <tile gid="726"/>
  <tile gid="853"/>
  <tile gid="233"/>
  <tile gid="272"/>
  <tile gid="440"/>
  <tile gid="441"/>
  <tile gid="442"/>
  <tile gid="272"/>
  <tile gid="202"/>
  <tile gid="601"/>
  <tile gid="85"/>
  <tile gid="86"/>
  <tile gid="87"/>
  <tile gid="297"/>
  <tile gid="829"/>
  <tile gid="853"/>
  <tile gid="853"/>
  <tile gid="853"/>
  <tile gid="853"/>
  <tile gid="888"/>
  <tile gid="831"/>
  <tile gid="853"/>
  <tile gid="828"/>
  <tile gid="272"/>
  <tile gid="272"/>
  <tile gid="272"/>
  <tile gid="241"/>
  <tile gid="20"/>
  <tile gid="420"/>
  <tile gid="4"/>
  <tile gid="356"/>
  <tile gid="194"/>
  <tile gid="760"/>
  <tile gid="854"/>
  <tile gid="161"/>
  <tile gid="165"/>
  <tile gid="272"/>
  <tile gid="272"/>
  <tile gid="272"/>
  <tile gid="166"/>
  <tile gid="161"/>
  <tile gid="921"/>
  <tile gid="201"/>
  <tile gid="272"/>
  <tile gid="271"/>
  <tile gid="892"/>
  <tile gid="272"/>
  <tile gid="799"/>
  <tile gid="853"/>
  <tile gid="830"/>
  <tile gid="831"/>
  <tile gid="828"/>
  <tile gid="272"/>
  <tile gid="829"/>
  <tile gid="860"/>
  <tile gid="272"/>
  <tile gid="892"/>
  <tile gid="241"/>
  <tile gid="4"/>
  <tile gid="129"/>
  <tile gid="760"/>
  <tile gid="859"/>
  <tile gid="825"/>
  <tile gid="826"/>
  <tile gid="854"/>
  <tile gid="885"/>
  <tile gid="289"/>
  <tile gid="289"/>
  <tile gid="205"/>
  <tile gid="272"/>
  <tile gid="206"/>
  <tile gid="420"/>
  <tile gid="161"/>
  <tile gid="921"/>
  <tile gid="420"/>
  <tile gid="205"/>
  <tile gid="272"/>
  <tile gid="861"/>
  <tile gid="862"/>
  <tile gid="853"/>
  <tile gid="828"/>
  <tile gid="272"/>
  <tile gid="272"/>
  <tile gid="272"/>
  <tile gid="272"/>
  <tile gid="861"/>
  <tile gid="853"/>
  <tile gid="860"/>
  <tile gid="892"/>
  <tile gid="202"/>
  <tile gid="760"/>
  <tile gid="859"/>
  <tile gid="853"/>
  <tile gid="853"/>
  <tile gid="853"/>
  <tile gid="854"/>
  <tile gid="885"/>
  <tile gid="885"/>
  <tile gid="289"/>
  <tile gid="420"/>
  <tile gid="165"/>
  <tile gid="52"/>
  <tile gid="166"/>
  <tile gid="161"/>
  <tile gid="161"/>
  <tile gid="921"/>
  <tile gid="133"/>
  <tile gid="272"/>
  <tile gid="272"/>
  <tile gid="829"/>
  <tile gid="853"/>
  <tile gid="798"/>
  <tile gid="272"/>
  <tile gid="175"/>
  <tile gid="45"/>
  <tile gid="272"/>
  <tile gid="272"/>
  <tile gid="829"/>
  <tile gid="947"/>
  <tile gid="827"/>
  <tile gid="863"/>
  <tile gid="602"/>
  <tile gid="853"/>
  <tile gid="853"/>
  <tile gid="853"/>
  <tile gid="853"/>
  <tile gid="854"/>
  <tile gid="885"/>
  <tile gid="885"/>
  <tile gid="885"/>
  <tile gid="972"/>
  <tile gid="194"/>
  <tile gid="194"/>
  <tile gid="205"/>
  <tile gid="134"/>
  <tile gid="142"/>
  <tile gid="290"/>
  <tile gid="601"/>
  <tile gid="272"/>
  <tile gid="272"/>
  <tile gid="272"/>
  <tile gid="272"/>
  <tile gid="829"/>
  <tile gid="947"/>
  <tile gid="768"/>
  <tile gid="209"/>
  <tile gid="173"/>
  <tile gid="165"/>
  <tile gid="175"/>
  <tile gid="166"/>
  <tile gid="921"/>
  <tile gid="162"/>
  <tile gid="663"/>
  <tile gid="205"/>
  <tile gid="799"/>
  <tile gid="828"/>
  <tile gid="829"/>
  <tile gid="853"/>
  <tile gid="886"/>
  <tile gid="885"/>
  <tile gid="885"/>
  <tile gid="885"/>
  <tile gid="811"/>
  <tile gid="161"/>
  <tile gid="194"/>
  <tile gid="165"/>
  <tile gid="175"/>
  <tile gid="206"/>
  <tile gid="290"/>
  <tile gid="921"/>
  <tile gid="205"/>
  <tile gid="166"/>
  <tile gid="173"/>
  <tile gid="165"/>
  <tile gid="206"/>
  <tile gid="601"/>
  <tile gid="272"/>
  <tile gid="272"/>
  <tile gid="140"/>
  <tile gid="162"/>
  <tile gid="162"/>
  <tile gid="162"/>
  <tile gid="601"/>
  <tile gid="162"/>
  <tile gid="20"/>
  <tile gid="165"/>
  <tile gid="829"/>
  <tile gid="860"/>
  <tile gid="272"/>
  <tile gid="829"/>
  <tile gid="853"/>
  <tile gid="886"/>
  <tile gid="885"/>
  <tile gid="885"/>
  <tile gid="933"/>
  <tile gid="811"/>
  <tile gid="916"/>
  <tile gid="1015"/>
  <tile gid="982"/>
  <tile gid="602"/>
  <tile gid="982"/>
  <tile gid="1016"/>
  <tile gid="602"/>
  <tile gid="1014"/>
  <tile gid="917"/>
  <tile gid="4"/>
  <tile gid="173"/>
  <tile gid="921"/>
  <tile gid="165"/>
  <tile gid="272"/>
  <tile gid="234"/>
  <tile gid="916"/>
  <tile gid="1015"/>
  <tile gid="982"/>
  <tile gid="1013"/>
  <tile gid="141"/>
  <tile gid="162"/>
  <tile gid="162"/>
  <tile gid="165"/>
  <tile gid="829"/>
  <tile gid="860"/>
  <tile gid="861"/>
  <tile gid="853"/>
  <tile gid="854"/>
  <tile gid="885"/>
  <tile gid="885"/>
  <tile gid="933"/>
  <tile gid="808"/>
  <tile gid="921"/>
  <tile gid="161"/>
  <tile gid="161"/>
  <tile gid="4"/>
  <tile gid="161"/>
  <tile gid="161"/>
  <tile gid="4"/>
  <tile gid="161"/>
  <tile gid="921"/>
  <tile gid="161"/>
  <tile gid="4"/>
  <tile gid="921"/>
  <tile gid="133"/>
  <tile gid="892"/>
  <tile gid="172"/>
  <tile gid="921"/>
  <tile gid="4"/>
  <tile gid="162"/>
  <tile gid="201"/>
  <tile gid="892"/>
  <tile gid="134"/>
  <tile gid="893"/>
  <tile gid="133"/>
  <tile gid="272"/>
  <tile gid="799"/>
  <tile gid="853"/>
  <tile gid="854"/>
  <tile gid="885"/>
  <tile gid="885"/>
  <tile gid="885"/>
  <tile gid="807"/>
  <tile gid="803"/>
  <tile gid="921"/>
  <tile gid="972"/>
  <tile gid="161"/>
  <tile gid="4"/>
  <tile gid="4"/>
  <tile gid="161"/>
  <tile gid="17"/>
  <tile gid="4"/>
  <tile gid="601"/>
  <tile gid="4"/>
  <tile gid="161"/>
  <tile gid="601"/>
  <tile gid="175"/>
  <tile gid="166"/>
  <tile gid="226"/>
  <tile gid="601"/>
  <tile gid="162"/>
  <tile gid="162"/>
  <tile gid="133"/>
  <tile gid="892"/>
  <tile gid="892"/>
  <tile gid="143"/>
  <tile gid="272"/>
  <tile gid="861"/>
  <tile gid="853"/>
  <tile gid="854"/>
  <tile gid="885"/>
  <tile gid="885"/>
  <tile gid="885"/>
  <tile gid="885"/>
  <tile gid="1015"/>
  <tile gid="982"/>
  <tile gid="949"/>
  <tile gid="802"/>
  <tile gid="899"/>
  <tile gid="804"/>
  <tile gid="161"/>
  <tile gid="4"/>
  <tile gid="173"/>
  <tile gid="161"/>
  <tile gid="921"/>
  <tile gid="161"/>
  <tile gid="161"/>
  <tile gid="921"/>
  <tile gid="226"/>
  <tile gid="226"/>
  <tile gid="4"/>
  <tile gid="921"/>
  <tile gid="162"/>
  <tile gid="13"/>
  <tile gid="205"/>
  <tile gid="272"/>
  <tile gid="272"/>
  <tile gid="272"/>
  <tile gid="861"/>
  <tile gid="853"/>
  <tile gid="853"/>
  <tile gid="885"/>
  <tile gid="885"/>
  <tile gid="885"/>
  <tile gid="885"/>
  <tile gid="885"/>
  <tile gid="802"/>
  <tile gid="971"/>
  <tile gid="971"/>
  <tile gid="866"/>
  <tile gid="901"/>
  <tile gid="811"/>
  <tile gid="420"/>
  <tile gid="13"/>
  <tile gid="161"/>
  <tile gid="161"/>
  <tile gid="948"/>
  <tile gid="982"/>
  <tile gid="1015"/>
  <tile gid="1016"/>
  <tile gid="982"/>
  <tile gid="1015"/>
  <tile gid="982"/>
  <tile gid="1016"/>
  <tile gid="917"/>
  <tile gid="205"/>
  <tile gid="272"/>
  <tile gid="272"/>
  <tile gid="272"/>
  <tile gid="272"/>
  <tile gid="799"/>
  <tile gid="853"/>
  <tile gid="853"/>
  <tile gid="853"/>
  <tile gid="853"/>
  <tile gid="886"/>
  <tile gid="885"/>
  <tile gid="885"/>
  <tile gid="962"/>
  <tile gid="866"/>
  <tile gid="930"/>
  <tile gid="901"/>
  <tile gid="933"/>
  <tile gid="808"/>
  <tile gid="802"/>
  <tile gid="899"/>
  <tile gid="811"/>
  <tile gid="4"/>
  <tile gid="162"/>
  <tile gid="162"/>
  <tile gid="162"/>
  <tile gid="162"/>
  <tile gid="162"/>
  <tile gid="161"/>
  <tile gid="161"/>
  <tile gid="226"/>
  <tile gid="921"/>
  <tile gid="297"/>
  <tile gid="272"/>
  <tile gid="272"/>
  <tile gid="272"/>
  <tile gid="272"/>
  <tile gid="767"/>
  <tile gid="853"/>
  <tile gid="830"/>
  <tile gid="831"/>
  <tile gid="830"/>
  <tile gid="853"/>
  <tile gid="886"/>
  <tile gid="885"/>
  <tile gid="962"/>
  <tile gid="930"/>
  <tile gid="930"/>
  <tile gid="963"/>
  <tile gid="964"/>
  <tile gid="971"/>
  <tile gid="866"/>
  <tile gid="996"/>
  <tile gid="933"/>
  <tile gid="811"/>
  <tile gid="802"/>
  <tile gid="971"/>
  <tile gid="899"/>
  <tile gid="811"/>
  <tile gid="802"/>
  <tile gid="971"/>
  <tile gid="899"/>
  <tile gid="811"/>
  <tile gid="921"/>
  <tile gid="165"/>
  <tile gid="272"/>
  <tile gid="272"/>
  <tile gid="272"/>
  <tile gid="272"/>
  <tile gid="799"/>
  <tile gid="828"/>
  <tile gid="272"/>
  <tile gid="272"/>
  <tile gid="272"/>
  <tile gid="799"/>
  <tile gid="853"/>
  <tile gid="886"/>
  </data>
 </layer>
</map>
