<?xml version="1.0" encoding="UTF-8"?>
<map version="1.0" orientation="orthogonal" width="32" height="32" tilewidth="16" tileheight="16">
 <tileset firstgid="1" name="0E000F10" tilewidth="16" tileheight="16">
  <image source="0E000F10.png" trans="ffffff"/>
 </tileset>
 <layer name="Tile Layer 1" width="32" height="32">
  <properties>
   <property name="Main" value =""/>
  </properties>
  <data>
  <tile gid="162"/>
  <tile gid="162"/>
  <tile gid="193"/>
  <tile gid="193"/>
  <tile gid="193"/>
  <tile gid="193"/>
  <tile gid="130"/>
  <tile gid="130"/>
  <tile gid="193"/>
  <tile gid="193"/>
  <tile gid="193"/>
  <tile gid="193"/>
  <tile gid="794"/>
  <tile gid="853"/>
  <tile gid="886"/>
  <tile gid="885"/>
  <tile gid="885"/>
  <tile gid="885"/>
  <tile gid="885"/>
  <tile gid="885"/>
  <tile gid="885"/>
  <tile gid="885"/>
  <tile gid="888"/>
  <tile gid="853"/>
  <tile gid="853"/>
  <tile gid="853"/>
  <tile gid="853"/>
  <tile gid="853"/>
  <tile gid="853"/>
  <tile gid="853"/>
  <tile gid="853"/>
  <tile gid="853"/>
  <tile gid="162"/>
  <tile gid="193"/>
  <tile gid="162"/>
  <tile gid="162"/>
  <tile gid="533"/>
  <tile gid="193"/>
  <tile gid="130"/>
  <tile gid="33"/>
  <tile gid="193"/>
  <tile gid="33"/>
  <tile gid="129"/>
  <tile gid="129"/>
  <tile gid="794"/>
  <tile gid="853"/>
  <tile gid="853"/>
  <tile gid="885"/>
  <tile gid="885"/>
  <tile gid="885"/>
  <tile gid="885"/>
  <tile gid="885"/>
  <tile gid="885"/>
  <tile gid="888"/>
  <tile gid="853"/>
  <tile gid="727"/>
  <tile gid="726"/>
  <tile gid="827"/>
  <tile gid="725"/>
  <tile gid="663"/>
  <tile gid="726"/>
  <tile gid="827"/>
  <tile gid="725"/>
  <tile gid="726"/>
  <tile gid="193"/>
  <tile gid="162"/>
  <tile gid="193"/>
  <tile gid="257"/>
  <tile gid="162"/>
  <tile gid="162"/>
  <tile gid="130"/>
  <tile gid="129"/>
  <tile gid="129"/>
  <tile gid="130"/>
  <tile gid="193"/>
  <tile gid="193"/>
  <tile gid="796"/>
  <tile gid="853"/>
  <tile gid="854"/>
  <tile gid="885"/>
  <tile gid="885"/>
  <tile gid="885"/>
  <tile gid="885"/>
  <tile gid="885"/>
  <tile gid="856"/>
  <tile gid="853"/>
  <tile gid="853"/>
  <tile gid="759"/>
  <tile gid="193"/>
  <tile gid="129"/>
  <tile gid="193"/>
  <tile gid="193"/>
  <tile gid="193"/>
  <tile gid="129"/>
  <tile gid="193"/>
  <tile gid="193"/>
  <tile gid="130"/>
  <tile gid="193"/>
  <tile gid="162"/>
  <tile gid="162"/>
  <tile gid="193"/>
  <tile gid="193"/>
  <tile gid="129"/>
  <tile gid="129"/>
  <tile gid="257"/>
  <tile gid="193"/>
  <tile gid="130"/>
  <tile gid="758"/>
  <tile gid="853"/>
  <tile gid="854"/>
  <tile gid="885"/>
  <tile gid="885"/>
  <tile gid="885"/>
  <tile gid="888"/>
  <tile gid="885"/>
  <tile gid="885"/>
  <tile gid="885"/>
  <tile gid="856"/>
  <tile gid="853"/>
  <tile gid="853"/>
  <tile gid="759"/>
  <tile gid="193"/>
  <tile gid="129"/>
  <tile gid="193"/>
  <tile gid="162"/>
  <tile gid="33"/>
  <tile gid="193"/>
  <tile gid="129"/>
  <tile gid="130"/>
  <tile gid="533"/>
  <tile gid="561"/>
  <tile gid="129"/>
  <tile gid="129"/>
  <tile gid="129"/>
  <tile gid="130"/>
  <tile gid="129"/>
  <tile gid="129"/>
  <tile gid="129"/>
  <tile gid="760"/>
  <tile gid="853"/>
  <tile gid="853"/>
  <tile gid="885"/>
  <tile gid="885"/>
  <tile gid="885"/>
  <tile gid="888"/>
  <tile gid="853"/>
  <tile gid="886"/>
  <tile gid="885"/>
  <tile gid="885"/>
  <tile gid="885"/>
  <tile gid="856"/>
  <tile gid="853"/>
  <tile gid="853"/>
  <tile gid="759"/>
  <tile gid="664"/>
  <tile gid="193"/>
  <tile gid="193"/>
  <tile gid="193"/>
  <tile gid="33"/>
  <tile gid="193"/>
  <tile gid="193"/>
  <tile gid="193"/>
  <tile gid="129"/>
  <tile gid="129"/>
  <tile gid="129"/>
  <tile gid="162"/>
  <tile gid="130"/>
  <tile gid="193"/>
  <tile gid="193"/>
  <tile gid="760"/>
  <tile gid="853"/>
  <tile gid="853"/>
  <tile gid="854"/>
  <tile gid="885"/>
  <tile gid="885"/>
  <tile gid="888"/>
  <tile gid="853"/>
  <tile gid="853"/>
  <tile gid="853"/>
  <tile gid="853"/>
  <tile gid="886"/>
  <tile gid="885"/>
  <tile gid="885"/>
  <tile gid="856"/>
  <tile gid="853"/>
  <tile gid="853"/>
  <tile gid="853"/>
  <tile gid="695"/>
  <tile gid="193"/>
  <tile gid="257"/>
  <tile gid="257"/>
  <tile gid="162"/>
  <tile gid="193"/>
  <tile gid="257"/>
  <tile gid="129"/>
  <tile gid="129"/>
  <tile gid="130"/>
  <tile gid="760"/>
  <tile gid="859"/>
  <tile gid="826"/>
  <tile gid="826"/>
  <tile gid="853"/>
  <tile gid="853"/>
  <tile gid="854"/>
  <tile gid="885"/>
  <tile gid="885"/>
  <tile gid="888"/>
  <tile gid="853"/>
  <tile gid="827"/>
  <tile gid="725"/>
  <tile gid="663"/>
  <tile gid="726"/>
  <tile gid="853"/>
  <tile gid="886"/>
  <tile gid="885"/>
  <tile gid="885"/>
  <tile gid="853"/>
  <tile gid="853"/>
  <tile gid="853"/>
  <tile gid="695"/>
  <tile gid="193"/>
  <tile gid="257"/>
  <tile gid="533"/>
  <tile gid="561"/>
  <tile gid="257"/>
  <tile gid="129"/>
  <tile gid="193"/>
  <tile gid="129"/>
  <tile gid="193"/>
  <tile gid="796"/>
  <tile gid="853"/>
  <tile gid="853"/>
  <tile gid="853"/>
  <tile gid="853"/>
  <tile gid="853"/>
  <tile gid="885"/>
  <tile gid="885"/>
  <tile gid="888"/>
  <tile gid="853"/>
  <tile gid="795"/>
  <tile gid="129"/>
  <tile gid="130"/>
  <tile gid="193"/>
  <tile gid="193"/>
  <tile gid="728"/>
  <tile gid="853"/>
  <tile gid="886"/>
  <tile gid="888"/>
  <tile gid="853"/>
  <tile gid="853"/>
  <tile gid="725"/>
  <tile gid="129"/>
  <tile gid="129"/>
  <tile gid="129"/>
  <tile gid="129"/>
  <tile gid="162"/>
  <tile gid="129"/>
  <tile gid="129"/>
  <tile gid="129"/>
  <tile gid="193"/>
  <tile gid="193"/>
  <tile gid="726"/>
  <tile gid="725"/>
  <tile gid="663"/>
  <tile gid="726"/>
  <tile gid="827"/>
  <tile gid="853"/>
  <tile gid="853"/>
  <tile gid="888"/>
  <tile gid="853"/>
  <tile gid="853"/>
  <tile gid="725"/>
  <tile gid="130"/>
  <tile gid="129"/>
  <tile gid="129"/>
  <tile gid="193"/>
  <tile gid="193"/>
  <tile gid="726"/>
  <tile gid="727"/>
  <tile gid="726"/>
  <tile gid="853"/>
  <tile gid="853"/>
  <tile gid="695"/>
  <tile gid="193"/>
  <tile gid="193"/>
  <tile gid="468"/>
  <tile gid="506"/>
  <tile gid="496"/>
  <tile gid="129"/>
  <tile gid="129"/>
  <tile gid="193"/>
  <tile gid="193"/>
  <tile gid="193"/>
  <tile gid="257"/>
  <tile gid="130"/>
  <tile gid="257"/>
  <tile gid="130"/>
  <tile gid="130"/>
  <tile gid="726"/>
  <tile gid="853"/>
  <tile gid="853"/>
  <tile gid="853"/>
  <tile gid="725"/>
  <tile gid="533"/>
  <tile gid="561"/>
  <tile gid="130"/>
  <tile gid="129"/>
  <tile gid="129"/>
  <tile gid="193"/>
  <tile gid="257"/>
  <tile gid="257"/>
  <tile gid="193"/>
  <tile gid="606"/>
  <tile gid="607"/>
  <tile gid="607"/>
  <tile gid="608"/>
  <tile gid="193"/>
  <tile gid="130"/>
  <tile gid="193"/>
  <tile gid="162"/>
  <tile gid="533"/>
  <tile gid="561"/>
  <tile gid="193"/>
  <tile gid="193"/>
  <tile gid="193"/>
  <tile gid="468"/>
  <tile gid="495"/>
  <tile gid="495"/>
  <tile gid="257"/>
  <tile gid="257"/>
  <tile gid="162"/>
  <tile gid="796"/>
  <tile gid="795"/>
  <tile gid="663"/>
  <tile gid="257"/>
  <tile gid="130"/>
  <tile gid="193"/>
  <tile gid="129"/>
  <tile gid="193"/>
  <tile gid="130"/>
  <tile gid="129"/>
  <tile gid="505"/>
  <tile gid="495"/>
  <tile gid="162"/>
  <tile gid="760"/>
  <tile gid="853"/>
  <tile gid="859"/>
  <tile gid="759"/>
  <tile gid="778"/>
  <tile gid="664"/>
  <tile gid="780"/>
  <tile gid="758"/>
  <tile gid="129"/>
  <tile gid="129"/>
  <tile gid="129"/>
  <tile gid="129"/>
  <tile gid="162"/>
  <tile gid="257"/>
  <tile gid="130"/>
  <tile gid="257"/>
  <tile gid="257"/>
  <tile gid="257"/>
  <tile gid="606"/>
  <tile gid="607"/>
  <tile gid="607"/>
  <tile gid="608"/>
  <tile gid="162"/>
  <tile gid="130"/>
  <tile gid="129"/>
  <tile gid="533"/>
  <tile gid="561"/>
  <tile gid="162"/>
  <tile gid="194"/>
  <tile gid="194"/>
  <tile gid="194"/>
  <tile gid="162"/>
  <tile gid="796"/>
  <tile gid="886"/>
  <tile gid="885"/>
  <tile gid="856"/>
  <tile gid="597"/>
  <tile gid="725"/>
  <tile gid="598"/>
  <tile gid="853"/>
  <tile gid="129"/>
  <tile gid="193"/>
  <tile gid="193"/>
  <tile gid="129"/>
  <tile gid="129"/>
  <tile gid="129"/>
  <tile gid="129"/>
  <tile gid="533"/>
  <tile gid="561"/>
  <tile gid="193"/>
  <tile gid="257"/>
  <tile gid="726"/>
  <tile gid="795"/>
  <tile gid="193"/>
  <tile gid="130"/>
  <tile gid="760"/>
  <tile gid="757"/>
  <tile gid="257"/>
  <tile gid="193"/>
  <tile gid="193"/>
  <tile gid="778"/>
  <tile gid="779"/>
  <tile gid="780"/>
  <tile gid="194"/>
  <tile gid="726"/>
  <tile gid="853"/>
  <tile gid="885"/>
  <tile gid="885"/>
  <tile gid="629"/>
  <tile gid="630"/>
  <tile gid="598"/>
  <tile gid="853"/>
  <tile gid="129"/>
  <tile gid="193"/>
  <tile gid="193"/>
  <tile gid="778"/>
  <tile gid="780"/>
  <tile gid="129"/>
  <tile gid="129"/>
  <tile gid="193"/>
  <tile gid="760"/>
  <tile gid="757"/>
  <tile gid="760"/>
  <tile gid="859"/>
  <tile gid="853"/>
  <tile gid="825"/>
  <tile gid="826"/>
  <tile gid="853"/>
  <tile gid="853"/>
  <tile gid="759"/>
  <tile gid="130"/>
  <tile gid="130"/>
  <tile gid="597"/>
  <tile gid="598"/>
  <tile gid="598"/>
  <tile gid="664"/>
  <tile gid="758"/>
  <tile gid="886"/>
  <tile gid="886"/>
  <tile gid="888"/>
  <tile gid="795"/>
  <tile gid="598"/>
  <tile gid="598"/>
  <tile gid="599"/>
  <tile gid="760"/>
  <tile gid="757"/>
  <tile gid="599"/>
  <tile gid="597"/>
  <tile gid="598"/>
  <tile gid="760"/>
  <tile gid="757"/>
  <tile gid="758"/>
  <tile gid="853"/>
  <tile gid="853"/>
  <tile gid="853"/>
  <tile gid="853"/>
  <tile gid="853"/>
  <tile gid="853"/>
  <tile gid="853"/>
  <tile gid="853"/>
  <tile gid="853"/>
  <tile gid="853"/>
  <tile gid="759"/>
  <tile gid="664"/>
  <tile gid="629"/>
  <tile gid="630"/>
  <tile gid="630"/>
  <tile gid="853"/>
  <tile gid="853"/>
  <tile gid="853"/>
  <tile gid="854"/>
  <tile gid="856"/>
  <tile gid="885"/>
  <tile gid="695"/>
  <tile gid="630"/>
  <tile gid="631"/>
  <tile gid="853"/>
  <tile gid="853"/>
  <tile gid="631"/>
  <tile gid="629"/>
  <tile gid="630"/>
  <tile gid="853"/>
  <tile gid="853"/>
  <tile gid="853"/>
  <tile gid="853"/>
  <tile gid="853"/>
  <tile gid="853"/>
  <tile gid="854"/>
  <tile gid="885"/>
  <tile gid="856"/>
  <tile gid="853"/>
  <tile gid="853"/>
  <tile gid="853"/>
  <tile gid="853"/>
  <tile gid="853"/>
  <tile gid="853"/>
  <tile gid="597"/>
  <tile gid="598"/>
  <tile gid="598"/>
  <tile gid="599"/>
  <tile gid="853"/>
  <tile gid="854"/>
  <tile gid="885"/>
  <tile gid="888"/>
  <tile gid="663"/>
  <tile gid="598"/>
  <tile gid="598"/>
  <tile gid="853"/>
  <tile gid="856"/>
  <tile gid="853"/>
  <tile gid="853"/>
  <tile gid="597"/>
  <tile gid="598"/>
  <tile gid="631"/>
  <tile gid="853"/>
  <tile gid="853"/>
  <tile gid="853"/>
  <tile gid="854"/>
  <tile gid="885"/>
  <tile gid="885"/>
  <tile gid="885"/>
  <tile gid="885"/>
  <tile gid="856"/>
  <tile gid="853"/>
  <tile gid="853"/>
  <tile gid="853"/>
  <tile gid="853"/>
  <tile gid="599"/>
  <tile gid="629"/>
  <tile gid="630"/>
  <tile gid="630"/>
  <tile gid="631"/>
  <tile gid="853"/>
  <tile gid="885"/>
  <tile gid="888"/>
  <tile gid="599"/>
  <tile gid="629"/>
  <tile gid="630"/>
  <tile gid="853"/>
  <tile gid="853"/>
  <tile gid="885"/>
  <tile gid="853"/>
  <tile gid="853"/>
  <tile gid="629"/>
  <tile gid="630"/>
  <tile gid="853"/>
  <tile gid="853"/>
  <tile gid="853"/>
  <tile gid="853"/>
  <tile gid="885"/>
  <tile gid="885"/>
  <tile gid="885"/>
  <tile gid="885"/>
  <tile gid="885"/>
  <tile gid="885"/>
  <tile gid="885"/>
  <tile gid="856"/>
  <tile gid="853"/>
  <tile gid="853"/>
  <tile gid="631"/>
  <tile gid="597"/>
  <tile gid="598"/>
  <tile gid="598"/>
  <tile gid="853"/>
  <tile gid="886"/>
  <tile gid="885"/>
  <tile gid="856"/>
  <tile gid="631"/>
  <tile gid="597"/>
  <tile gid="598"/>
  <tile gid="853"/>
  <tile gid="853"/>
  <tile gid="888"/>
  <tile gid="853"/>
  <tile gid="725"/>
  <tile gid="778"/>
  <tile gid="780"/>
  <tile gid="890"/>
  <tile gid="891"/>
  <tile gid="853"/>
  <tile gid="853"/>
  <tile gid="886"/>
  <tile gid="885"/>
  <tile gid="885"/>
  <tile gid="885"/>
  <tile gid="885"/>
  <tile gid="885"/>
  <tile gid="885"/>
  <tile gid="885"/>
  <tile gid="856"/>
  <tile gid="853"/>
  <tile gid="853"/>
  <tile gid="629"/>
  <tile gid="630"/>
  <tile gid="630"/>
  <tile gid="853"/>
  <tile gid="886"/>
  <tile gid="885"/>
  <tile gid="885"/>
  <tile gid="888"/>
  <tile gid="795"/>
  <tile gid="630"/>
  <tile gid="827"/>
  <tile gid="853"/>
  <tile gid="853"/>
  <tile gid="795"/>
  <tile gid="129"/>
  <tile gid="193"/>
  <tile gid="130"/>
  <tile gid="257"/>
  <tile gid="193"/>
  <tile gid="726"/>
  <tile gid="853"/>
  <tile gid="854"/>
  <tile gid="885"/>
  <tile gid="885"/>
  <tile gid="885"/>
  <tile gid="885"/>
  <tile gid="885"/>
  <tile gid="885"/>
  <tile gid="885"/>
  <tile gid="885"/>
  <tile gid="739"/>
  <tile gid="770"/>
  <tile gid="778"/>
  <tile gid="779"/>
  <tile gid="780"/>
  <tile gid="771"/>
  <tile gid="738"/>
  <tile gid="886"/>
  <tile gid="888"/>
  <tile gid="709"/>
  <tile gid="597"/>
  <tile gid="598"/>
  <tile gid="598"/>
  <tile gid="771"/>
  <tile gid="853"/>
  <tile gid="725"/>
  <tile gid="193"/>
  <tile gid="193"/>
  <tile gid="780"/>
  <tile gid="129"/>
  <tile gid="33"/>
  <tile gid="758"/>
  <tile gid="854"/>
  <tile gid="885"/>
  <tile gid="885"/>
  <tile gid="885"/>
  <tile gid="885"/>
  <tile gid="885"/>
  <tile gid="885"/>
  <tile gid="885"/>
  <tile gid="885"/>
  <tile gid="885"/>
  <tile gid="709"/>
  <tile gid="909"/>
  <tile gid="910"/>
  <tile gid="910"/>
  <tile gid="910"/>
  <tile gid="910"/>
  <tile gid="709"/>
  <tile gid="853"/>
  <tile gid="853"/>
  <tile gid="709"/>
  <tile gid="778"/>
  <tile gid="779"/>
  <tile gid="780"/>
  <tile gid="909"/>
  <tile gid="853"/>
  <tile gid="826"/>
  <tile gid="759"/>
  <tile gid="778"/>
  <tile gid="598"/>
  <tile gid="826"/>
  <tile gid="826"/>
  <tile gid="854"/>
  <tile gid="885"/>
  <tile gid="885"/>
  <tile gid="885"/>
  <tile gid="885"/>
  <tile gid="885"/>
  <tile gid="885"/>
  <tile gid="885"/>
  <tile gid="885"/>
  <tile gid="885"/>
  <tile gid="885"/>
  <tile gid="709"/>
  <tile gid="941"/>
  <tile gid="942"/>
  <tile gid="942"/>
  <tile gid="942"/>
  <tile gid="942"/>
  <tile gid="709"/>
  <tile gid="794"/>
  <tile gid="793"/>
  <tile gid="709"/>
  <tile gid="909"/>
  <tile gid="910"/>
  <tile gid="910"/>
  <tile gid="1006"/>
  <tile gid="856"/>
  <tile gid="853"/>
  <tile gid="853"/>
  <tile gid="629"/>
  <tile gid="859"/>
  <tile gid="853"/>
  <tile gid="853"/>
  <tile gid="853"/>
  <tile gid="853"/>
  <tile gid="886"/>
  <tile gid="885"/>
  <tile gid="885"/>
  <tile gid="885"/>
  <tile gid="885"/>
  <tile gid="885"/>
  <tile gid="885"/>
  <tile gid="885"/>
  <tile gid="885"/>
  <tile gid="709"/>
  <tile gid="941"/>
  <tile gid="942"/>
  <tile gid="1006"/>
  <tile gid="1006"/>
  <tile gid="1006"/>
  <tile gid="709"/>
  <tile gid="794"/>
  <tile gid="793"/>
  <tile gid="709"/>
  <tile gid="941"/>
  <tile gid="942"/>
  <tile gid="1006"/>
  <tile gid="942"/>
  <tile gid="885"/>
  <tile gid="856"/>
  <tile gid="853"/>
  <tile gid="597"/>
  <tile gid="827"/>
  <tile gid="853"/>
  <tile gid="853"/>
  <tile gid="853"/>
  <tile gid="853"/>
  <tile gid="853"/>
  <tile gid="853"/>
  <tile gid="886"/>
  <tile gid="885"/>
  <tile gid="885"/>
  <tile gid="885"/>
  <tile gid="885"/>
  <tile gid="885"/>
  <tile gid="888"/>
  <tile gid="709"/>
  <tile gid="941"/>
  <tile gid="1006"/>
  <tile gid="942"/>
  <tile gid="942"/>
  <tile gid="1006"/>
  <tile gid="742"/>
  <tile gid="643"/>
  <tile gid="644"/>
  <tile gid="742"/>
  <tile gid="941"/>
  <tile gid="1006"/>
  <tile gid="942"/>
  <tile gid="1006"/>
  <tile gid="885"/>
  <tile gid="888"/>
  <tile gid="853"/>
  <tile gid="629"/>
  <tile gid="630"/>
  <tile gid="726"/>
  <tile gid="827"/>
  <tile gid="729"/>
  <tile gid="663"/>
  <tile gid="730"/>
  <tile gid="827"/>
  <tile gid="853"/>
  <tile gid="853"/>
  <tile gid="886"/>
  <tile gid="885"/>
  <tile gid="885"/>
  <tile gid="888"/>
  <tile gid="853"/>
  <tile gid="742"/>
  <tile gid="941"/>
  <tile gid="1006"/>
  <tile gid="1006"/>
  <tile gid="942"/>
  <tile gid="1006"/>
  <tile gid="681"/>
  <tile gid="712"/>
  <tile gid="715"/>
  <tile gid="681"/>
  <tile gid="941"/>
  <tile gid="942"/>
  <tile gid="1006"/>
  <tile gid="1006"/>
  <tile gid="888"/>
  <tile gid="853"/>
  <tile gid="725"/>
  <tile gid="778"/>
  <tile gid="780"/>
  <tile gid="257"/>
  <tile gid="130"/>
  <tile gid="129"/>
  <tile gid="130"/>
  <tile gid="130"/>
  <tile gid="257"/>
  <tile gid="730"/>
  <tile gid="853"/>
  <tile gid="853"/>
  <tile gid="853"/>
  <tile gid="853"/>
  <tile gid="853"/>
  <tile gid="853"/>
  <tile gid="681"/>
  <tile gid="941"/>
  <tile gid="1006"/>
  <tile gid="1006"/>
  <tile gid="942"/>
  <tile gid="1006"/>
  <tile gid="1006"/>
  <tile gid="1006"/>
  <tile gid="1006"/>
  <tile gid="1006"/>
  <tile gid="942"/>
  <tile gid="1006"/>
  <tile gid="1006"/>
  <tile gid="1006"/>
  <tile gid="853"/>
  <tile gid="793"/>
  <tile gid="193"/>
  <tile gid="193"/>
  <tile gid="193"/>
  <tile gid="130"/>
  <tile gid="533"/>
  <tile gid="257"/>
  <tile gid="257"/>
  <tile gid="257"/>
  <tile gid="193"/>
  <tile gid="580"/>
  <tile gid="598"/>
  <tile gid="598"/>
  <tile gid="598"/>
  <tile gid="853"/>
  <tile gid="853"/>
  <tile gid="598"/>
  <tile gid="581"/>
  <tile gid="941"/>
  <tile gid="1006"/>
  <tile gid="942"/>
  <tile gid="942"/>
  <tile gid="1006"/>
  <tile gid="1006"/>
  <tile gid="1006"/>
  <tile gid="942"/>
  <tile gid="942"/>
  <tile gid="942"/>
  <tile gid="942"/>
  <tile gid="1006"/>
  <tile gid="1006"/>
  <tile gid="853"/>
  <tile gid="795"/>
  <tile gid="257"/>
  <tile gid="257"/>
  <tile gid="257"/>
  <tile gid="130"/>
  <tile gid="129"/>
  <tile gid="257"/>
  <tile gid="257"/>
  <tile gid="257"/>
  <tile gid="193"/>
  <tile gid="612"/>
  <tile gid="630"/>
  <tile gid="853"/>
  <tile gid="598"/>
  <tile gid="630"/>
  <tile gid="630"/>
  <tile gid="630"/>
  <tile gid="613"/>
  <tile gid="941"/>
  <tile gid="1006"/>
  <tile gid="942"/>
  <tile gid="1006"/>
  <tile gid="1006"/>
  <tile gid="1006"/>
  <tile gid="942"/>
  <tile gid="942"/>
  <tile gid="1006"/>
  <tile gid="1006"/>
  <tile gid="942"/>
  <tile gid="1006"/>
  <tile gid="1006"/>
  <tile gid="853"/>
  <tile gid="725"/>
  <tile gid="193"/>
  <tile gid="193"/>
  <tile gid="193"/>
  <tile gid="129"/>
  <tile gid="193"/>
  <tile gid="193"/>
  <tile gid="193"/>
  <tile gid="533"/>
  <tile gid="561"/>
  <tile gid="193"/>
  <tile gid="796"/>
  <tile gid="853"/>
  <tile gid="853"/>
  <tile gid="853"/>
  <tile gid="853"/>
  <tile gid="854"/>
  <tile gid="709"/>
  <tile gid="941"/>
  <tile gid="942"/>
  <tile gid="942"/>
  <tile gid="942"/>
  <tile gid="942"/>
  <tile gid="942"/>
  <tile gid="942"/>
  <tile gid="1006"/>
  <tile gid="1006"/>
  <tile gid="1006"/>
  <tile gid="942"/>
  <tile gid="1006"/>
  <tile gid="1006"/>
  <tile gid="856"/>
  <tile gid="826"/>
  <tile gid="759"/>
  <tile gid="193"/>
  <tile gid="193"/>
  <tile gid="33"/>
  <tile gid="193"/>
  <tile gid="130"/>
  <tile gid="130"/>
  <tile gid="760"/>
  <tile gid="859"/>
  <tile gid="826"/>
  <tile gid="853"/>
  <tile gid="853"/>
  <tile gid="853"/>
  <tile gid="854"/>
  <tile gid="885"/>
  <tile gid="885"/>
  <tile gid="709"/>
  <tile gid="941"/>
  <tile gid="1006"/>
  <tile gid="1006"/>
  <tile gid="942"/>
  <tile gid="942"/>
  <tile gid="942"/>
  <tile gid="1006"/>
  <tile gid="1006"/>
  <tile gid="1006"/>
  <tile gid="1006"/>
  <tile gid="942"/>
  <tile gid="1006"/>
  <tile gid="1006"/>
  <tile gid="885"/>
  <tile gid="856"/>
  <tile gid="853"/>
  <tile gid="826"/>
  <tile gid="859"/>
  <tile gid="859"/>
  <tile gid="826"/>
  <tile gid="826"/>
  <tile gid="826"/>
  <tile gid="853"/>
  <tile gid="853"/>
  <tile gid="853"/>
  <tile gid="854"/>
  <tile gid="885"/>
  <tile gid="885"/>
  <tile gid="885"/>
  <tile gid="885"/>
  <tile gid="885"/>
  <tile gid="742"/>
  <tile gid="941"/>
  <tile gid="1006"/>
  <tile gid="1006"/>
  <tile gid="1006"/>
  <tile gid="1006"/>
  <tile gid="1006"/>
  <tile gid="942"/>
  <tile gid="942"/>
  <tile gid="942"/>
  <tile gid="942"/>
  <tile gid="942"/>
  <tile gid="1006"/>
  <tile gid="1006"/>
  <tile gid="885"/>
  <tile gid="885"/>
  <tile gid="856"/>
  <tile gid="853"/>
  <tile gid="853"/>
  <tile gid="853"/>
  <tile gid="853"/>
  <tile gid="853"/>
  <tile gid="853"/>
  <tile gid="854"/>
  <tile gid="885"/>
  <tile gid="885"/>
  <tile gid="885"/>
  <tile gid="885"/>
  <tile gid="885"/>
  <tile gid="885"/>
  <tile gid="885"/>
  <tile gid="885"/>
  <tile gid="681"/>
  <tile gid="941"/>
  <tile gid="1006"/>
  <tile gid="1006"/>
  <tile gid="1006"/>
  <tile gid="1006"/>
  <tile gid="942"/>
  <tile gid="942"/>
  <tile gid="942"/>
  <tile gid="942"/>
  <tile gid="942"/>
  <tile gid="942"/>
  <tile gid="1006"/>
  <tile gid="1006"/>
  </data>
 </layer>
</map>
