<?xml version="1.0" encoding="UTF-8"?>
<map version="1.0" orientation="orthogonal" width="32" height="22" tilewidth="16" tileheight="16">
 <tileset firstgid="1" name="0E000F10" tilewidth="16" tileheight="16">
  <image source="0E000F10.png" trans="ffffff"/>
 </tileset>
 <layer name="Tile Layer 1" width="32" height="22">
  <properties>
   <property name="Anims1" value="0x12"/>
   <property name="Anims2" value="0x0"/>
   <property name="ChapterID" value="0x8"/>
   <property name="Main" value=""/>
   <property name="MapChangesID" value="0x26"/>
   <property name="MapID" value="0x25"/>
   <property name="ObjectType" value="0xe"/>
   <property name="PaletteID" value="0xf"/>
   <property name="TileConfig" value="0x10"/>
  </properties>
  <data>
  <tile gid="900"/>
  <tile gid="465"/>
  <tile gid="876"/>
  <tile gid="807"/>
  <tile gid="807"/>
  <tile gid="964"/>
  <tile gid="962"/>
  <tile gid="962"/>
  <tile gid="901"/>
  <tile gid="933"/>
  <tile gid="900"/>
  <tile gid="901"/>
  <tile gid="933"/>
  <tile gid="933"/>
  <tile gid="807"/>
  <tile gid="807"/>
  <tile gid="932"/>
  <tile gid="962"/>
  <tile gid="962"/>
  <tile gid="901"/>
  <tile gid="803"/>
  <tile gid="972"/>
  <tile gid="952"/>
  <tile gid="869"/>
  <tile gid="930"/>
  <tile gid="930"/>
  <tile gid="930"/>
  <tile gid="901"/>
  <tile gid="933"/>
  <tile gid="900"/>
  <tile gid="995"/>
  <tile gid="965"/>
  <tile gid="808"/>
  <tile gid="193"/>
  <tile gid="20"/>
  <tile gid="193"/>
  <tile gid="193"/>
  <tile gid="869"/>
  <tile gid="962"/>
  <tile gid="901"/>
  <tile gid="933"/>
  <tile gid="807"/>
  <tile gid="807"/>
  <tile gid="807"/>
  <tile gid="807"/>
  <tile gid="803"/>
  <tile gid="129"/>
  <tile gid="20"/>
  <tile gid="809"/>
  <tile gid="962"/>
  <tile gid="876"/>
  <tile gid="803"/>
  <tile gid="916"/>
  <tile gid="982"/>
  <tile gid="949"/>
  <tile gid="809"/>
  <tile gid="930"/>
  <tile gid="930"/>
  <tile gid="901"/>
  <tile gid="807"/>
  <tile gid="807"/>
  <tile gid="964"/>
  <tile gid="930"/>
  <tile gid="995"/>
  <tile gid="808"/>
  <tile gid="130"/>
  <tile gid="173"/>
  <tile gid="972"/>
  <tile gid="193"/>
  <tile gid="809"/>
  <tile gid="962"/>
  <tile gid="899"/>
  <tile gid="803"/>
  <tile gid="162"/>
  <tile gid="417"/>
  <tile gid="419"/>
  <tile gid="162"/>
  <tile gid="972"/>
  <tile gid="193"/>
  <tile gid="173"/>
  <tile gid="802"/>
  <tile gid="876"/>
  <tile gid="13"/>
  <tile gid="916"/>
  <tile gid="923"/>
  <tile gid="21"/>
  <tile gid="22"/>
  <tile gid="23"/>
  <tile gid="869"/>
  <tile gid="931"/>
  <tile gid="808"/>
  <tile gid="420"/>
  <tile gid="129"/>
  <tile gid="809"/>
  <tile gid="866"/>
  <tile gid="930"/>
  <tile gid="899"/>
  <tile gid="811"/>
  <tile gid="972"/>
  <tile gid="130"/>
  <tile gid="130"/>
  <tile gid="193"/>
  <tile gid="809"/>
  <tile gid="876"/>
  <tile gid="804"/>
  <tile gid="558"/>
  <tile gid="560"/>
  <tile gid="420"/>
  <tile gid="972"/>
  <tile gid="129"/>
  <tile gid="193"/>
  <tile gid="802"/>
  <tile gid="876"/>
  <tile gid="804"/>
  <tile gid="173"/>
  <tile gid="922"/>
  <tile gid="923"/>
  <tile gid="85"/>
  <tile gid="86"/>
  <tile gid="87"/>
  <tile gid="809"/>
  <tile gid="876"/>
  <tile gid="803"/>
  <tile gid="13"/>
  <tile gid="8"/>
  <tile gid="420"/>
  <tile gid="809"/>
  <tile gid="866"/>
  <tile gid="876"/>
  <tile gid="803"/>
  <tile gid="193"/>
  <tile gid="193"/>
  <tile gid="193"/>
  <tile gid="130"/>
  <tile gid="130"/>
  <tile gid="130"/>
  <tile gid="193"/>
  <tile gid="193"/>
  <tile gid="193"/>
  <tile gid="290"/>
  <tile gid="972"/>
  <tile gid="129"/>
  <tile gid="802"/>
  <tile gid="901"/>
  <tile gid="17"/>
  <tile gid="193"/>
  <tile gid="77"/>
  <tile gid="922"/>
  <tile gid="923"/>
  <tile gid="201"/>
  <tile gid="166"/>
  <tile gid="290"/>
  <tile gid="420"/>
  <tile gid="972"/>
  <tile gid="130"/>
  <tile gid="106"/>
  <tile gid="105"/>
  <tile gid="129"/>
  <tile gid="193"/>
  <tile gid="869"/>
  <tile gid="811"/>
  <tile gid="129"/>
  <tile gid="193"/>
  <tile gid="193"/>
  <tile gid="193"/>
  <tile gid="916"/>
  <tile gid="917"/>
  <tile gid="193"/>
  <tile gid="356"/>
  <tile gid="130"/>
  <tile gid="420"/>
  <tile gid="162"/>
  <tile gid="972"/>
  <tile gid="129"/>
  <tile gid="809"/>
  <tile gid="876"/>
  <tile gid="804"/>
  <tile gid="42"/>
  <tile gid="74"/>
  <tile gid="606"/>
  <tile gid="608"/>
  <tile gid="73"/>
  <tile gid="41"/>
  <tile gid="494"/>
  <tile gid="494"/>
  <tile gid="972"/>
  <tile gid="80"/>
  <tile gid="79"/>
  <tile gid="105"/>
  <tile gid="129"/>
  <tile gid="802"/>
  <tile gid="930"/>
  <tile gid="803"/>
  <tile gid="129"/>
  <tile gid="290"/>
  <tile gid="290"/>
  <tile gid="290"/>
  <tile gid="948"/>
  <tile gid="949"/>
  <tile gid="30"/>
  <tile gid="31"/>
  <tile gid="31"/>
  <tile gid="32"/>
  <tile gid="129"/>
  <tile gid="130"/>
  <tile gid="130"/>
  <tile gid="972"/>
  <tile gid="7"/>
  <tile gid="73"/>
  <tile gid="40"/>
  <tile gid="916"/>
  <tile gid="987"/>
  <tile gid="949"/>
  <tile gid="39"/>
  <tile gid="79"/>
  <tile gid="8"/>
  <tile gid="7"/>
  <tile gid="73"/>
  <tile gid="73"/>
  <tile gid="79"/>
  <tile gid="40"/>
  <tile gid="356"/>
  <tile gid="420"/>
  <tile gid="869"/>
  <tile gid="811"/>
  <tile gid="129"/>
  <tile gid="162"/>
  <tile gid="470"/>
  <tile gid="504"/>
  <tile gid="496"/>
  <tile gid="290"/>
  <tile gid="62"/>
  <tile gid="63"/>
  <tile gid="63"/>
  <tile gid="64"/>
  <tile gid="130"/>
  <tile gid="420"/>
  <tile gid="972"/>
  <tile gid="7"/>
  <tile gid="79"/>
  <tile gid="9"/>
  <tile gid="916"/>
  <tile gid="987"/>
  <tile gid="949"/>
  <tile gid="194"/>
  <tile gid="356"/>
  <tile gid="74"/>
  <tile gid="79"/>
  <tile gid="79"/>
  <tile gid="79"/>
  <tile gid="79"/>
  <tile gid="420"/>
  <tile gid="290"/>
  <tile gid="420"/>
  <tile gid="290"/>
  <tile gid="809"/>
  <tile gid="803"/>
  <tile gid="129"/>
  <tile gid="162"/>
  <tile gid="558"/>
  <tile gid="560"/>
  <tile gid="129"/>
  <tile gid="129"/>
  <tile gid="94"/>
  <tile gid="95"/>
  <tile gid="95"/>
  <tile gid="96"/>
  <tile gid="193"/>
  <tile gid="972"/>
  <tile gid="972"/>
  <tile gid="106"/>
  <tile gid="105"/>
  <tile gid="916"/>
  <tile gid="987"/>
  <tile gid="949"/>
  <tile gid="130"/>
  <tile gid="80"/>
  <tile gid="8"/>
  <tile gid="42"/>
  <tile gid="420"/>
  <tile gid="79"/>
  <tile gid="356"/>
  <tile gid="79"/>
  <tile gid="105"/>
  <tile gid="193"/>
  <tile gid="417"/>
  <tile gid="419"/>
  <tile gid="290"/>
  <tile gid="129"/>
  <tile gid="129"/>
  <tile gid="162"/>
  <tile gid="129"/>
  <tile gid="20"/>
  <tile gid="7"/>
  <tile gid="8"/>
  <tile gid="193"/>
  <tile gid="10"/>
  <tile gid="105"/>
  <tile gid="972"/>
  <tile gid="193"/>
  <tile gid="972"/>
  <tile gid="193"/>
  <tile gid="106"/>
  <tile gid="74"/>
  <tile gid="606"/>
  <tile gid="608"/>
  <tile gid="73"/>
  <tile gid="8"/>
  <tile gid="7"/>
  <tile gid="79"/>
  <tile gid="79"/>
  <tile gid="79"/>
  <tile gid="79"/>
  <tile gid="420"/>
  <tile gid="79"/>
  <tile gid="40"/>
  <tile gid="130"/>
  <tile gid="534"/>
  <tile gid="533"/>
  <tile gid="290"/>
  <tile gid="80"/>
  <tile gid="73"/>
  <tile gid="8"/>
  <tile gid="129"/>
  <tile gid="173"/>
  <tile gid="106"/>
  <tile gid="79"/>
  <tile gid="41"/>
  <tile gid="193"/>
  <tile gid="39"/>
  <tile gid="79"/>
  <tile gid="8"/>
  <tile gid="7"/>
  <tile gid="73"/>
  <tile gid="9"/>
  <tile gid="129"/>
  <tile gid="922"/>
  <tile gid="923"/>
  <tile gid="10"/>
  <tile gid="79"/>
  <tile gid="79"/>
  <tile gid="79"/>
  <tile gid="79"/>
  <tile gid="79"/>
  <tile gid="417"/>
  <tile gid="419"/>
  <tile gid="79"/>
  <tile gid="420"/>
  <tile gid="8"/>
  <tile gid="193"/>
  <tile gid="420"/>
  <tile gid="193"/>
  <tile gid="129"/>
  <tile gid="78"/>
  <tile gid="10"/>
  <tile gid="73"/>
  <tile gid="73"/>
  <tile gid="79"/>
  <tile gid="79"/>
  <tile gid="79"/>
  <tile gid="73"/>
  <tile gid="112"/>
  <tile gid="10"/>
  <tile gid="74"/>
  <tile gid="74"/>
  <tile gid="74"/>
  <tile gid="8"/>
  <tile gid="129"/>
  <tile gid="922"/>
  <tile gid="923"/>
  <tile gid="162"/>
  <tile gid="39"/>
  <tile gid="74"/>
  <tile gid="79"/>
  <tile gid="79"/>
  <tile gid="79"/>
  <tile gid="79"/>
  <tile gid="105"/>
  <tile gid="39"/>
  <tile gid="74"/>
  <tile gid="13"/>
  <tile gid="130"/>
  <tile gid="356"/>
  <tile gid="193"/>
  <tile gid="811"/>
  <tile gid="129"/>
  <tile gid="130"/>
  <tile gid="39"/>
  <tile gid="79"/>
  <tile gid="79"/>
  <tile gid="79"/>
  <tile gid="79"/>
  <tile gid="40"/>
  <tile gid="162"/>
  <tile gid="558"/>
  <tile gid="559"/>
  <tile gid="560"/>
  <tile gid="420"/>
  <tile gid="105"/>
  <tile gid="356"/>
  <tile gid="922"/>
  <tile gid="923"/>
  <tile gid="290"/>
  <tile gid="290"/>
  <tile gid="420"/>
  <tile gid="39"/>
  <tile gid="40"/>
  <tile gid="39"/>
  <tile gid="74"/>
  <tile gid="40"/>
  <tile gid="130"/>
  <tile gid="130"/>
  <tile gid="130"/>
  <tile gid="534"/>
  <tile gid="494"/>
  <tile gid="420"/>
  <tile gid="995"/>
  <tile gid="811"/>
  <tile gid="193"/>
  <tile gid="130"/>
  <tile gid="106"/>
  <tile gid="79"/>
  <tile gid="420"/>
  <tile gid="40"/>
  <tile gid="193"/>
  <tile gid="193"/>
  <tile gid="193"/>
  <tile gid="162"/>
  <tile gid="356"/>
  <tile gid="7"/>
  <tile gid="420"/>
  <tile gid="193"/>
  <tile gid="922"/>
  <tile gid="923"/>
  <tile gid="470"/>
  <tile gid="504"/>
  <tile gid="496"/>
  <tile gid="290"/>
  <tile gid="290"/>
  <tile gid="130"/>
  <tile gid="194"/>
  <tile gid="290"/>
  <tile gid="496"/>
  <tile gid="533"/>
  <tile gid="561"/>
  <tile gid="130"/>
  <tile gid="129"/>
  <tile gid="290"/>
  <tile gid="962"/>
  <tile gid="995"/>
  <tile gid="811"/>
  <tile gid="129"/>
  <tile gid="39"/>
  <tile gid="74"/>
  <tile gid="356"/>
  <tile gid="193"/>
  <tile gid="193"/>
  <tile gid="193"/>
  <tile gid="193"/>
  <tile gid="802"/>
  <tile gid="811"/>
  <tile gid="39"/>
  <tile gid="356"/>
  <tile gid="972"/>
  <tile gid="922"/>
  <tile gid="987"/>
  <tile gid="984"/>
  <tile gid="982"/>
  <tile gid="982"/>
  <tile gid="602"/>
  <tile gid="982"/>
  <tile gid="982"/>
  <tile gid="982"/>
  <tile gid="602"/>
  <tile gid="982"/>
  <tile gid="982"/>
  <tile gid="982"/>
  <tile gid="602"/>
  <tile gid="982"/>
  <tile gid="982"/>
  <tile gid="809"/>
  <tile gid="962"/>
  <tile gid="899"/>
  <tile gid="811"/>
  <tile gid="193"/>
  <tile gid="420"/>
  <tile gid="972"/>
  <tile gid="806"/>
  <tile gid="802"/>
  <tile gid="811"/>
  <tile gid="802"/>
  <tile gid="876"/>
  <tile gid="803"/>
  <tile gid="420"/>
  <tile gid="802"/>
  <tile gid="431"/>
  <tile gid="922"/>
  <tile gid="987"/>
  <tile gid="923"/>
  <tile gid="193"/>
  <tile gid="7"/>
  <tile gid="8"/>
  <tile gid="534"/>
  <tile gid="533"/>
  <tile gid="561"/>
  <tile gid="77"/>
  <tile gid="497"/>
  <tile gid="193"/>
  <tile gid="193"/>
  <tile gid="194"/>
  <tile gid="496"/>
  <tile gid="533"/>
  <tile gid="129"/>
  <tile gid="809"/>
  <tile gid="931"/>
  <tile gid="808"/>
  <tile gid="20"/>
  <tile gid="802"/>
  <tile gid="902"/>
  <tile gid="970"/>
  <tile gid="876"/>
  <tile gid="803"/>
  <tile gid="356"/>
  <tile gid="193"/>
  <tile gid="290"/>
  <tile gid="802"/>
  <tile gid="901"/>
  <tile gid="876"/>
  <tile gid="922"/>
  <tile gid="1016"/>
  <tile gid="949"/>
  <tile gid="193"/>
  <tile gid="106"/>
  <tile gid="79"/>
  <tile gid="8"/>
  <tile gid="77"/>
  <tile gid="7"/>
  <tile gid="79"/>
  <tile gid="41"/>
  <tile gid="290"/>
  <tile gid="193"/>
  <tile gid="193"/>
  <tile gid="194"/>
  <tile gid="471"/>
  <tile gid="129"/>
  <tile gid="194"/>
  <tile gid="876"/>
  <tile gid="803"/>
  <tile gid="194"/>
  <tile gid="876"/>
  <tile gid="803"/>
  <tile gid="130"/>
  <tile gid="130"/>
  <tile gid="420"/>
  <tile gid="194"/>
  <tile gid="420"/>
  <tile gid="129"/>
  <tile gid="869"/>
  <tile gid="431"/>
  <tile gid="916"/>
  <tile gid="949"/>
  <tile gid="77"/>
  <tile gid="77"/>
  <tile gid="7"/>
  <tile gid="79"/>
  <tile gid="79"/>
  <tile gid="79"/>
  <tile gid="79"/>
  <tile gid="79"/>
  <tile gid="79"/>
  <tile gid="40"/>
  <tile gid="193"/>
  <tile gid="290"/>
  <tile gid="193"/>
  <tile gid="193"/>
  <tile gid="194"/>
  <tile gid="533"/>
  <tile gid="561"/>
  <tile gid="193"/>
  <tile gid="417"/>
  <tile gid="419"/>
  <tile gid="972"/>
  <tile gid="470"/>
  <tile gid="504"/>
  <tile gid="496"/>
  <tile gid="193"/>
  <tile gid="193"/>
  <tile gid="290"/>
  <tile gid="193"/>
  <tile gid="869"/>
  <tile gid="931"/>
  <tile gid="952"/>
  <tile gid="7"/>
  <tile gid="356"/>
  <tile gid="79"/>
  <tile gid="79"/>
  <tile gid="79"/>
  <tile gid="79"/>
  <tile gid="20"/>
  <tile gid="79"/>
  <tile gid="40"/>
  <tile gid="39"/>
  <tile gid="112"/>
  <tile gid="193"/>
  <tile gid="290"/>
  <tile gid="193"/>
  <tile gid="193"/>
  <tile gid="194"/>
  <tile gid="129"/>
  <tile gid="470"/>
  <tile gid="417"/>
  <tile gid="419"/>
  <tile gid="470"/>
  <tile gid="504"/>
  <tile gid="496"/>
  <tile gid="467"/>
  <tile gid="534"/>
  <tile gid="533"/>
  <tile gid="290"/>
  <tile gid="193"/>
  <tile gid="193"/>
  <tile gid="809"/>
  <tile gid="876"/>
  <tile gid="952"/>
  <tile gid="106"/>
  <tile gid="79"/>
  <tile gid="420"/>
  <tile gid="39"/>
  <tile gid="40"/>
  <tile gid="78"/>
  <tile gid="39"/>
  <tile gid="79"/>
  <tile gid="41"/>
  <tile gid="194"/>
  <tile gid="193"/>
  <tile gid="290"/>
  <tile gid="193"/>
  <tile gid="290"/>
  <tile gid="290"/>
  <tile gid="193"/>
  <tile gid="504"/>
  <tile gid="533"/>
  <tile gid="290"/>
  <tile gid="417"/>
  <tile gid="419"/>
  <tile gid="194"/>
  <tile gid="420"/>
  <tile gid="193"/>
  <tile gid="20"/>
  <tile gid="193"/>
  <tile gid="193"/>
  <tile gid="504"/>
  <tile gid="496"/>
  <tile gid="194"/>
  <tile gid="290"/>
  <tile gid="952"/>
  <tile gid="39"/>
  <tile gid="79"/>
  <tile gid="105"/>
  <tile gid="470"/>
  <tile gid="504"/>
  <tile gid="420"/>
  <tile gid="417"/>
  <tile gid="419"/>
  <tile gid="417"/>
  <tile gid="419"/>
  <tile gid="162"/>
  <tile gid="494"/>
  <tile gid="496"/>
  <tile gid="194"/>
  <tile gid="534"/>
  <tile gid="533"/>
  <tile gid="129"/>
  <tile gid="501"/>
  <tile gid="417"/>
  <tile gid="419"/>
  <tile gid="420"/>
  <tile gid="420"/>
  <tile gid="194"/>
  <tile gid="496"/>
  <tile gid="533"/>
  <tile gid="534"/>
  <tile gid="503"/>
  <tile gid="467"/>
  <tile gid="129"/>
  <tile gid="290"/>
  <tile gid="193"/>
  <tile gid="952"/>
  <tile gid="130"/>
  <tile gid="39"/>
  <tile gid="40"/>
  <tile gid="193"/>
  <tile gid="420"/>
  <tile gid="417"/>
  <tile gid="419"/>
  <tile gid="417"/>
  <tile gid="419"/>
  <tile gid="470"/>
  <tile gid="504"/>
  <tile gid="496"/>
  <tile gid="193"/>
  <tile gid="420"/>
  <tile gid="194"/>
  <tile gid="471"/>
  </data>
 </layer>
 <layer name="Map Change 0" width="32" height="22">
  <properties>
   <property name="ID" value ="0"/>
   <property name="Height" value ="2"/>
   <property name="Width" value ="3"/>
   <property name="X" value ="21"/>
   <property name="Y" value ="2"/>
  </properties>
  <data>
  <tile gid="0"/>
  <tile gid="0"/>
  <tile gid="0"/>
  <tile gid="0"/>
  <tile gid="0"/>
  <tile gid="0"/>
  <tile gid="0"/>
  <tile gid="0"/>
  <tile gid="0"/>
  <tile gid="0"/>
  <tile gid="0"/>
  <tile gid="0"/>
  <tile gid="0"/>
  <tile gid="0"/>
  <tile gid="0"/>
  <tile gid="0"/>
  <tile gid="0"/>
  <tile gid="0"/>
  <tile gid="0"/>
  <tile gid="0"/>
  <tile gid="0"/>
  <tile gid="0"/>
  <tile gid="0"/>
  <tile gid="0"/>
  <tile gid="0"/>
  <tile gid="0"/>
  <tile gid="0"/>
  <tile gid="0"/>
  <tile gid="0"/>
  <tile gid="0"/>
  <tile gid="0"/>
  <tile gid="0"/>
  <tile gid="0"/>
  <tile gid="0"/>
  <tile gid="0"/>
  <tile gid="0"/>
  <tile gid="0"/>
  <tile gid="0"/>
  <tile gid="0"/>
  <tile gid="0"/>
  <tile gid="0"/>
  <tile gid="0"/>
  <tile gid="0"/>
  <tile gid="0"/>
  <tile gid="0"/>
  <tile gid="0"/>
  <tile gid="0"/>
  <tile gid="0"/>
  <tile gid="0"/>
  <tile gid="0"/>
  <tile gid="0"/>
  <tile gid="0"/>
  <tile gid="0"/>
  <tile gid="0"/>
  <tile gid="0"/>
  <tile gid="0"/>
  <tile gid="0"/>
  <tile gid="0"/>
  <tile gid="0"/>
  <tile gid="0"/>
  <tile gid="0"/>
  <tile gid="0"/>
  <tile gid="0"/>
  <tile gid="0"/>
  <tile gid="0"/>
  <tile gid="0"/>
  <tile gid="0"/>
  <tile gid="0"/>
  <tile gid="0"/>
  <tile gid="0"/>
  <tile gid="0"/>
  <tile gid="0"/>
  <tile gid="0"/>
  <tile gid="0"/>
  <tile gid="0"/>
  <tile gid="0"/>
  <tile gid="0"/>
  <tile gid="0"/>
  <tile gid="0"/>
  <tile gid="0"/>
  <tile gid="0"/>
  <tile gid="0"/>
  <tile gid="0"/>
  <tile gid="0"/>
  <tile gid="0"/>
  <tile gid="24"/>
  <tile gid="25"/>
  <tile gid="26"/>
  <tile gid="0"/>
  <tile gid="0"/>
  <tile gid="0"/>
  <tile gid="0"/>
  <tile gid="0"/>
  <tile gid="0"/>
  <tile gid="0"/>
  <tile gid="0"/>
  <tile gid="0"/>
  <tile gid="0"/>
  <tile gid="0"/>
  <tile gid="0"/>
  <tile gid="0"/>
  <tile gid="0"/>
  <tile gid="0"/>
  <tile gid="0"/>
  <tile gid="0"/>
  <tile gid="0"/>
  <tile gid="0"/>
  <tile gid="0"/>
  <tile gid="0"/>
  <tile gid="0"/>
  <tile gid="0"/>
  <tile gid="0"/>
  <tile gid="0"/>
  <tile gid="0"/>
  <tile gid="0"/>
  <tile gid="0"/>
  <tile gid="0"/>
  <tile gid="88"/>
  <tile gid="89"/>
  <tile gid="90"/>
  <tile gid="0"/>
  <tile gid="0"/>
  <tile gid="0"/>
  <tile gid="0"/>
  <tile gid="0"/>
  <tile gid="0"/>
  <tile gid="0"/>
  <tile gid="0"/>
  <tile gid="0"/>
  <tile gid="0"/>
  <tile gid="0"/>
  <tile gid="0"/>
  <tile gid="0"/>
  <tile gid="0"/>
  <tile gid="0"/>
  <tile gid="0"/>
  <tile gid="0"/>
  <tile gid="0"/>
  <tile gid="0"/>
  <tile gid="0"/>
  <tile gid="0"/>
  <tile gid="0"/>
  <tile gid="0"/>
  <tile gid="0"/>
  <tile gid="0"/>
  <tile gid="0"/>
  <tile gid="0"/>
  <tile gid="0"/>
  <tile gid="0"/>
  <tile gid="0"/>
  <tile gid="0"/>
  <tile gid="0"/>
  <tile gid="0"/>
  <tile gid="0"/>
  <tile gid="0"/>
  <tile gid="0"/>
  <tile gid="0"/>
  <tile gid="0"/>
  <tile gid="0"/>
  <tile gid="0"/>
  <tile gid="0"/>
  <tile gid="0"/>
  <tile gid="0"/>
  <tile gid="0"/>
  <tile gid="0"/>
  <tile gid="0"/>
  <tile gid="0"/>
  <tile gid="0"/>
  <tile gid="0"/>
  <tile gid="0"/>
  <tile gid="0"/>
  <tile gid="0"/>
  <tile gid="0"/>
  <tile gid="0"/>
  <tile gid="0"/>
  <tile gid="0"/>
  <tile gid="0"/>
  <tile gid="0"/>
  <tile gid="0"/>
  <tile gid="0"/>
  <tile gid="0"/>
  <tile gid="0"/>
  <tile gid="0"/>
  <tile gid="0"/>
  <tile gid="0"/>
  <tile gid="0"/>
  <tile gid="0"/>
  <tile gid="0"/>
  <tile gid="0"/>
  <tile gid="0"/>
  <tile gid="0"/>
  <tile gid="0"/>
  <tile gid="0"/>
  <tile gid="0"/>
  <tile gid="0"/>
  <tile gid="0"/>
  <tile gid="0"/>
  <tile gid="0"/>
  <tile gid="0"/>
  <tile gid="0"/>
  <tile gid="0"/>
  <tile gid="0"/>
  <tile gid="0"/>
  <tile gid="0"/>
  <tile gid="0"/>
  <tile gid="0"/>
  <tile gid="0"/>
  <tile gid="0"/>
  <tile gid="0"/>
  <tile gid="0"/>
  <tile gid="0"/>
  <tile gid="0"/>
  <tile gid="0"/>
  <tile gid="0"/>
  <tile gid="0"/>
  <tile gid="0"/>
  <tile gid="0"/>
  <tile gid="0"/>
  <tile gid="0"/>
  <tile gid="0"/>
  <tile gid="0"/>
  <tile gid="0"/>
  <tile gid="0"/>
  <tile gid="0"/>
  <tile gid="0"/>
  <tile gid="0"/>
  <tile gid="0"/>
  <tile gid="0"/>
  <tile gid="0"/>
  <tile gid="0"/>
  <tile gid="0"/>
  <tile gid="0"/>
  <tile gid="0"/>
  <tile gid="0"/>
  <tile gid="0"/>
  <tile gid="0"/>
  <tile gid="0"/>
  <tile gid="0"/>
  <tile gid="0"/>
  <tile gid="0"/>
  <tile gid="0"/>
  <tile gid="0"/>
  <tile gid="0"/>
  <tile gid="0"/>
  <tile gid="0"/>
  <tile gid="0"/>
  <tile gid="0"/>
  <tile gid="0"/>
  <tile gid="0"/>
  <tile gid="0"/>
  <tile gid="0"/>
  <tile gid="0"/>
  <tile gid="0"/>
  <tile gid="0"/>
  <tile gid="0"/>
  <tile gid="0"/>
  <tile gid="0"/>
  <tile gid="0"/>
  <tile gid="0"/>
  <tile gid="0"/>
  <tile gid="0"/>
  <tile gid="0"/>
  <tile gid="0"/>
  <tile gid="0"/>
  <tile gid="0"/>
  <tile gid="0"/>
  <tile gid="0"/>
  <tile gid="0"/>
  <tile gid="0"/>
  <tile gid="0"/>
  <tile gid="0"/>
  <tile gid="0"/>
  <tile gid="0"/>
  <tile gid="0"/>
  <tile gid="0"/>
  <tile gid="0"/>
  <tile gid="0"/>
  <tile gid="0"/>
  <tile gid="0"/>
  <tile gid="0"/>
  <tile gid="0"/>
  <tile gid="0"/>
  <tile gid="0"/>
  <tile gid="0"/>
  <tile gid="0"/>
  <tile gid="0"/>
  <tile gid="0"/>
  <tile gid="0"/>
  <tile gid="0"/>
  <tile gid="0"/>
  <tile gid="0"/>
  <tile gid="0"/>
  <tile gid="0"/>
  <tile gid="0"/>
  <tile gid="0"/>
  <tile gid="0"/>
  <tile gid="0"/>
  <tile gid="0"/>
  <tile gid="0"/>
  <tile gid="0"/>
  <tile gid="0"/>
  <tile gid="0"/>
  <tile gid="0"/>
  <tile gid="0"/>
  <tile gid="0"/>
  <tile gid="0"/>
  <tile gid="0"/>
  <tile gid="0"/>
  <tile gid="0"/>
  <tile gid="0"/>
  <tile gid="0"/>
  <tile gid="0"/>
  <tile gid="0"/>
  <tile gid="0"/>
  <tile gid="0"/>
  <tile gid="0"/>
  <tile gid="0"/>
  <tile gid="0"/>
  <tile gid="0"/>
  <tile gid="0"/>
  <tile gid="0"/>
  <tile gid="0"/>
  <tile gid="0"/>
  <tile gid="0"/>
  <tile gid="0"/>
  <tile gid="0"/>
  <tile gid="0"/>
  <tile gid="0"/>
  <tile gid="0"/>
  <tile gid="0"/>
  <tile gid="0"/>
  <tile gid="0"/>
  <tile gid="0"/>
  <tile gid="0"/>
  <tile gid="0"/>
  <tile gid="0"/>
  <tile gid="0"/>
  <tile gid="0"/>
  <tile gid="0"/>
  <tile gid="0"/>
  <tile gid="0"/>
  <tile gid="0"/>
  <tile gid="0"/>
  <tile gid="0"/>
  <tile gid="0"/>
  <tile gid="0"/>
  <tile gid="0"/>
  <tile gid="0"/>
  <tile gid="0"/>
  <tile gid="0"/>
  <tile gid="0"/>
  <tile gid="0"/>
  <tile gid="0"/>
  <tile gid="0"/>
  <tile gid="0"/>
  <tile gid="0"/>
  <tile gid="0"/>
  <tile gid="0"/>
  <tile gid="0"/>
  <tile gid="0"/>
  <tile gid="0"/>
  <tile gid="0"/>
  <tile gid="0"/>
  <tile gid="0"/>
  <tile gid="0"/>
  <tile gid="0"/>
  <tile gid="0"/>
  <tile gid="0"/>
  <tile gid="0"/>
  <tile gid="0"/>
  <tile gid="0"/>
  <tile gid="0"/>
  <tile gid="0"/>
  <tile gid="0"/>
  <tile gid="0"/>
  <tile gid="0"/>
  <tile gid="0"/>
  <tile gid="0"/>
  <tile gid="0"/>
  <tile gid="0"/>
  <tile gid="0"/>
  <tile gid="0"/>
  <tile gid="0"/>
  <tile gid="0"/>
  <tile gid="0"/>
  <tile gid="0"/>
  <tile gid="0"/>
  <tile gid="0"/>
  <tile gid="0"/>
  <tile gid="0"/>
  <tile gid="0"/>
  <tile gid="0"/>
  <tile gid="0"/>
  <tile gid="0"/>
  <tile gid="0"/>
  <tile gid="0"/>
  <tile gid="0"/>
  <tile gid="0"/>
  <tile gid="0"/>
  <tile gid="0"/>
  <tile gid="0"/>
  <tile gid="0"/>
  <tile gid="0"/>
  <tile gid="0"/>
  <tile gid="0"/>
  <tile gid="0"/>
  <tile gid="0"/>
  <tile gid="0"/>
  <tile gid="0"/>
  <tile gid="0"/>
  <tile gid="0"/>
  <tile gid="0"/>
  <tile gid="0"/>
  <tile gid="0"/>
  <tile gid="0"/>
  <tile gid="0"/>
  <tile gid="0"/>
  <tile gid="0"/>
  <tile gid="0"/>
  <tile gid="0"/>
  <tile gid="0"/>
  <tile gid="0"/>
  <tile gid="0"/>
  <tile gid="0"/>
  <tile gid="0"/>
  <tile gid="0"/>
  <tile gid="0"/>
  <tile gid="0"/>
  <tile gid="0"/>
  <tile gid="0"/>
  <tile gid="0"/>
  <tile gid="0"/>
  <tile gid="0"/>
  <tile gid="0"/>
  <tile gid="0"/>
  <tile gid="0"/>
  <tile gid="0"/>
  <tile gid="0"/>
  <tile gid="0"/>
  <tile gid="0"/>
  <tile gid="0"/>
  <tile gid="0"/>
  <tile gid="0"/>
  <tile gid="0"/>
  <tile gid="0"/>
  <tile gid="0"/>
  <tile gid="0"/>
  <tile gid="0"/>
  <tile gid="0"/>
  <tile gid="0"/>
  <tile gid="0"/>
  <tile gid="0"/>
  <tile gid="0"/>
  <tile gid="0"/>
  <tile gid="0"/>
  <tile gid="0"/>
  <tile gid="0"/>
  <tile gid="0"/>
  <tile gid="0"/>
  <tile gid="0"/>
  <tile gid="0"/>
  <tile gid="0"/>
  <tile gid="0"/>
  <tile gid="0"/>
  <tile gid="0"/>
  <tile gid="0"/>
  <tile gid="0"/>
  <tile gid="0"/>
  <tile gid="0"/>
  <tile gid="0"/>
  <tile gid="0"/>
  <tile gid="0"/>
  <tile gid="0"/>
  <tile gid="0"/>
  <tile gid="0"/>
  <tile gid="0"/>
  <tile gid="0"/>
  <tile gid="0"/>
  <tile gid="0"/>
  <tile gid="0"/>
  <tile gid="0"/>
  <tile gid="0"/>
  <tile gid="0"/>
  <tile gid="0"/>
  <tile gid="0"/>
  <tile gid="0"/>
  <tile gid="0"/>
  <tile gid="0"/>
  <tile gid="0"/>
  <tile gid="0"/>
  <tile gid="0"/>
  <tile gid="0"/>
  <tile gid="0"/>
  <tile gid="0"/>
  <tile gid="0"/>
  <tile gid="0"/>
  <tile gid="0"/>
  <tile gid="0"/>
  <tile gid="0"/>
  <tile gid="0"/>
  <tile gid="0"/>
  <tile gid="0"/>
  <tile gid="0"/>
  <tile gid="0"/>
  <tile gid="0"/>
  <tile gid="0"/>
  <tile gid="0"/>
  <tile gid="0"/>
  <tile gid="0"/>
  <tile gid="0"/>
  <tile gid="0"/>
  <tile gid="0"/>
  <tile gid="0"/>
  <tile gid="0"/>
  <tile gid="0"/>
  <tile gid="0"/>
  <tile gid="0"/>
  <tile gid="0"/>
  <tile gid="0"/>
  <tile gid="0"/>
  <tile gid="0"/>
  <tile gid="0"/>
  <tile gid="0"/>
  <tile gid="0"/>
  <tile gid="0"/>
  <tile gid="0"/>
  <tile gid="0"/>
  <tile gid="0"/>
  <tile gid="0"/>
  <tile gid="0"/>
  <tile gid="0"/>
  <tile gid="0"/>
  <tile gid="0"/>
  <tile gid="0"/>
  <tile gid="0"/>
  <tile gid="0"/>
  <tile gid="0"/>
  <tile gid="0"/>
  <tile gid="0"/>
  <tile gid="0"/>
  <tile gid="0"/>
  <tile gid="0"/>
  <tile gid="0"/>
  <tile gid="0"/>
  <tile gid="0"/>
  <tile gid="0"/>
  <tile gid="0"/>
  <tile gid="0"/>
  <tile gid="0"/>
  <tile gid="0"/>
  <tile gid="0"/>
  <tile gid="0"/>
  <tile gid="0"/>
  <tile gid="0"/>
  <tile gid="0"/>
  <tile gid="0"/>
  <tile gid="0"/>
  <tile gid="0"/>
  <tile gid="0"/>
  <tile gid="0"/>
  <tile gid="0"/>
  <tile gid="0"/>
  <tile gid="0"/>
  <tile gid="0"/>
  <tile gid="0"/>
  <tile gid="0"/>
  <tile gid="0"/>
  <tile gid="0"/>
  <tile gid="0"/>
  <tile gid="0"/>
  <tile gid="0"/>
  <tile gid="0"/>
  <tile gid="0"/>
  <tile gid="0"/>
  <tile gid="0"/>
  <tile gid="0"/>
  <tile gid="0"/>
  <tile gid="0"/>
  <tile gid="0"/>
  <tile gid="0"/>
  <tile gid="0"/>
  <tile gid="0"/>
  <tile gid="0"/>
  <tile gid="0"/>
  <tile gid="0"/>
  <tile gid="0"/>
  <tile gid="0"/>
  <tile gid="0"/>
  <tile gid="0"/>
  <tile gid="0"/>
  <tile gid="0"/>
  <tile gid="0"/>
  <tile gid="0"/>
  <tile gid="0"/>
  <tile gid="0"/>
  <tile gid="0"/>
  <tile gid="0"/>
  <tile gid="0"/>
  <tile gid="0"/>
  <tile gid="0"/>
  <tile gid="0"/>
  <tile gid="0"/>
  <tile gid="0"/>
  <tile gid="0"/>
  <tile gid="0"/>
  <tile gid="0"/>
  <tile gid="0"/>
  <tile gid="0"/>
  <tile gid="0"/>
  <tile gid="0"/>
  <tile gid="0"/>
  <tile gid="0"/>
  <tile gid="0"/>
  <tile gid="0"/>
  <tile gid="0"/>
  <tile gid="0"/>
  <tile gid="0"/>
  <tile gid="0"/>
  <tile gid="0"/>
  <tile gid="0"/>
  <tile gid="0"/>
  <tile gid="0"/>
  <tile gid="0"/>
  <tile gid="0"/>
  <tile gid="0"/>
  <tile gid="0"/>
  <tile gid="0"/>
  <tile gid="0"/>
  <tile gid="0"/>
  <tile gid="0"/>
  <tile gid="0"/>
  <tile gid="0"/>
  <tile gid="0"/>
  <tile gid="0"/>
  <tile gid="0"/>
  <tile gid="0"/>
  <tile gid="0"/>
  <tile gid="0"/>
  <tile gid="0"/>
  <tile gid="0"/>
  <tile gid="0"/>
  <tile gid="0"/>
  <tile gid="0"/>
  <tile gid="0"/>
  <tile gid="0"/>
  <tile gid="0"/>
  <tile gid="0"/>
  <tile gid="0"/>
  <tile gid="0"/>
  <tile gid="0"/>
  <tile gid="0"/>
  <tile gid="0"/>
  <tile gid="0"/>
  <tile gid="0"/>
  <tile gid="0"/>
  <tile gid="0"/>
  <tile gid="0"/>
  <tile gid="0"/>
  <tile gid="0"/>
  <tile gid="0"/>
  <tile gid="0"/>
  <tile gid="0"/>
  <tile gid="0"/>
  <tile gid="0"/>
  <tile gid="0"/>
  <tile gid="0"/>
  <tile gid="0"/>
  <tile gid="0"/>
  <tile gid="0"/>
  <tile gid="0"/>
  <tile gid="0"/>
  <tile gid="0"/>
  <tile gid="0"/>
  <tile gid="0"/>
  <tile gid="0"/>
  <tile gid="0"/>
  <tile gid="0"/>
  <tile gid="0"/>
  <tile gid="0"/>
  <tile gid="0"/>
  <tile gid="0"/>
  <tile gid="0"/>
  <tile gid="0"/>
  <tile gid="0"/>
  <tile gid="0"/>
  <tile gid="0"/>
  <tile gid="0"/>
  <tile gid="0"/>
  <tile gid="0"/>
  <tile gid="0"/>
  <tile gid="0"/>
  <tile gid="0"/>
  <tile gid="0"/>
  <tile gid="0"/>
  <tile gid="0"/>
  <tile gid="0"/>
  <tile gid="0"/>
  <tile gid="0"/>
  <tile gid="0"/>
  <tile gid="0"/>
  <tile gid="0"/>
  <tile gid="0"/>
  <tile gid="0"/>
  <tile gid="0"/>
  </data>
 </layer>
 <layer name="Map Change 1" width="32" height="22">
  <properties>
   <property name="ID" value ="1"/>
   <property name="Height" value ="2"/>
   <property name="Width" value ="3"/>
   <property name="X" value ="21"/>
   <property name="Y" value ="2"/>
  </properties>
  <data>
  <tile gid="0"/>
  <tile gid="0"/>
  <tile gid="0"/>
  <tile gid="0"/>
  <tile gid="0"/>
  <tile gid="0"/>
  <tile gid="0"/>
  <tile gid="0"/>
  <tile gid="0"/>
  <tile gid="0"/>
  <tile gid="0"/>
  <tile gid="0"/>
  <tile gid="0"/>
  <tile gid="0"/>
  <tile gid="0"/>
  <tile gid="0"/>
  <tile gid="0"/>
  <tile gid="0"/>
  <tile gid="0"/>
  <tile gid="0"/>
  <tile gid="0"/>
  <tile gid="0"/>
  <tile gid="0"/>
  <tile gid="0"/>
  <tile gid="0"/>
  <tile gid="0"/>
  <tile gid="0"/>
  <tile gid="0"/>
  <tile gid="0"/>
  <tile gid="0"/>
  <tile gid="0"/>
  <tile gid="0"/>
  <tile gid="0"/>
  <tile gid="0"/>
  <tile gid="0"/>
  <tile gid="0"/>
  <tile gid="0"/>
  <tile gid="0"/>
  <tile gid="0"/>
  <tile gid="0"/>
  <tile gid="0"/>
  <tile gid="0"/>
  <tile gid="0"/>
  <tile gid="0"/>
  <tile gid="0"/>
  <tile gid="0"/>
  <tile gid="0"/>
  <tile gid="0"/>
  <tile gid="0"/>
  <tile gid="0"/>
  <tile gid="0"/>
  <tile gid="0"/>
  <tile gid="0"/>
  <tile gid="0"/>
  <tile gid="0"/>
  <tile gid="0"/>
  <tile gid="0"/>
  <tile gid="0"/>
  <tile gid="0"/>
  <tile gid="0"/>
  <tile gid="0"/>
  <tile gid="0"/>
  <tile gid="0"/>
  <tile gid="0"/>
  <tile gid="0"/>
  <tile gid="0"/>
  <tile gid="0"/>
  <tile gid="0"/>
  <tile gid="0"/>
  <tile gid="0"/>
  <tile gid="0"/>
  <tile gid="0"/>
  <tile gid="0"/>
  <tile gid="0"/>
  <tile gid="0"/>
  <tile gid="0"/>
  <tile gid="0"/>
  <tile gid="0"/>
  <tile gid="0"/>
  <tile gid="0"/>
  <tile gid="0"/>
  <tile gid="0"/>
  <tile gid="0"/>
  <tile gid="0"/>
  <tile gid="0"/>
  <tile gid="1"/>
  <tile gid="1"/>
  <tile gid="1"/>
  <tile gid="0"/>
  <tile gid="0"/>
  <tile gid="0"/>
  <tile gid="0"/>
  <tile gid="0"/>
  <tile gid="0"/>
  <tile gid="0"/>
  <tile gid="0"/>
  <tile gid="0"/>
  <tile gid="0"/>
  <tile gid="0"/>
  <tile gid="0"/>
  <tile gid="0"/>
  <tile gid="0"/>
  <tile gid="0"/>
  <tile gid="0"/>
  <tile gid="0"/>
  <tile gid="0"/>
  <tile gid="0"/>
  <tile gid="0"/>
  <tile gid="0"/>
  <tile gid="0"/>
  <tile gid="0"/>
  <tile gid="0"/>
  <tile gid="0"/>
  <tile gid="0"/>
  <tile gid="0"/>
  <tile gid="0"/>
  <tile gid="0"/>
  <tile gid="1"/>
  <tile gid="434"/>
  <tile gid="1"/>
  <tile gid="0"/>
  <tile gid="0"/>
  <tile gid="0"/>
  <tile gid="0"/>
  <tile gid="0"/>
  <tile gid="0"/>
  <tile gid="0"/>
  <tile gid="0"/>
  <tile gid="0"/>
  <tile gid="0"/>
  <tile gid="0"/>
  <tile gid="0"/>
  <tile gid="0"/>
  <tile gid="0"/>
  <tile gid="0"/>
  <tile gid="0"/>
  <tile gid="0"/>
  <tile gid="0"/>
  <tile gid="0"/>
  <tile gid="0"/>
  <tile gid="0"/>
  <tile gid="0"/>
  <tile gid="0"/>
  <tile gid="0"/>
  <tile gid="0"/>
  <tile gid="0"/>
  <tile gid="0"/>
  <tile gid="0"/>
  <tile gid="0"/>
  <tile gid="0"/>
  <tile gid="0"/>
  <tile gid="0"/>
  <tile gid="0"/>
  <tile gid="0"/>
  <tile gid="0"/>
  <tile gid="0"/>
  <tile gid="0"/>
  <tile gid="0"/>
  <tile gid="0"/>
  <tile gid="0"/>
  <tile gid="0"/>
  <tile gid="0"/>
  <tile gid="0"/>
  <tile gid="0"/>
  <tile gid="0"/>
  <tile gid="0"/>
  <tile gid="0"/>
  <tile gid="0"/>
  <tile gid="0"/>
  <tile gid="0"/>
  <tile gid="0"/>
  <tile gid="0"/>
  <tile gid="0"/>
  <tile gid="0"/>
  <tile gid="0"/>
  <tile gid="0"/>
  <tile gid="0"/>
  <tile gid="0"/>
  <tile gid="0"/>
  <tile gid="0"/>
  <tile gid="0"/>
  <tile gid="0"/>
  <tile gid="0"/>
  <tile gid="0"/>
  <tile gid="0"/>
  <tile gid="0"/>
  <tile gid="0"/>
  <tile gid="0"/>
  <tile gid="0"/>
  <tile gid="0"/>
  <tile gid="0"/>
  <tile gid="0"/>
  <tile gid="0"/>
  <tile gid="0"/>
  <tile gid="0"/>
  <tile gid="0"/>
  <tile gid="0"/>
  <tile gid="0"/>
  <tile gid="0"/>
  <tile gid="0"/>
  <tile gid="0"/>
  <tile gid="0"/>
  <tile gid="0"/>
  <tile gid="0"/>
  <tile gid="0"/>
  <tile gid="0"/>
  <tile gid="0"/>
  <tile gid="0"/>
  <tile gid="0"/>
  <tile gid="0"/>
  <tile gid="0"/>
  <tile gid="0"/>
  <tile gid="0"/>
  <tile gid="0"/>
  <tile gid="0"/>
  <tile gid="0"/>
  <tile gid="0"/>
  <tile gid="0"/>
  <tile gid="0"/>
  <tile gid="0"/>
  <tile gid="0"/>
  <tile gid="0"/>
  <tile gid="0"/>
  <tile gid="0"/>
  <tile gid="0"/>
  <tile gid="0"/>
  <tile gid="0"/>
  <tile gid="0"/>
  <tile gid="0"/>
  <tile gid="0"/>
  <tile gid="0"/>
  <tile gid="0"/>
  <tile gid="0"/>
  <tile gid="0"/>
  <tile gid="0"/>
  <tile gid="0"/>
  <tile gid="0"/>
  <tile gid="0"/>
  <tile gid="0"/>
  <tile gid="0"/>
  <tile gid="0"/>
  <tile gid="0"/>
  <tile gid="0"/>
  <tile gid="0"/>
  <tile gid="0"/>
  <tile gid="0"/>
  <tile gid="0"/>
  <tile gid="0"/>
  <tile gid="0"/>
  <tile gid="0"/>
  <tile gid="0"/>
  <tile gid="0"/>
  <tile gid="0"/>
  <tile gid="0"/>
  <tile gid="0"/>
  <tile gid="0"/>
  <tile gid="0"/>
  <tile gid="0"/>
  <tile gid="0"/>
  <tile gid="0"/>
  <tile gid="0"/>
  <tile gid="0"/>
  <tile gid="0"/>
  <tile gid="0"/>
  <tile gid="0"/>
  <tile gid="0"/>
  <tile gid="0"/>
  <tile gid="0"/>
  <tile gid="0"/>
  <tile gid="0"/>
  <tile gid="0"/>
  <tile gid="0"/>
  <tile gid="0"/>
  <tile gid="0"/>
  <tile gid="0"/>
  <tile gid="0"/>
  <tile gid="0"/>
  <tile gid="0"/>
  <tile gid="0"/>
  <tile gid="0"/>
  <tile gid="0"/>
  <tile gid="0"/>
  <tile gid="0"/>
  <tile gid="0"/>
  <tile gid="0"/>
  <tile gid="0"/>
  <tile gid="0"/>
  <tile gid="0"/>
  <tile gid="0"/>
  <tile gid="0"/>
  <tile gid="0"/>
  <tile gid="0"/>
  <tile gid="0"/>
  <tile gid="0"/>
  <tile gid="0"/>
  <tile gid="0"/>
  <tile gid="0"/>
  <tile gid="0"/>
  <tile gid="0"/>
  <tile gid="0"/>
  <tile gid="0"/>
  <tile gid="0"/>
  <tile gid="0"/>
  <tile gid="0"/>
  <tile gid="0"/>
  <tile gid="0"/>
  <tile gid="0"/>
  <tile gid="0"/>
  <tile gid="0"/>
  <tile gid="0"/>
  <tile gid="0"/>
  <tile gid="0"/>
  <tile gid="0"/>
  <tile gid="0"/>
  <tile gid="0"/>
  <tile gid="0"/>
  <tile gid="0"/>
  <tile gid="0"/>
  <tile gid="0"/>
  <tile gid="0"/>
  <tile gid="0"/>
  <tile gid="0"/>
  <tile gid="0"/>
  <tile gid="0"/>
  <tile gid="0"/>
  <tile gid="0"/>
  <tile gid="0"/>
  <tile gid="0"/>
  <tile gid="0"/>
  <tile gid="0"/>
  <tile gid="0"/>
  <tile gid="0"/>
  <tile gid="0"/>
  <tile gid="0"/>
  <tile gid="0"/>
  <tile gid="0"/>
  <tile gid="0"/>
  <tile gid="0"/>
  <tile gid="0"/>
  <tile gid="0"/>
  <tile gid="0"/>
  <tile gid="0"/>
  <tile gid="0"/>
  <tile gid="0"/>
  <tile gid="0"/>
  <tile gid="0"/>
  <tile gid="0"/>
  <tile gid="0"/>
  <tile gid="0"/>
  <tile gid="0"/>
  <tile gid="0"/>
  <tile gid="0"/>
  <tile gid="0"/>
  <tile gid="0"/>
  <tile gid="0"/>
  <tile gid="0"/>
  <tile gid="0"/>
  <tile gid="0"/>
  <tile gid="0"/>
  <tile gid="0"/>
  <tile gid="0"/>
  <tile gid="0"/>
  <tile gid="0"/>
  <tile gid="0"/>
  <tile gid="0"/>
  <tile gid="0"/>
  <tile gid="0"/>
  <tile gid="0"/>
  <tile gid="0"/>
  <tile gid="0"/>
  <tile gid="0"/>
  <tile gid="0"/>
  <tile gid="0"/>
  <tile gid="0"/>
  <tile gid="0"/>
  <tile gid="0"/>
  <tile gid="0"/>
  <tile gid="0"/>
  <tile gid="0"/>
  <tile gid="0"/>
  <tile gid="0"/>
  <tile gid="0"/>
  <tile gid="0"/>
  <tile gid="0"/>
  <tile gid="0"/>
  <tile gid="0"/>
  <tile gid="0"/>
  <tile gid="0"/>
  <tile gid="0"/>
  <tile gid="0"/>
  <tile gid="0"/>
  <tile gid="0"/>
  <tile gid="0"/>
  <tile gid="0"/>
  <tile gid="0"/>
  <tile gid="0"/>
  <tile gid="0"/>
  <tile gid="0"/>
  <tile gid="0"/>
  <tile gid="0"/>
  <tile gid="0"/>
  <tile gid="0"/>
  <tile gid="0"/>
  <tile gid="0"/>
  <tile gid="0"/>
  <tile gid="0"/>
  <tile gid="0"/>
  <tile gid="0"/>
  <tile gid="0"/>
  <tile gid="0"/>
  <tile gid="0"/>
  <tile gid="0"/>
  <tile gid="0"/>
  <tile gid="0"/>
  <tile gid="0"/>
  <tile gid="0"/>
  <tile gid="0"/>
  <tile gid="0"/>
  <tile gid="0"/>
  <tile gid="0"/>
  <tile gid="0"/>
  <tile gid="0"/>
  <tile gid="0"/>
  <tile gid="0"/>
  <tile gid="0"/>
  <tile gid="0"/>
  <tile gid="0"/>
  <tile gid="0"/>
  <tile gid="0"/>
  <tile gid="0"/>
  <tile gid="0"/>
  <tile gid="0"/>
  <tile gid="0"/>
  <tile gid="0"/>
  <tile gid="0"/>
  <tile gid="0"/>
  <tile gid="0"/>
  <tile gid="0"/>
  <tile gid="0"/>
  <tile gid="0"/>
  <tile gid="0"/>
  <tile gid="0"/>
  <tile gid="0"/>
  <tile gid="0"/>
  <tile gid="0"/>
  <tile gid="0"/>
  <tile gid="0"/>
  <tile gid="0"/>
  <tile gid="0"/>
  <tile gid="0"/>
  <tile gid="0"/>
  <tile gid="0"/>
  <tile gid="0"/>
  <tile gid="0"/>
  <tile gid="0"/>
  <tile gid="0"/>
  <tile gid="0"/>
  <tile gid="0"/>
  <tile gid="0"/>
  <tile gid="0"/>
  <tile gid="0"/>
  <tile gid="0"/>
  <tile gid="0"/>
  <tile gid="0"/>
  <tile gid="0"/>
  <tile gid="0"/>
  <tile gid="0"/>
  <tile gid="0"/>
  <tile gid="0"/>
  <tile gid="0"/>
  <tile gid="0"/>
  <tile gid="0"/>
  <tile gid="0"/>
  <tile gid="0"/>
  <tile gid="0"/>
  <tile gid="0"/>
  <tile gid="0"/>
  <tile gid="0"/>
  <tile gid="0"/>
  <tile gid="0"/>
  <tile gid="0"/>
  <tile gid="0"/>
  <tile gid="0"/>
  <tile gid="0"/>
  <tile gid="0"/>
  <tile gid="0"/>
  <tile gid="0"/>
  <tile gid="0"/>
  <tile gid="0"/>
  <tile gid="0"/>
  <tile gid="0"/>
  <tile gid="0"/>
  <tile gid="0"/>
  <tile gid="0"/>
  <tile gid="0"/>
  <tile gid="0"/>
  <tile gid="0"/>
  <tile gid="0"/>
  <tile gid="0"/>
  <tile gid="0"/>
  <tile gid="0"/>
  <tile gid="0"/>
  <tile gid="0"/>
  <tile gid="0"/>
  <tile gid="0"/>
  <tile gid="0"/>
  <tile gid="0"/>
  <tile gid="0"/>
  <tile gid="0"/>
  <tile gid="0"/>
  <tile gid="0"/>
  <tile gid="0"/>
  <tile gid="0"/>
  <tile gid="0"/>
  <tile gid="0"/>
  <tile gid="0"/>
  <tile gid="0"/>
  <tile gid="0"/>
  <tile gid="0"/>
  <tile gid="0"/>
  <tile gid="0"/>
  <tile gid="0"/>
  <tile gid="0"/>
  <tile gid="0"/>
  <tile gid="0"/>
  <tile gid="0"/>
  <tile gid="0"/>
  <tile gid="0"/>
  <tile gid="0"/>
  <tile gid="0"/>
  <tile gid="0"/>
  <tile gid="0"/>
  <tile gid="0"/>
  <tile gid="0"/>
  <tile gid="0"/>
  <tile gid="0"/>
  <tile gid="0"/>
  <tile gid="0"/>
  <tile gid="0"/>
  <tile gid="0"/>
  <tile gid="0"/>
  <tile gid="0"/>
  <tile gid="0"/>
  <tile gid="0"/>
  <tile gid="0"/>
  <tile gid="0"/>
  <tile gid="0"/>
  <tile gid="0"/>
  <tile gid="0"/>
  <tile gid="0"/>
  <tile gid="0"/>
  <tile gid="0"/>
  <tile gid="0"/>
  <tile gid="0"/>
  <tile gid="0"/>
  <tile gid="0"/>
  <tile gid="0"/>
  <tile gid="0"/>
  <tile gid="0"/>
  <tile gid="0"/>
  <tile gid="0"/>
  <tile gid="0"/>
  <tile gid="0"/>
  <tile gid="0"/>
  <tile gid="0"/>
  <tile gid="0"/>
  <tile gid="0"/>
  <tile gid="0"/>
  <tile gid="0"/>
  <tile gid="0"/>
  <tile gid="0"/>
  <tile gid="0"/>
  <tile gid="0"/>
  <tile gid="0"/>
  <tile gid="0"/>
  <tile gid="0"/>
  <tile gid="0"/>
  <tile gid="0"/>
  <tile gid="0"/>
  <tile gid="0"/>
  <tile gid="0"/>
  <tile gid="0"/>
  <tile gid="0"/>
  <tile gid="0"/>
  <tile gid="0"/>
  <tile gid="0"/>
  <tile gid="0"/>
  <tile gid="0"/>
  <tile gid="0"/>
  <tile gid="0"/>
  <tile gid="0"/>
  <tile gid="0"/>
  <tile gid="0"/>
  <tile gid="0"/>
  <tile gid="0"/>
  <tile gid="0"/>
  <tile gid="0"/>
  <tile gid="0"/>
  <tile gid="0"/>
  <tile gid="0"/>
  <tile gid="0"/>
  <tile gid="0"/>
  <tile gid="0"/>
  <tile gid="0"/>
  <tile gid="0"/>
  <tile gid="0"/>
  <tile gid="0"/>
  <tile gid="0"/>
  <tile gid="0"/>
  <tile gid="0"/>
  <tile gid="0"/>
  <tile gid="0"/>
  <tile gid="0"/>
  <tile gid="0"/>
  <tile gid="0"/>
  <tile gid="0"/>
  <tile gid="0"/>
  <tile gid="0"/>
  <tile gid="0"/>
  <tile gid="0"/>
  <tile gid="0"/>
  <tile gid="0"/>
  <tile gid="0"/>
  <tile gid="0"/>
  <tile gid="0"/>
  <tile gid="0"/>
  <tile gid="0"/>
  <tile gid="0"/>
  <tile gid="0"/>
  <tile gid="0"/>
  <tile gid="0"/>
  <tile gid="0"/>
  <tile gid="0"/>
  <tile gid="0"/>
  <tile gid="0"/>
  <tile gid="0"/>
  <tile gid="0"/>
  <tile gid="0"/>
  <tile gid="0"/>
  <tile gid="0"/>
  <tile gid="0"/>
  <tile gid="0"/>
  <tile gid="0"/>
  <tile gid="0"/>
  <tile gid="0"/>
  <tile gid="0"/>
  <tile gid="0"/>
  <tile gid="0"/>
  <tile gid="0"/>
  <tile gid="0"/>
  <tile gid="0"/>
  <tile gid="0"/>
  <tile gid="0"/>
  <tile gid="0"/>
  <tile gid="0"/>
  <tile gid="0"/>
  <tile gid="0"/>
  <tile gid="0"/>
  <tile gid="0"/>
  <tile gid="0"/>
  <tile gid="0"/>
  <tile gid="0"/>
  <tile gid="0"/>
  <tile gid="0"/>
  <tile gid="0"/>
  <tile gid="0"/>
  <tile gid="0"/>
  <tile gid="0"/>
  <tile gid="0"/>
  <tile gid="0"/>
  <tile gid="0"/>
  <tile gid="0"/>
  <tile gid="0"/>
  <tile gid="0"/>
  <tile gid="0"/>
  <tile gid="0"/>
  <tile gid="0"/>
  <tile gid="0"/>
  <tile gid="0"/>
  <tile gid="0"/>
  <tile gid="0"/>
  <tile gid="0"/>
  <tile gid="0"/>
  <tile gid="0"/>
  <tile gid="0"/>
  <tile gid="0"/>
  <tile gid="0"/>
  <tile gid="0"/>
  <tile gid="0"/>
  <tile gid="0"/>
  <tile gid="0"/>
  <tile gid="0"/>
  <tile gid="0"/>
  <tile gid="0"/>
  <tile gid="0"/>
  <tile gid="0"/>
  <tile gid="0"/>
  <tile gid="0"/>
  <tile gid="0"/>
  <tile gid="0"/>
  <tile gid="0"/>
  <tile gid="0"/>
  <tile gid="0"/>
  <tile gid="0"/>
  </data>
 </layer>
</map>
