<?xml version="1.0" encoding="UTF-8"?>
<map version="1.0" orientation="orthogonal" width="32" height="30" tilewidth="16" tileheight="16">
 <tileset firstgid="1" name="0E000F10" tilewidth="16" tileheight="16">
  <image source="0E000F10.png" trans="ffffff"/>
 </tileset>
 <layer name="Tile Layer 1" width="32" height="30">
  <properties>
   <property name="Anims1" value="0x12"/>
   <property name="Anims2" value="0x0"/>
   <property name="ChapterID" value="0xd"/>
   <property name="Main" value=""/>
   <property name="MapChangesID" value="0x3a"/>
   <property name="MapID" value="0x39"/>
   <property name="ObjectType" value="0xe"/>
   <property name="PaletteID" value="0xf"/>
   <property name="TileConfig" value="0x10"/>
  </properties>
  <data>
  <tile gid="885"/>
  <tile gid="885"/>
  <tile gid="885"/>
  <tile gid="885"/>
  <tile gid="885"/>
  <tile gid="885"/>
  <tile gid="885"/>
  <tile gid="885"/>
  <tile gid="885"/>
  <tile gid="885"/>
  <tile gid="885"/>
  <tile gid="885"/>
  <tile gid="885"/>
  <tile gid="885"/>
  <tile gid="885"/>
  <tile gid="885"/>
  <tile gid="885"/>
  <tile gid="885"/>
  <tile gid="885"/>
  <tile gid="885"/>
  <tile gid="885"/>
  <tile gid="885"/>
  <tile gid="885"/>
  <tile gid="885"/>
  <tile gid="888"/>
  <tile gid="885"/>
  <tile gid="885"/>
  <tile gid="885"/>
  <tile gid="885"/>
  <tile gid="885"/>
  <tile gid="885"/>
  <tile gid="885"/>
  <tile gid="885"/>
  <tile gid="885"/>
  <tile gid="885"/>
  <tile gid="885"/>
  <tile gid="885"/>
  <tile gid="885"/>
  <tile gid="885"/>
  <tile gid="885"/>
  <tile gid="885"/>
  <tile gid="885"/>
  <tile gid="885"/>
  <tile gid="885"/>
  <tile gid="885"/>
  <tile gid="885"/>
  <tile gid="888"/>
  <tile gid="886"/>
  <tile gid="885"/>
  <tile gid="885"/>
  <tile gid="885"/>
  <tile gid="885"/>
  <tile gid="885"/>
  <tile gid="885"/>
  <tile gid="885"/>
  <tile gid="888"/>
  <tile gid="853"/>
  <tile gid="886"/>
  <tile gid="885"/>
  <tile gid="885"/>
  <tile gid="885"/>
  <tile gid="885"/>
  <tile gid="885"/>
  <tile gid="885"/>
  <tile gid="885"/>
  <tile gid="885"/>
  <tile gid="885"/>
  <tile gid="888"/>
  <tile gid="830"/>
  <tile gid="853"/>
  <tile gid="886"/>
  <tile gid="885"/>
  <tile gid="885"/>
  <tile gid="885"/>
  <tile gid="885"/>
  <tile gid="885"/>
  <tile gid="885"/>
  <tile gid="888"/>
  <tile gid="725"/>
  <tile gid="726"/>
  <tile gid="886"/>
  <tile gid="885"/>
  <tile gid="885"/>
  <tile gid="888"/>
  <tile gid="886"/>
  <tile gid="885"/>
  <tile gid="888"/>
  <tile gid="725"/>
  <tile gid="726"/>
  <tile gid="827"/>
  <tile gid="886"/>
  <tile gid="885"/>
  <tile gid="885"/>
  <tile gid="885"/>
  <tile gid="885"/>
  <tile gid="885"/>
  <tile gid="885"/>
  <tile gid="885"/>
  <tile gid="888"/>
  <tile gid="828"/>
  <tile gid="272"/>
  <tile gid="829"/>
  <tile gid="853"/>
  <tile gid="886"/>
  <tile gid="885"/>
  <tile gid="885"/>
  <tile gid="885"/>
  <tile gid="885"/>
  <tile gid="888"/>
  <tile gid="725"/>
  <tile gid="193"/>
  <tile gid="13"/>
  <tile gid="726"/>
  <tile gid="827"/>
  <tile gid="853"/>
  <tile gid="853"/>
  <tile gid="853"/>
  <tile gid="853"/>
  <tile gid="725"/>
  <tile gid="893"/>
  <tile gid="193"/>
  <tile gid="762"/>
  <tile gid="854"/>
  <tile gid="885"/>
  <tile gid="885"/>
  <tile gid="885"/>
  <tile gid="885"/>
  <tile gid="885"/>
  <tile gid="886"/>
  <tile gid="888"/>
  <tile gid="828"/>
  <tile gid="272"/>
  <tile gid="272"/>
  <tile gid="272"/>
  <tile gid="829"/>
  <tile gid="853"/>
  <tile gid="886"/>
  <tile gid="885"/>
  <tile gid="885"/>
  <tile gid="888"/>
  <tile gid="725"/>
  <tile gid="193"/>
  <tile gid="420"/>
  <tile gid="356"/>
  <tile gid="420"/>
  <tile gid="193"/>
  <tile gid="726"/>
  <tile gid="853"/>
  <tile gid="853"/>
  <tile gid="853"/>
  <tile gid="757"/>
  <tile gid="193"/>
  <tile gid="760"/>
  <tile gid="854"/>
  <tile gid="885"/>
  <tile gid="885"/>
  <tile gid="885"/>
  <tile gid="885"/>
  <tile gid="885"/>
  <tile gid="885"/>
  <tile gid="830"/>
  <tile gid="828"/>
  <tile gid="272"/>
  <tile gid="175"/>
  <tile gid="272"/>
  <tile gid="272"/>
  <tile gid="272"/>
  <tile gid="829"/>
  <tile gid="853"/>
  <tile gid="886"/>
  <tile gid="888"/>
  <tile gid="853"/>
  <tile gid="757"/>
  <tile gid="193"/>
  <tile gid="193"/>
  <tile gid="129"/>
  <tile gid="420"/>
  <tile gid="129"/>
  <tile gid="696"/>
  <tile gid="827"/>
  <tile gid="853"/>
  <tile gid="853"/>
  <tile gid="795"/>
  <tile gid="758"/>
  <tile gid="828"/>
  <tile gid="829"/>
  <tile gid="886"/>
  <tile gid="885"/>
  <tile gid="885"/>
  <tile gid="885"/>
  <tile gid="885"/>
  <tile gid="885"/>
  <tile gid="165"/>
  <tile gid="241"/>
  <tile gid="173"/>
  <tile gid="193"/>
  <tile gid="173"/>
  <tile gid="173"/>
  <tile gid="240"/>
  <tile gid="272"/>
  <tile gid="829"/>
  <tile gid="853"/>
  <tile gid="853"/>
  <tile gid="853"/>
  <tile gid="725"/>
  <tile gid="129"/>
  <tile gid="129"/>
  <tile gid="558"/>
  <tile gid="559"/>
  <tile gid="560"/>
  <tile gid="356"/>
  <tile gid="193"/>
  <tile gid="726"/>
  <tile gid="853"/>
  <tile gid="853"/>
  <tile gid="828"/>
  <tile gid="175"/>
  <tile gid="892"/>
  <tile gid="829"/>
  <tile gid="886"/>
  <tile gid="885"/>
  <tile gid="885"/>
  <tile gid="885"/>
  <tile gid="885"/>
  <tile gid="73"/>
  <tile gid="8"/>
  <tile gid="420"/>
  <tile gid="193"/>
  <tile gid="77"/>
  <tile gid="193"/>
  <tile gid="129"/>
  <tile gid="165"/>
  <tile gid="272"/>
  <tile gid="799"/>
  <tile gid="853"/>
  <tile gid="725"/>
  <tile gid="289"/>
  <tile gid="193"/>
  <tile gid="193"/>
  <tile gid="193"/>
  <tile gid="193"/>
  <tile gid="193"/>
  <tile gid="533"/>
  <tile gid="420"/>
  <tile gid="696"/>
  <tile gid="853"/>
  <tile gid="828"/>
  <tile gid="21"/>
  <tile gid="22"/>
  <tile gid="23"/>
  <tile gid="173"/>
  <tile gid="726"/>
  <tile gid="886"/>
  <tile gid="885"/>
  <tile gid="885"/>
  <tile gid="885"/>
  <tile gid="79"/>
  <tile gid="79"/>
  <tile gid="8"/>
  <tile gid="7"/>
  <tile gid="20"/>
  <tile gid="8"/>
  <tile gid="193"/>
  <tile gid="193"/>
  <tile gid="173"/>
  <tile gid="606"/>
  <tile gid="608"/>
  <tile gid="460"/>
  <tile gid="426"/>
  <tile gid="737"/>
  <tile gid="646"/>
  <tile gid="738"/>
  <tile gid="289"/>
  <tile gid="193"/>
  <tile gid="193"/>
  <tile gid="396"/>
  <tile gid="331"/>
  <tile gid="601"/>
  <tile gid="173"/>
  <tile gid="85"/>
  <tile gid="86"/>
  <tile gid="87"/>
  <tile gid="130"/>
  <tile gid="193"/>
  <tile gid="796"/>
  <tile gid="885"/>
  <tile gid="885"/>
  <tile gid="885"/>
  <tile gid="79"/>
  <tile gid="79"/>
  <tile gid="40"/>
  <tile gid="39"/>
  <tile gid="79"/>
  <tile gid="79"/>
  <tile gid="8"/>
  <tile gid="193"/>
  <tile gid="130"/>
  <tile gid="796"/>
  <tile gid="757"/>
  <tile gid="709"/>
  <tile gid="453"/>
  <tile gid="709"/>
  <tile gid="33"/>
  <tile gid="769"/>
  <tile gid="644"/>
  <tile gid="644"/>
  <tile gid="644"/>
  <tile gid="738"/>
  <tile gid="421"/>
  <tile gid="796"/>
  <tile gid="695"/>
  <tile gid="201"/>
  <tile gid="166"/>
  <tile gid="760"/>
  <tile gid="602"/>
  <tile gid="859"/>
  <tile gid="853"/>
  <tile gid="886"/>
  <tile gid="885"/>
  <tile gid="885"/>
  <tile gid="79"/>
  <tile gid="79"/>
  <tile gid="112"/>
  <tile gid="80"/>
  <tile gid="74"/>
  <tile gid="79"/>
  <tile gid="105"/>
  <tile gid="193"/>
  <tile gid="696"/>
  <tile gid="853"/>
  <tile gid="793"/>
  <tile gid="709"/>
  <tile gid="851"/>
  <tile gid="709"/>
  <tile gid="453"/>
  <tile gid="455"/>
  <tile gid="455"/>
  <tile gid="455"/>
  <tile gid="33"/>
  <tile gid="709"/>
  <tile gid="357"/>
  <tile gid="726"/>
  <tile gid="757"/>
  <tile gid="758"/>
  <tile gid="859"/>
  <tile gid="725"/>
  <tile gid="193"/>
  <tile gid="726"/>
  <tile gid="725"/>
  <tile gid="726"/>
  <tile gid="886"/>
  <tile gid="885"/>
  <tile gid="79"/>
  <tile gid="40"/>
  <tile gid="193"/>
  <tile gid="289"/>
  <tile gid="193"/>
  <tile gid="39"/>
  <tile gid="40"/>
  <tile gid="289"/>
  <tile gid="762"/>
  <tile gid="853"/>
  <tile gid="795"/>
  <tile gid="741"/>
  <tile gid="485"/>
  <tile gid="769"/>
  <tile gid="644"/>
  <tile gid="770"/>
  <tile gid="851"/>
  <tile gid="769"/>
  <tile gid="644"/>
  <tile gid="770"/>
  <tile gid="357"/>
  <tile gid="760"/>
  <tile gid="853"/>
  <tile gid="853"/>
  <tile gid="853"/>
  <tile gid="695"/>
  <tile gid="494"/>
  <tile gid="496"/>
  <tile gid="420"/>
  <tile gid="696"/>
  <tile gid="853"/>
  <tile gid="885"/>
  <tile gid="39"/>
  <tile gid="112"/>
  <tile gid="193"/>
  <tile gid="758"/>
  <tile gid="761"/>
  <tile gid="193"/>
  <tile gid="193"/>
  <tile gid="760"/>
  <tile gid="853"/>
  <tile gid="853"/>
  <tile gid="853"/>
  <tile gid="761"/>
  <tile gid="492"/>
  <tile gid="490"/>
  <tile gid="455"/>
  <tile gid="490"/>
  <tile gid="429"/>
  <tile gid="193"/>
  <tile gid="193"/>
  <tile gid="776"/>
  <tile gid="357"/>
  <tile gid="726"/>
  <tile gid="827"/>
  <tile gid="853"/>
  <tile gid="853"/>
  <tile gid="761"/>
  <tile gid="193"/>
  <tile gid="420"/>
  <tile gid="193"/>
  <tile gid="760"/>
  <tile gid="854"/>
  <tile gid="885"/>
  <tile gid="129"/>
  <tile gid="193"/>
  <tile gid="760"/>
  <tile gid="853"/>
  <tile gid="853"/>
  <tile gid="761"/>
  <tile gid="758"/>
  <tile gid="853"/>
  <tile gid="853"/>
  <tile gid="853"/>
  <tile gid="853"/>
  <tile gid="853"/>
  <tile gid="761"/>
  <tile gid="193"/>
  <tile gid="358"/>
  <tile gid="289"/>
  <tile gid="289"/>
  <tile gid="289"/>
  <tile gid="289"/>
  <tile gid="289"/>
  <tile gid="776"/>
  <tile gid="776"/>
  <tile gid="461"/>
  <tile gid="726"/>
  <tile gid="853"/>
  <tile gid="725"/>
  <tile gid="193"/>
  <tile gid="193"/>
  <tile gid="762"/>
  <tile gid="854"/>
  <tile gid="885"/>
  <tile gid="885"/>
  <tile gid="129"/>
  <tile gid="762"/>
  <tile gid="853"/>
  <tile gid="853"/>
  <tile gid="853"/>
  <tile gid="853"/>
  <tile gid="853"/>
  <tile gid="853"/>
  <tile gid="830"/>
  <tile gid="831"/>
  <tile gid="853"/>
  <tile gid="853"/>
  <tile gid="795"/>
  <tile gid="129"/>
  <tile gid="359"/>
  <tile gid="130"/>
  <tile gid="130"/>
  <tile gid="130"/>
  <tile gid="130"/>
  <tile gid="776"/>
  <tile gid="776"/>
  <tile gid="485"/>
  <tile gid="493"/>
  <tile gid="606"/>
  <tile gid="608"/>
  <tile gid="289"/>
  <tile gid="289"/>
  <tile gid="760"/>
  <tile gid="853"/>
  <tile gid="885"/>
  <tile gid="885"/>
  <tile gid="885"/>
  <tile gid="760"/>
  <tile gid="853"/>
  <tile gid="854"/>
  <tile gid="853"/>
  <tile gid="853"/>
  <tile gid="853"/>
  <tile gid="853"/>
  <tile gid="828"/>
  <tile gid="892"/>
  <tile gid="272"/>
  <tile gid="799"/>
  <tile gid="853"/>
  <tile gid="725"/>
  <tile gid="396"/>
  <tile gid="459"/>
  <tile gid="129"/>
  <tile gid="129"/>
  <tile gid="193"/>
  <tile gid="776"/>
  <tile gid="776"/>
  <tile gid="485"/>
  <tile gid="429"/>
  <tile gid="762"/>
  <tile gid="830"/>
  <tile gid="853"/>
  <tile gid="757"/>
  <tile gid="762"/>
  <tile gid="830"/>
  <tile gid="853"/>
  <tile gid="886"/>
  <tile gid="885"/>
  <tile gid="885"/>
  <tile gid="853"/>
  <tile gid="854"/>
  <tile gid="885"/>
  <tile gid="885"/>
  <tile gid="853"/>
  <tile gid="831"/>
  <tile gid="828"/>
  <tile gid="272"/>
  <tile gid="272"/>
  <tile gid="175"/>
  <tile gid="606"/>
  <tile gid="608"/>
  <tile gid="522"/>
  <tile gid="490"/>
  <tile gid="493"/>
  <tile gid="193"/>
  <tile gid="776"/>
  <tile gid="776"/>
  <tile gid="776"/>
  <tile gid="485"/>
  <tile gid="429"/>
  <tile gid="762"/>
  <tile gid="725"/>
  <tile gid="240"/>
  <tile gid="799"/>
  <tile gid="830"/>
  <tile gid="828"/>
  <tile gid="175"/>
  <tile gid="829"/>
  <tile gid="830"/>
  <tile gid="886"/>
  <tile gid="885"/>
  <tile gid="854"/>
  <tile gid="885"/>
  <tile gid="885"/>
  <tile gid="888"/>
  <tile gid="828"/>
  <tile gid="272"/>
  <tile gid="241"/>
  <tile gid="235"/>
  <tile gid="236"/>
  <tile gid="758"/>
  <tile gid="853"/>
  <tile gid="827"/>
  <tile gid="759"/>
  <tile gid="193"/>
  <tile gid="193"/>
  <tile gid="776"/>
  <tile gid="776"/>
  <tile gid="485"/>
  <tile gid="490"/>
  <tile gid="429"/>
  <tile gid="762"/>
  <tile gid="725"/>
  <tile gid="420"/>
  <tile gid="289"/>
  <tile gid="601"/>
  <tile gid="175"/>
  <tile gid="166"/>
  <tile gid="201"/>
  <tile gid="166"/>
  <tile gid="240"/>
  <tile gid="799"/>
  <tile gid="886"/>
  <tile gid="885"/>
  <tile gid="885"/>
  <tile gid="888"/>
  <tile gid="725"/>
  <tile gid="165"/>
  <tile gid="166"/>
  <tile gid="129"/>
  <tile gid="20"/>
  <tile gid="8"/>
  <tile gid="726"/>
  <tile gid="725"/>
  <tile gid="130"/>
  <tile gid="794"/>
  <tile gid="759"/>
  <tile gid="776"/>
  <tile gid="776"/>
  <tile gid="490"/>
  <tile gid="429"/>
  <tile gid="664"/>
  <tile gid="762"/>
  <tile gid="725"/>
  <tile gid="494"/>
  <tile gid="496"/>
  <tile gid="760"/>
  <tile gid="853"/>
  <tile gid="759"/>
  <tile gid="737"/>
  <tile gid="851"/>
  <tile gid="738"/>
  <tile gid="461"/>
  <tile gid="796"/>
  <tile gid="853"/>
  <tile gid="885"/>
  <tile gid="888"/>
  <tile gid="793"/>
  <tile gid="129"/>
  <tile gid="129"/>
  <tile gid="420"/>
  <tile gid="7"/>
  <tile gid="79"/>
  <tile gid="420"/>
  <tile gid="112"/>
  <tile gid="356"/>
  <tile gid="193"/>
  <tile gid="796"/>
  <tile gid="853"/>
  <tile gid="759"/>
  <tile gid="664"/>
  <tile gid="193"/>
  <tile gid="20"/>
  <tile gid="726"/>
  <tile gid="725"/>
  <tile gid="193"/>
  <tile gid="289"/>
  <tile gid="97"/>
  <tile gid="796"/>
  <tile gid="853"/>
  <tile gid="795"/>
  <tile gid="709"/>
  <tile gid="453"/>
  <tile gid="709"/>
  <tile gid="357"/>
  <tile gid="726"/>
  <tile gid="853"/>
  <tile gid="888"/>
  <tile gid="853"/>
  <tile gid="793"/>
  <tile gid="193"/>
  <tile gid="193"/>
  <tile gid="114"/>
  <tile gid="115"/>
  <tile gid="116"/>
  <tile gid="79"/>
  <tile gid="8"/>
  <tile gid="420"/>
  <tile gid="758"/>
  <tile gid="828"/>
  <tile gid="829"/>
  <tile gid="853"/>
  <tile gid="725"/>
  <tile gid="193"/>
  <tile gid="130"/>
  <tile gid="193"/>
  <tile gid="494"/>
  <tile gid="496"/>
  <tile gid="98"/>
  <tile gid="99"/>
  <tile gid="726"/>
  <tile gid="853"/>
  <tile gid="725"/>
  <tile gid="709"/>
  <tile gid="33"/>
  <tile gid="709"/>
  <tile gid="357"/>
  <tile gid="193"/>
  <tile gid="726"/>
  <tile gid="856"/>
  <tile gid="853"/>
  <tile gid="795"/>
  <tile gid="193"/>
  <tile gid="7"/>
  <tile gid="178"/>
  <tile gid="179"/>
  <tile gid="180"/>
  <tile gid="79"/>
  <tile gid="79"/>
  <tile gid="40"/>
  <tile gid="601"/>
  <tile gid="165"/>
  <tile gid="272"/>
  <tile gid="829"/>
  <tile gid="761"/>
  <tile gid="193"/>
  <tile gid="494"/>
  <tile gid="496"/>
  <tile gid="98"/>
  <tile gid="99"/>
  <tile gid="289"/>
  <tile gid="289"/>
  <tile gid="289"/>
  <tile gid="601"/>
  <tile gid="289"/>
  <tile gid="709"/>
  <tile gid="453"/>
  <tile gid="709"/>
  <tile gid="357"/>
  <tile gid="193"/>
  <tile gid="193"/>
  <tile gid="885"/>
  <tile gid="856"/>
  <tile gid="725"/>
  <tile gid="80"/>
  <tile gid="356"/>
  <tile gid="105"/>
  <tile gid="130"/>
  <tile gid="289"/>
  <tile gid="39"/>
  <tile gid="40"/>
  <tile gid="758"/>
  <tile gid="795"/>
  <tile gid="193"/>
  <tile gid="240"/>
  <tile gid="175"/>
  <tile gid="829"/>
  <tile gid="761"/>
  <tile gid="130"/>
  <tile gid="494"/>
  <tile gid="496"/>
  <tile gid="193"/>
  <tile gid="289"/>
  <tile gid="193"/>
  <tile gid="696"/>
  <tile gid="793"/>
  <tile gid="193"/>
  <tile gid="769"/>
  <tile gid="644"/>
  <tile gid="770"/>
  <tile gid="389"/>
  <tile gid="193"/>
  <tile gid="760"/>
  <tile gid="885"/>
  <tile gid="885"/>
  <tile gid="761"/>
  <tile gid="193"/>
  <tile gid="39"/>
  <tile gid="420"/>
  <tile gid="758"/>
  <tile gid="757"/>
  <tile gid="664"/>
  <tile gid="664"/>
  <tile gid="796"/>
  <tile gid="853"/>
  <tile gid="761"/>
  <tile gid="193"/>
  <tile gid="893"/>
  <tile gid="173"/>
  <tile gid="601"/>
  <tile gid="193"/>
  <tile gid="193"/>
  <tile gid="193"/>
  <tile gid="762"/>
  <tile gid="759"/>
  <tile gid="193"/>
  <tile gid="193"/>
  <tile gid="796"/>
  <tile gid="695"/>
  <tile gid="130"/>
  <tile gid="130"/>
  <tile gid="428"/>
  <tile gid="493"/>
  <tile gid="760"/>
  <tile gid="853"/>
  <tile gid="885"/>
  <tile gid="885"/>
  <tile gid="856"/>
  <tile gid="759"/>
  <tile gid="289"/>
  <tile gid="78"/>
  <tile gid="796"/>
  <tile gid="853"/>
  <tile gid="853"/>
  <tile gid="889"/>
  <tile gid="891"/>
  <tile gid="853"/>
  <tile gid="853"/>
  <tile gid="761"/>
  <tile gid="193"/>
  <tile gid="193"/>
  <tile gid="796"/>
  <tile gid="757"/>
  <tile gid="758"/>
  <tile gid="859"/>
  <tile gid="853"/>
  <tile gid="830"/>
  <tile gid="759"/>
  <tile gid="760"/>
  <tile gid="853"/>
  <tile gid="759"/>
  <tile gid="130"/>
  <tile gid="17"/>
  <tile gid="760"/>
  <tile gid="859"/>
  <tile gid="853"/>
  <tile gid="853"/>
  <tile gid="885"/>
  <tile gid="885"/>
  <tile gid="885"/>
  <tile gid="856"/>
  <tile gid="761"/>
  <tile gid="760"/>
  <tile gid="854"/>
  <tile gid="856"/>
  <tile gid="795"/>
  <tile gid="20"/>
  <tile gid="893"/>
  <tile gid="796"/>
  <tile gid="889"/>
  <tile gid="891"/>
  <tile gid="761"/>
  <tile gid="758"/>
  <tile gid="853"/>
  <tile gid="853"/>
  <tile gid="853"/>
  <tile gid="889"/>
  <tile gid="828"/>
  <tile gid="272"/>
  <tile gid="829"/>
  <tile gid="830"/>
  <tile gid="853"/>
  <tile gid="853"/>
  <tile gid="757"/>
  <tile gid="758"/>
  <tile gid="853"/>
  <tile gid="889"/>
  <tile gid="890"/>
  <tile gid="891"/>
  <tile gid="885"/>
  <tile gid="885"/>
  <tile gid="885"/>
  <tile gid="885"/>
  <tile gid="856"/>
  <tile gid="854"/>
  <tile gid="885"/>
  <tile gid="885"/>
  <tile gid="856"/>
  <tile gid="761"/>
  <tile gid="762"/>
  <tile gid="795"/>
  <tile gid="193"/>
  <tile gid="893"/>
  <tile gid="726"/>
  <tile gid="853"/>
  <tile gid="853"/>
  <tile gid="853"/>
  <tile gid="725"/>
  <tile gid="20"/>
  <tile gid="272"/>
  <tile gid="52"/>
  <tile gid="892"/>
  <tile gid="892"/>
  <tile gid="767"/>
  <tile gid="853"/>
  <tile gid="853"/>
  <tile gid="853"/>
  <tile gid="725"/>
  <tile gid="20"/>
  <tile gid="893"/>
  <tile gid="760"/>
  <tile gid="885"/>
  <tile gid="885"/>
  <tile gid="885"/>
  <tile gid="885"/>
  <tile gid="885"/>
  <tile gid="885"/>
  <tile gid="885"/>
  <tile gid="885"/>
  <tile gid="885"/>
  <tile gid="856"/>
  <tile gid="854"/>
  <tile gid="856"/>
  <tile gid="761"/>
  <tile gid="20"/>
  <tile gid="193"/>
  <tile gid="794"/>
  <tile gid="853"/>
  <tile gid="795"/>
  <tile gid="289"/>
  <tile gid="201"/>
  <tile gid="892"/>
  <tile gid="166"/>
  <tile gid="165"/>
  <tile gid="861"/>
  <tile gid="854"/>
  <tile gid="856"/>
  <tile gid="854"/>
  <tile gid="856"/>
  <tile gid="757"/>
  <tile gid="664"/>
  <tile gid="760"/>
  <tile gid="853"/>
  <tile gid="885"/>
  <tile gid="885"/>
  <tile gid="885"/>
  <tile gid="885"/>
  <tile gid="885"/>
  <tile gid="885"/>
  <tile gid="885"/>
  <tile gid="885"/>
  <tile gid="885"/>
  <tile gid="885"/>
  <tile gid="885"/>
  <tile gid="885"/>
  <tile gid="856"/>
  <tile gid="761"/>
  <tile gid="289"/>
  <tile gid="796"/>
  <tile gid="853"/>
  <tile gid="854"/>
  <tile gid="759"/>
  <tile gid="664"/>
  <tile gid="173"/>
  <tile gid="664"/>
  <tile gid="760"/>
  <tile gid="854"/>
  <tile gid="885"/>
  <tile gid="885"/>
  <tile gid="885"/>
  <tile gid="885"/>
  <tile gid="856"/>
  <tile gid="853"/>
  <tile gid="853"/>
  <tile gid="854"/>
  <tile gid="885"/>
  <tile gid="885"/>
  <tile gid="885"/>
  <tile gid="885"/>
  <tile gid="885"/>
  <tile gid="885"/>
  <tile gid="885"/>
  <tile gid="885"/>
  <tile gid="885"/>
  <tile gid="885"/>
  <tile gid="885"/>
  <tile gid="885"/>
  <tile gid="885"/>
  <tile gid="856"/>
  <tile gid="859"/>
  <tile gid="853"/>
  <tile gid="854"/>
  <tile gid="885"/>
  <tile gid="856"/>
  <tile gid="853"/>
  <tile gid="859"/>
  <tile gid="853"/>
  <tile gid="854"/>
  <tile gid="885"/>
  <tile gid="885"/>
  <tile gid="885"/>
  <tile gid="885"/>
  <tile gid="885"/>
  <tile gid="885"/>
  <tile gid="856"/>
  <tile gid="854"/>
  <tile gid="885"/>
  </data>
 </layer>
 <layer name="Map Change 0" width="32" height="30">
  <properties>
   <property name="ID" value ="0"/>
   <property name="Height" value ="2"/>
   <property name="Width" value ="3"/>
   <property name="X" value ="23"/>
   <property name="Y" value ="7"/>
  </properties>
  <data>
  <tile gid="0"/>
  <tile gid="0"/>
  <tile gid="0"/>
  <tile gid="0"/>
  <tile gid="0"/>
  <tile gid="0"/>
  <tile gid="0"/>
  <tile gid="0"/>
  <tile gid="0"/>
  <tile gid="0"/>
  <tile gid="0"/>
  <tile gid="0"/>
  <tile gid="0"/>
  <tile gid="0"/>
  <tile gid="0"/>
  <tile gid="0"/>
  <tile gid="0"/>
  <tile gid="0"/>
  <tile gid="0"/>
  <tile gid="0"/>
  <tile gid="0"/>
  <tile gid="0"/>
  <tile gid="0"/>
  <tile gid="0"/>
  <tile gid="0"/>
  <tile gid="0"/>
  <tile gid="0"/>
  <tile gid="0"/>
  <tile gid="0"/>
  <tile gid="0"/>
  <tile gid="0"/>
  <tile gid="0"/>
  <tile gid="0"/>
  <tile gid="0"/>
  <tile gid="0"/>
  <tile gid="0"/>
  <tile gid="0"/>
  <tile gid="0"/>
  <tile gid="0"/>
  <tile gid="0"/>
  <tile gid="0"/>
  <tile gid="0"/>
  <tile gid="0"/>
  <tile gid="0"/>
  <tile gid="0"/>
  <tile gid="0"/>
  <tile gid="0"/>
  <tile gid="0"/>
  <tile gid="0"/>
  <tile gid="0"/>
  <tile gid="0"/>
  <tile gid="0"/>
  <tile gid="0"/>
  <tile gid="0"/>
  <tile gid="0"/>
  <tile gid="0"/>
  <tile gid="0"/>
  <tile gid="0"/>
  <tile gid="0"/>
  <tile gid="0"/>
  <tile gid="0"/>
  <tile gid="0"/>
  <tile gid="0"/>
  <tile gid="0"/>
  <tile gid="0"/>
  <tile gid="0"/>
  <tile gid="0"/>
  <tile gid="0"/>
  <tile gid="0"/>
  <tile gid="0"/>
  <tile gid="0"/>
  <tile gid="0"/>
  <tile gid="0"/>
  <tile gid="0"/>
  <tile gid="0"/>
  <tile gid="0"/>
  <tile gid="0"/>
  <tile gid="0"/>
  <tile gid="0"/>
  <tile gid="0"/>
  <tile gid="0"/>
  <tile gid="0"/>
  <tile gid="0"/>
  <tile gid="0"/>
  <tile gid="0"/>
  <tile gid="0"/>
  <tile gid="0"/>
  <tile gid="0"/>
  <tile gid="0"/>
  <tile gid="0"/>
  <tile gid="0"/>
  <tile gid="0"/>
  <tile gid="0"/>
  <tile gid="0"/>
  <tile gid="0"/>
  <tile gid="0"/>
  <tile gid="0"/>
  <tile gid="0"/>
  <tile gid="0"/>
  <tile gid="0"/>
  <tile gid="0"/>
  <tile gid="0"/>
  <tile gid="0"/>
  <tile gid="0"/>
  <tile gid="0"/>
  <tile gid="0"/>
  <tile gid="0"/>
  <tile gid="0"/>
  <tile gid="0"/>
  <tile gid="0"/>
  <tile gid="0"/>
  <tile gid="0"/>
  <tile gid="0"/>
  <tile gid="0"/>
  <tile gid="0"/>
  <tile gid="0"/>
  <tile gid="0"/>
  <tile gid="0"/>
  <tile gid="0"/>
  <tile gid="0"/>
  <tile gid="0"/>
  <tile gid="0"/>
  <tile gid="0"/>
  <tile gid="0"/>
  <tile gid="0"/>
  <tile gid="0"/>
  <tile gid="0"/>
  <tile gid="0"/>
  <tile gid="0"/>
  <tile gid="0"/>
  <tile gid="0"/>
  <tile gid="0"/>
  <tile gid="0"/>
  <tile gid="0"/>
  <tile gid="0"/>
  <tile gid="0"/>
  <tile gid="0"/>
  <tile gid="0"/>
  <tile gid="0"/>
  <tile gid="0"/>
  <tile gid="0"/>
  <tile gid="0"/>
  <tile gid="0"/>
  <tile gid="0"/>
  <tile gid="0"/>
  <tile gid="0"/>
  <tile gid="0"/>
  <tile gid="0"/>
  <tile gid="0"/>
  <tile gid="0"/>
  <tile gid="0"/>
  <tile gid="0"/>
  <tile gid="0"/>
  <tile gid="0"/>
  <tile gid="0"/>
  <tile gid="0"/>
  <tile gid="0"/>
  <tile gid="0"/>
  <tile gid="0"/>
  <tile gid="0"/>
  <tile gid="0"/>
  <tile gid="0"/>
  <tile gid="0"/>
  <tile gid="0"/>
  <tile gid="0"/>
  <tile gid="0"/>
  <tile gid="0"/>
  <tile gid="0"/>
  <tile gid="0"/>
  <tile gid="0"/>
  <tile gid="0"/>
  <tile gid="0"/>
  <tile gid="0"/>
  <tile gid="0"/>
  <tile gid="0"/>
  <tile gid="0"/>
  <tile gid="0"/>
  <tile gid="0"/>
  <tile gid="0"/>
  <tile gid="0"/>
  <tile gid="0"/>
  <tile gid="0"/>
  <tile gid="0"/>
  <tile gid="0"/>
  <tile gid="0"/>
  <tile gid="0"/>
  <tile gid="0"/>
  <tile gid="0"/>
  <tile gid="0"/>
  <tile gid="0"/>
  <tile gid="0"/>
  <tile gid="0"/>
  <tile gid="0"/>
  <tile gid="0"/>
  <tile gid="0"/>
  <tile gid="0"/>
  <tile gid="0"/>
  <tile gid="0"/>
  <tile gid="0"/>
  <tile gid="0"/>
  <tile gid="0"/>
  <tile gid="0"/>
  <tile gid="0"/>
  <tile gid="0"/>
  <tile gid="0"/>
  <tile gid="0"/>
  <tile gid="0"/>
  <tile gid="0"/>
  <tile gid="0"/>
  <tile gid="0"/>
  <tile gid="0"/>
  <tile gid="0"/>
  <tile gid="0"/>
  <tile gid="0"/>
  <tile gid="0"/>
  <tile gid="0"/>
  <tile gid="0"/>
  <tile gid="0"/>
  <tile gid="0"/>
  <tile gid="0"/>
  <tile gid="0"/>
  <tile gid="0"/>
  <tile gid="0"/>
  <tile gid="0"/>
  <tile gid="0"/>
  <tile gid="0"/>
  <tile gid="0"/>
  <tile gid="0"/>
  <tile gid="0"/>
  <tile gid="0"/>
  <tile gid="0"/>
  <tile gid="0"/>
  <tile gid="0"/>
  <tile gid="0"/>
  <tile gid="0"/>
  <tile gid="0"/>
  <tile gid="0"/>
  <tile gid="0"/>
  <tile gid="0"/>
  <tile gid="0"/>
  <tile gid="0"/>
  <tile gid="0"/>
  <tile gid="0"/>
  <tile gid="0"/>
  <tile gid="0"/>
  <tile gid="0"/>
  <tile gid="0"/>
  <tile gid="24"/>
  <tile gid="25"/>
  <tile gid="26"/>
  <tile gid="0"/>
  <tile gid="0"/>
  <tile gid="0"/>
  <tile gid="0"/>
  <tile gid="0"/>
  <tile gid="0"/>
  <tile gid="0"/>
  <tile gid="0"/>
  <tile gid="0"/>
  <tile gid="0"/>
  <tile gid="0"/>
  <tile gid="0"/>
  <tile gid="0"/>
  <tile gid="0"/>
  <tile gid="0"/>
  <tile gid="0"/>
  <tile gid="0"/>
  <tile gid="0"/>
  <tile gid="0"/>
  <tile gid="0"/>
  <tile gid="0"/>
  <tile gid="0"/>
  <tile gid="0"/>
  <tile gid="0"/>
  <tile gid="0"/>
  <tile gid="0"/>
  <tile gid="0"/>
  <tile gid="0"/>
  <tile gid="0"/>
  <tile gid="88"/>
  <tile gid="89"/>
  <tile gid="90"/>
  <tile gid="0"/>
  <tile gid="0"/>
  <tile gid="0"/>
  <tile gid="0"/>
  <tile gid="0"/>
  <tile gid="0"/>
  <tile gid="0"/>
  <tile gid="0"/>
  <tile gid="0"/>
  <tile gid="0"/>
  <tile gid="0"/>
  <tile gid="0"/>
  <tile gid="0"/>
  <tile gid="0"/>
  <tile gid="0"/>
  <tile gid="0"/>
  <tile gid="0"/>
  <tile gid="0"/>
  <tile gid="0"/>
  <tile gid="0"/>
  <tile gid="0"/>
  <tile gid="0"/>
  <tile gid="0"/>
  <tile gid="0"/>
  <tile gid="0"/>
  <tile gid="0"/>
  <tile gid="0"/>
  <tile gid="0"/>
  <tile gid="0"/>
  <tile gid="0"/>
  <tile gid="0"/>
  <tile gid="0"/>
  <tile gid="0"/>
  <tile gid="0"/>
  <tile gid="0"/>
  <tile gid="0"/>
  <tile gid="0"/>
  <tile gid="0"/>
  <tile gid="0"/>
  <tile gid="0"/>
  <tile gid="0"/>
  <tile gid="0"/>
  <tile gid="0"/>
  <tile gid="0"/>
  <tile gid="0"/>
  <tile gid="0"/>
  <tile gid="0"/>
  <tile gid="0"/>
  <tile gid="0"/>
  <tile gid="0"/>
  <tile gid="0"/>
  <tile gid="0"/>
  <tile gid="0"/>
  <tile gid="0"/>
  <tile gid="0"/>
  <tile gid="0"/>
  <tile gid="0"/>
  <tile gid="0"/>
  <tile gid="0"/>
  <tile gid="0"/>
  <tile gid="0"/>
  <tile gid="0"/>
  <tile gid="0"/>
  <tile gid="0"/>
  <tile gid="0"/>
  <tile gid="0"/>
  <tile gid="0"/>
  <tile gid="0"/>
  <tile gid="0"/>
  <tile gid="0"/>
  <tile gid="0"/>
  <tile gid="0"/>
  <tile gid="0"/>
  <tile gid="0"/>
  <tile gid="0"/>
  <tile gid="0"/>
  <tile gid="0"/>
  <tile gid="0"/>
  <tile gid="0"/>
  <tile gid="0"/>
  <tile gid="0"/>
  <tile gid="0"/>
  <tile gid="0"/>
  <tile gid="0"/>
  <tile gid="0"/>
  <tile gid="0"/>
  <tile gid="0"/>
  <tile gid="0"/>
  <tile gid="0"/>
  <tile gid="0"/>
  <tile gid="0"/>
  <tile gid="0"/>
  <tile gid="0"/>
  <tile gid="0"/>
  <tile gid="0"/>
  <tile gid="0"/>
  <tile gid="0"/>
  <tile gid="0"/>
  <tile gid="0"/>
  <tile gid="0"/>
  <tile gid="0"/>
  <tile gid="0"/>
  <tile gid="0"/>
  <tile gid="0"/>
  <tile gid="0"/>
  <tile gid="0"/>
  <tile gid="0"/>
  <tile gid="0"/>
  <tile gid="0"/>
  <tile gid="0"/>
  <tile gid="0"/>
  <tile gid="0"/>
  <tile gid="0"/>
  <tile gid="0"/>
  <tile gid="0"/>
  <tile gid="0"/>
  <tile gid="0"/>
  <tile gid="0"/>
  <tile gid="0"/>
  <tile gid="0"/>
  <tile gid="0"/>
  <tile gid="0"/>
  <tile gid="0"/>
  <tile gid="0"/>
  <tile gid="0"/>
  <tile gid="0"/>
  <tile gid="0"/>
  <tile gid="0"/>
  <tile gid="0"/>
  <tile gid="0"/>
  <tile gid="0"/>
  <tile gid="0"/>
  <tile gid="0"/>
  <tile gid="0"/>
  <tile gid="0"/>
  <tile gid="0"/>
  <tile gid="0"/>
  <tile gid="0"/>
  <tile gid="0"/>
  <tile gid="0"/>
  <tile gid="0"/>
  <tile gid="0"/>
  <tile gid="0"/>
  <tile gid="0"/>
  <tile gid="0"/>
  <tile gid="0"/>
  <tile gid="0"/>
  <tile gid="0"/>
  <tile gid="0"/>
  <tile gid="0"/>
  <tile gid="0"/>
  <tile gid="0"/>
  <tile gid="0"/>
  <tile gid="0"/>
  <tile gid="0"/>
  <tile gid="0"/>
  <tile gid="0"/>
  <tile gid="0"/>
  <tile gid="0"/>
  <tile gid="0"/>
  <tile gid="0"/>
  <tile gid="0"/>
  <tile gid="0"/>
  <tile gid="0"/>
  <tile gid="0"/>
  <tile gid="0"/>
  <tile gid="0"/>
  <tile gid="0"/>
  <tile gid="0"/>
  <tile gid="0"/>
  <tile gid="0"/>
  <tile gid="0"/>
  <tile gid="0"/>
  <tile gid="0"/>
  <tile gid="0"/>
  <tile gid="0"/>
  <tile gid="0"/>
  <tile gid="0"/>
  <tile gid="0"/>
  <tile gid="0"/>
  <tile gid="0"/>
  <tile gid="0"/>
  <tile gid="0"/>
  <tile gid="0"/>
  <tile gid="0"/>
  <tile gid="0"/>
  <tile gid="0"/>
  <tile gid="0"/>
  <tile gid="0"/>
  <tile gid="0"/>
  <tile gid="0"/>
  <tile gid="0"/>
  <tile gid="0"/>
  <tile gid="0"/>
  <tile gid="0"/>
  <tile gid="0"/>
  <tile gid="0"/>
  <tile gid="0"/>
  <tile gid="0"/>
  <tile gid="0"/>
  <tile gid="0"/>
  <tile gid="0"/>
  <tile gid="0"/>
  <tile gid="0"/>
  <tile gid="0"/>
  <tile gid="0"/>
  <tile gid="0"/>
  <tile gid="0"/>
  <tile gid="0"/>
  <tile gid="0"/>
  <tile gid="0"/>
  <tile gid="0"/>
  <tile gid="0"/>
  <tile gid="0"/>
  <tile gid="0"/>
  <tile gid="0"/>
  <tile gid="0"/>
  <tile gid="0"/>
  <tile gid="0"/>
  <tile gid="0"/>
  <tile gid="0"/>
  <tile gid="0"/>
  <tile gid="0"/>
  <tile gid="0"/>
  <tile gid="0"/>
  <tile gid="0"/>
  <tile gid="0"/>
  <tile gid="0"/>
  <tile gid="0"/>
  <tile gid="0"/>
  <tile gid="0"/>
  <tile gid="0"/>
  <tile gid="0"/>
  <tile gid="0"/>
  <tile gid="0"/>
  <tile gid="0"/>
  <tile gid="0"/>
  <tile gid="0"/>
  <tile gid="0"/>
  <tile gid="0"/>
  <tile gid="0"/>
  <tile gid="0"/>
  <tile gid="0"/>
  <tile gid="0"/>
  <tile gid="0"/>
  <tile gid="0"/>
  <tile gid="0"/>
  <tile gid="0"/>
  <tile gid="0"/>
  <tile gid="0"/>
  <tile gid="0"/>
  <tile gid="0"/>
  <tile gid="0"/>
  <tile gid="0"/>
  <tile gid="0"/>
  <tile gid="0"/>
  <tile gid="0"/>
  <tile gid="0"/>
  <tile gid="0"/>
  <tile gid="0"/>
  <tile gid="0"/>
  <tile gid="0"/>
  <tile gid="0"/>
  <tile gid="0"/>
  <tile gid="0"/>
  <tile gid="0"/>
  <tile gid="0"/>
  <tile gid="0"/>
  <tile gid="0"/>
  <tile gid="0"/>
  <tile gid="0"/>
  <tile gid="0"/>
  <tile gid="0"/>
  <tile gid="0"/>
  <tile gid="0"/>
  <tile gid="0"/>
  <tile gid="0"/>
  <tile gid="0"/>
  <tile gid="0"/>
  <tile gid="0"/>
  <tile gid="0"/>
  <tile gid="0"/>
  <tile gid="0"/>
  <tile gid="0"/>
  <tile gid="0"/>
  <tile gid="0"/>
  <tile gid="0"/>
  <tile gid="0"/>
  <tile gid="0"/>
  <tile gid="0"/>
  <tile gid="0"/>
  <tile gid="0"/>
  <tile gid="0"/>
  <tile gid="0"/>
  <tile gid="0"/>
  <tile gid="0"/>
  <tile gid="0"/>
  <tile gid="0"/>
  <tile gid="0"/>
  <tile gid="0"/>
  <tile gid="0"/>
  <tile gid="0"/>
  <tile gid="0"/>
  <tile gid="0"/>
  <tile gid="0"/>
  <tile gid="0"/>
  <tile gid="0"/>
  <tile gid="0"/>
  <tile gid="0"/>
  <tile gid="0"/>
  <tile gid="0"/>
  <tile gid="0"/>
  <tile gid="0"/>
  <tile gid="0"/>
  <tile gid="0"/>
  <tile gid="0"/>
  <tile gid="0"/>
  <tile gid="0"/>
  <tile gid="0"/>
  <tile gid="0"/>
  <tile gid="0"/>
  <tile gid="0"/>
  <tile gid="0"/>
  <tile gid="0"/>
  <tile gid="0"/>
  <tile gid="0"/>
  <tile gid="0"/>
  <tile gid="0"/>
  <tile gid="0"/>
  <tile gid="0"/>
  <tile gid="0"/>
  <tile gid="0"/>
  <tile gid="0"/>
  <tile gid="0"/>
  <tile gid="0"/>
  <tile gid="0"/>
  <tile gid="0"/>
  <tile gid="0"/>
  <tile gid="0"/>
  <tile gid="0"/>
  <tile gid="0"/>
  <tile gid="0"/>
  <tile gid="0"/>
  <tile gid="0"/>
  <tile gid="0"/>
  <tile gid="0"/>
  <tile gid="0"/>
  <tile gid="0"/>
  <tile gid="0"/>
  <tile gid="0"/>
  <tile gid="0"/>
  <tile gid="0"/>
  <tile gid="0"/>
  <tile gid="0"/>
  <tile gid="0"/>
  <tile gid="0"/>
  <tile gid="0"/>
  <tile gid="0"/>
  <tile gid="0"/>
  <tile gid="0"/>
  <tile gid="0"/>
  <tile gid="0"/>
  <tile gid="0"/>
  <tile gid="0"/>
  <tile gid="0"/>
  <tile gid="0"/>
  <tile gid="0"/>
  <tile gid="0"/>
  <tile gid="0"/>
  <tile gid="0"/>
  <tile gid="0"/>
  <tile gid="0"/>
  <tile gid="0"/>
  <tile gid="0"/>
  <tile gid="0"/>
  <tile gid="0"/>
  <tile gid="0"/>
  <tile gid="0"/>
  <tile gid="0"/>
  <tile gid="0"/>
  <tile gid="0"/>
  <tile gid="0"/>
  <tile gid="0"/>
  <tile gid="0"/>
  <tile gid="0"/>
  <tile gid="0"/>
  <tile gid="0"/>
  <tile gid="0"/>
  <tile gid="0"/>
  <tile gid="0"/>
  <tile gid="0"/>
  <tile gid="0"/>
  <tile gid="0"/>
  <tile gid="0"/>
  <tile gid="0"/>
  <tile gid="0"/>
  <tile gid="0"/>
  <tile gid="0"/>
  <tile gid="0"/>
  <tile gid="0"/>
  <tile gid="0"/>
  <tile gid="0"/>
  <tile gid="0"/>
  <tile gid="0"/>
  <tile gid="0"/>
  <tile gid="0"/>
  <tile gid="0"/>
  <tile gid="0"/>
  <tile gid="0"/>
  <tile gid="0"/>
  <tile gid="0"/>
  <tile gid="0"/>
  <tile gid="0"/>
  <tile gid="0"/>
  <tile gid="0"/>
  <tile gid="0"/>
  <tile gid="0"/>
  <tile gid="0"/>
  <tile gid="0"/>
  <tile gid="0"/>
  <tile gid="0"/>
  <tile gid="0"/>
  <tile gid="0"/>
  <tile gid="0"/>
  <tile gid="0"/>
  <tile gid="0"/>
  <tile gid="0"/>
  <tile gid="0"/>
  <tile gid="0"/>
  <tile gid="0"/>
  <tile gid="0"/>
  <tile gid="0"/>
  <tile gid="0"/>
  <tile gid="0"/>
  <tile gid="0"/>
  <tile gid="0"/>
  <tile gid="0"/>
  <tile gid="0"/>
  <tile gid="0"/>
  <tile gid="0"/>
  <tile gid="0"/>
  <tile gid="0"/>
  <tile gid="0"/>
  <tile gid="0"/>
  <tile gid="0"/>
  <tile gid="0"/>
  <tile gid="0"/>
  <tile gid="0"/>
  <tile gid="0"/>
  <tile gid="0"/>
  <tile gid="0"/>
  <tile gid="0"/>
  <tile gid="0"/>
  <tile gid="0"/>
  <tile gid="0"/>
  <tile gid="0"/>
  <tile gid="0"/>
  <tile gid="0"/>
  <tile gid="0"/>
  <tile gid="0"/>
  <tile gid="0"/>
  <tile gid="0"/>
  <tile gid="0"/>
  <tile gid="0"/>
  <tile gid="0"/>
  <tile gid="0"/>
  <tile gid="0"/>
  <tile gid="0"/>
  <tile gid="0"/>
  <tile gid="0"/>
  <tile gid="0"/>
  <tile gid="0"/>
  <tile gid="0"/>
  <tile gid="0"/>
  <tile gid="0"/>
  <tile gid="0"/>
  <tile gid="0"/>
  <tile gid="0"/>
  <tile gid="0"/>
  <tile gid="0"/>
  <tile gid="0"/>
  <tile gid="0"/>
  <tile gid="0"/>
  <tile gid="0"/>
  <tile gid="0"/>
  <tile gid="0"/>
  <tile gid="0"/>
  <tile gid="0"/>
  <tile gid="0"/>
  <tile gid="0"/>
  <tile gid="0"/>
  <tile gid="0"/>
  <tile gid="0"/>
  <tile gid="0"/>
  <tile gid="0"/>
  <tile gid="0"/>
  <tile gid="0"/>
  <tile gid="0"/>
  <tile gid="0"/>
  <tile gid="0"/>
  <tile gid="0"/>
  <tile gid="0"/>
  <tile gid="0"/>
  <tile gid="0"/>
  <tile gid="0"/>
  <tile gid="0"/>
  <tile gid="0"/>
  <tile gid="0"/>
  <tile gid="0"/>
  <tile gid="0"/>
  <tile gid="0"/>
  <tile gid="0"/>
  <tile gid="0"/>
  <tile gid="0"/>
  <tile gid="0"/>
  <tile gid="0"/>
  <tile gid="0"/>
  <tile gid="0"/>
  <tile gid="0"/>
  <tile gid="0"/>
  <tile gid="0"/>
  <tile gid="0"/>
  <tile gid="0"/>
  <tile gid="0"/>
  <tile gid="0"/>
  <tile gid="0"/>
  <tile gid="0"/>
  <tile gid="0"/>
  <tile gid="0"/>
  <tile gid="0"/>
  <tile gid="0"/>
  <tile gid="0"/>
  <tile gid="0"/>
  <tile gid="0"/>
  <tile gid="0"/>
  <tile gid="0"/>
  <tile gid="0"/>
  <tile gid="0"/>
  <tile gid="0"/>
  <tile gid="0"/>
  <tile gid="0"/>
  <tile gid="0"/>
  <tile gid="0"/>
  <tile gid="0"/>
  <tile gid="0"/>
  <tile gid="0"/>
  <tile gid="0"/>
  <tile gid="0"/>
  <tile gid="0"/>
  <tile gid="0"/>
  <tile gid="0"/>
  <tile gid="0"/>
  <tile gid="0"/>
  <tile gid="0"/>
  <tile gid="0"/>
  <tile gid="0"/>
  <tile gid="0"/>
  <tile gid="0"/>
  <tile gid="0"/>
  <tile gid="0"/>
  <tile gid="0"/>
  <tile gid="0"/>
  <tile gid="0"/>
  <tile gid="0"/>
  <tile gid="0"/>
  <tile gid="0"/>
  <tile gid="0"/>
  <tile gid="0"/>
  <tile gid="0"/>
  <tile gid="0"/>
  <tile gid="0"/>
  <tile gid="0"/>
  <tile gid="0"/>
  <tile gid="0"/>
  <tile gid="0"/>
  <tile gid="0"/>
  <tile gid="0"/>
  <tile gid="0"/>
  <tile gid="0"/>
  <tile gid="0"/>
  <tile gid="0"/>
  <tile gid="0"/>
  <tile gid="0"/>
  <tile gid="0"/>
  <tile gid="0"/>
  <tile gid="0"/>
  <tile gid="0"/>
  <tile gid="0"/>
  <tile gid="0"/>
  <tile gid="0"/>
  <tile gid="0"/>
  <tile gid="0"/>
  <tile gid="0"/>
  <tile gid="0"/>
  <tile gid="0"/>
  <tile gid="0"/>
  <tile gid="0"/>
  <tile gid="0"/>
  <tile gid="0"/>
  <tile gid="0"/>
  <tile gid="0"/>
  <tile gid="0"/>
  <tile gid="0"/>
  <tile gid="0"/>
  <tile gid="0"/>
  <tile gid="0"/>
  <tile gid="0"/>
  <tile gid="0"/>
  <tile gid="0"/>
  <tile gid="0"/>
  <tile gid="0"/>
  <tile gid="0"/>
  <tile gid="0"/>
  <tile gid="0"/>
  <tile gid="0"/>
  <tile gid="0"/>
  <tile gid="0"/>
  <tile gid="0"/>
  <tile gid="0"/>
  <tile gid="0"/>
  <tile gid="0"/>
  <tile gid="0"/>
  <tile gid="0"/>
  <tile gid="0"/>
  <tile gid="0"/>
  <tile gid="0"/>
  <tile gid="0"/>
  <tile gid="0"/>
  <tile gid="0"/>
  <tile gid="0"/>
  <tile gid="0"/>
  <tile gid="0"/>
  <tile gid="0"/>
  <tile gid="0"/>
  <tile gid="0"/>
  <tile gid="0"/>
  <tile gid="0"/>
  <tile gid="0"/>
  <tile gid="0"/>
  <tile gid="0"/>
  <tile gid="0"/>
  <tile gid="0"/>
  <tile gid="0"/>
  <tile gid="0"/>
  <tile gid="0"/>
  <tile gid="0"/>
  <tile gid="0"/>
  <tile gid="0"/>
  <tile gid="0"/>
  <tile gid="0"/>
  <tile gid="0"/>
  <tile gid="0"/>
  <tile gid="0"/>
  <tile gid="0"/>
  <tile gid="0"/>
  <tile gid="0"/>
  <tile gid="0"/>
  <tile gid="0"/>
  <tile gid="0"/>
  <tile gid="0"/>
  <tile gid="0"/>
  <tile gid="0"/>
  <tile gid="0"/>
  <tile gid="0"/>
  <tile gid="0"/>
  <tile gid="0"/>
  <tile gid="0"/>
  <tile gid="0"/>
  <tile gid="0"/>
  <tile gid="0"/>
  <tile gid="0"/>
  <tile gid="0"/>
  <tile gid="0"/>
  <tile gid="0"/>
  <tile gid="0"/>
  <tile gid="0"/>
  <tile gid="0"/>
  <tile gid="0"/>
  </data>
 </layer>
 <layer name="Map Change 1" width="32" height="30">
  <properties>
   <property name="ID" value ="1"/>
   <property name="Height" value ="2"/>
   <property name="Width" value ="3"/>
   <property name="X" value ="23"/>
   <property name="Y" value ="7"/>
  </properties>
  <data>
  <tile gid="0"/>
  <tile gid="0"/>
  <tile gid="0"/>
  <tile gid="0"/>
  <tile gid="0"/>
  <tile gid="0"/>
  <tile gid="0"/>
  <tile gid="0"/>
  <tile gid="0"/>
  <tile gid="0"/>
  <tile gid="0"/>
  <tile gid="0"/>
  <tile gid="0"/>
  <tile gid="0"/>
  <tile gid="0"/>
  <tile gid="0"/>
  <tile gid="0"/>
  <tile gid="0"/>
  <tile gid="0"/>
  <tile gid="0"/>
  <tile gid="0"/>
  <tile gid="0"/>
  <tile gid="0"/>
  <tile gid="0"/>
  <tile gid="0"/>
  <tile gid="0"/>
  <tile gid="0"/>
  <tile gid="0"/>
  <tile gid="0"/>
  <tile gid="0"/>
  <tile gid="0"/>
  <tile gid="0"/>
  <tile gid="0"/>
  <tile gid="0"/>
  <tile gid="0"/>
  <tile gid="0"/>
  <tile gid="0"/>
  <tile gid="0"/>
  <tile gid="0"/>
  <tile gid="0"/>
  <tile gid="0"/>
  <tile gid="0"/>
  <tile gid="0"/>
  <tile gid="0"/>
  <tile gid="0"/>
  <tile gid="0"/>
  <tile gid="0"/>
  <tile gid="0"/>
  <tile gid="0"/>
  <tile gid="0"/>
  <tile gid="0"/>
  <tile gid="0"/>
  <tile gid="0"/>
  <tile gid="0"/>
  <tile gid="0"/>
  <tile gid="0"/>
  <tile gid="0"/>
  <tile gid="0"/>
  <tile gid="0"/>
  <tile gid="0"/>
  <tile gid="0"/>
  <tile gid="0"/>
  <tile gid="0"/>
  <tile gid="0"/>
  <tile gid="0"/>
  <tile gid="0"/>
  <tile gid="0"/>
  <tile gid="0"/>
  <tile gid="0"/>
  <tile gid="0"/>
  <tile gid="0"/>
  <tile gid="0"/>
  <tile gid="0"/>
  <tile gid="0"/>
  <tile gid="0"/>
  <tile gid="0"/>
  <tile gid="0"/>
  <tile gid="0"/>
  <tile gid="0"/>
  <tile gid="0"/>
  <tile gid="0"/>
  <tile gid="0"/>
  <tile gid="0"/>
  <tile gid="0"/>
  <tile gid="0"/>
  <tile gid="0"/>
  <tile gid="0"/>
  <tile gid="0"/>
  <tile gid="0"/>
  <tile gid="0"/>
  <tile gid="0"/>
  <tile gid="0"/>
  <tile gid="0"/>
  <tile gid="0"/>
  <tile gid="0"/>
  <tile gid="0"/>
  <tile gid="0"/>
  <tile gid="0"/>
  <tile gid="0"/>
  <tile gid="0"/>
  <tile gid="0"/>
  <tile gid="0"/>
  <tile gid="0"/>
  <tile gid="0"/>
  <tile gid="0"/>
  <tile gid="0"/>
  <tile gid="0"/>
  <tile gid="0"/>
  <tile gid="0"/>
  <tile gid="0"/>
  <tile gid="0"/>
  <tile gid="0"/>
  <tile gid="0"/>
  <tile gid="0"/>
  <tile gid="0"/>
  <tile gid="0"/>
  <tile gid="0"/>
  <tile gid="0"/>
  <tile gid="0"/>
  <tile gid="0"/>
  <tile gid="0"/>
  <tile gid="0"/>
  <tile gid="0"/>
  <tile gid="0"/>
  <tile gid="0"/>
  <tile gid="0"/>
  <tile gid="0"/>
  <tile gid="0"/>
  <tile gid="0"/>
  <tile gid="0"/>
  <tile gid="0"/>
  <tile gid="0"/>
  <tile gid="0"/>
  <tile gid="0"/>
  <tile gid="0"/>
  <tile gid="0"/>
  <tile gid="0"/>
  <tile gid="0"/>
  <tile gid="0"/>
  <tile gid="0"/>
  <tile gid="0"/>
  <tile gid="0"/>
  <tile gid="0"/>
  <tile gid="0"/>
  <tile gid="0"/>
  <tile gid="0"/>
  <tile gid="0"/>
  <tile gid="0"/>
  <tile gid="0"/>
  <tile gid="0"/>
  <tile gid="0"/>
  <tile gid="0"/>
  <tile gid="0"/>
  <tile gid="0"/>
  <tile gid="0"/>
  <tile gid="0"/>
  <tile gid="0"/>
  <tile gid="0"/>
  <tile gid="0"/>
  <tile gid="0"/>
  <tile gid="0"/>
  <tile gid="0"/>
  <tile gid="0"/>
  <tile gid="0"/>
  <tile gid="0"/>
  <tile gid="0"/>
  <tile gid="0"/>
  <tile gid="0"/>
  <tile gid="0"/>
  <tile gid="0"/>
  <tile gid="0"/>
  <tile gid="0"/>
  <tile gid="0"/>
  <tile gid="0"/>
  <tile gid="0"/>
  <tile gid="0"/>
  <tile gid="0"/>
  <tile gid="0"/>
  <tile gid="0"/>
  <tile gid="0"/>
  <tile gid="0"/>
  <tile gid="0"/>
  <tile gid="0"/>
  <tile gid="0"/>
  <tile gid="0"/>
  <tile gid="0"/>
  <tile gid="0"/>
  <tile gid="0"/>
  <tile gid="0"/>
  <tile gid="0"/>
  <tile gid="0"/>
  <tile gid="0"/>
  <tile gid="0"/>
  <tile gid="0"/>
  <tile gid="0"/>
  <tile gid="0"/>
  <tile gid="0"/>
  <tile gid="0"/>
  <tile gid="0"/>
  <tile gid="0"/>
  <tile gid="0"/>
  <tile gid="0"/>
  <tile gid="0"/>
  <tile gid="0"/>
  <tile gid="0"/>
  <tile gid="0"/>
  <tile gid="0"/>
  <tile gid="0"/>
  <tile gid="0"/>
  <tile gid="0"/>
  <tile gid="0"/>
  <tile gid="0"/>
  <tile gid="0"/>
  <tile gid="0"/>
  <tile gid="0"/>
  <tile gid="0"/>
  <tile gid="0"/>
  <tile gid="0"/>
  <tile gid="0"/>
  <tile gid="0"/>
  <tile gid="0"/>
  <tile gid="0"/>
  <tile gid="0"/>
  <tile gid="0"/>
  <tile gid="0"/>
  <tile gid="0"/>
  <tile gid="0"/>
  <tile gid="0"/>
  <tile gid="0"/>
  <tile gid="0"/>
  <tile gid="0"/>
  <tile gid="0"/>
  <tile gid="0"/>
  <tile gid="0"/>
  <tile gid="0"/>
  <tile gid="0"/>
  <tile gid="0"/>
  <tile gid="0"/>
  <tile gid="0"/>
  <tile gid="0"/>
  <tile gid="0"/>
  <tile gid="0"/>
  <tile gid="0"/>
  <tile gid="0"/>
  <tile gid="0"/>
  <tile gid="0"/>
  <tile gid="0"/>
  <tile gid="1"/>
  <tile gid="1"/>
  <tile gid="1"/>
  <tile gid="0"/>
  <tile gid="0"/>
  <tile gid="0"/>
  <tile gid="0"/>
  <tile gid="0"/>
  <tile gid="0"/>
  <tile gid="0"/>
  <tile gid="0"/>
  <tile gid="0"/>
  <tile gid="0"/>
  <tile gid="0"/>
  <tile gid="0"/>
  <tile gid="0"/>
  <tile gid="0"/>
  <tile gid="0"/>
  <tile gid="0"/>
  <tile gid="0"/>
  <tile gid="0"/>
  <tile gid="0"/>
  <tile gid="0"/>
  <tile gid="0"/>
  <tile gid="0"/>
  <tile gid="0"/>
  <tile gid="0"/>
  <tile gid="0"/>
  <tile gid="0"/>
  <tile gid="0"/>
  <tile gid="0"/>
  <tile gid="0"/>
  <tile gid="1"/>
  <tile gid="434"/>
  <tile gid="1"/>
  <tile gid="0"/>
  <tile gid="0"/>
  <tile gid="0"/>
  <tile gid="0"/>
  <tile gid="0"/>
  <tile gid="0"/>
  <tile gid="0"/>
  <tile gid="0"/>
  <tile gid="0"/>
  <tile gid="0"/>
  <tile gid="0"/>
  <tile gid="0"/>
  <tile gid="0"/>
  <tile gid="0"/>
  <tile gid="0"/>
  <tile gid="0"/>
  <tile gid="0"/>
  <tile gid="0"/>
  <tile gid="0"/>
  <tile gid="0"/>
  <tile gid="0"/>
  <tile gid="0"/>
  <tile gid="0"/>
  <tile gid="0"/>
  <tile gid="0"/>
  <tile gid="0"/>
  <tile gid="0"/>
  <tile gid="0"/>
  <tile gid="0"/>
  <tile gid="0"/>
  <tile gid="0"/>
  <tile gid="0"/>
  <tile gid="0"/>
  <tile gid="0"/>
  <tile gid="0"/>
  <tile gid="0"/>
  <tile gid="0"/>
  <tile gid="0"/>
  <tile gid="0"/>
  <tile gid="0"/>
  <tile gid="0"/>
  <tile gid="0"/>
  <tile gid="0"/>
  <tile gid="0"/>
  <tile gid="0"/>
  <tile gid="0"/>
  <tile gid="0"/>
  <tile gid="0"/>
  <tile gid="0"/>
  <tile gid="0"/>
  <tile gid="0"/>
  <tile gid="0"/>
  <tile gid="0"/>
  <tile gid="0"/>
  <tile gid="0"/>
  <tile gid="0"/>
  <tile gid="0"/>
  <tile gid="0"/>
  <tile gid="0"/>
  <tile gid="0"/>
  <tile gid="0"/>
  <tile gid="0"/>
  <tile gid="0"/>
  <tile gid="0"/>
  <tile gid="0"/>
  <tile gid="0"/>
  <tile gid="0"/>
  <tile gid="0"/>
  <tile gid="0"/>
  <tile gid="0"/>
  <tile gid="0"/>
  <tile gid="0"/>
  <tile gid="0"/>
  <tile gid="0"/>
  <tile gid="0"/>
  <tile gid="0"/>
  <tile gid="0"/>
  <tile gid="0"/>
  <tile gid="0"/>
  <tile gid="0"/>
  <tile gid="0"/>
  <tile gid="0"/>
  <tile gid="0"/>
  <tile gid="0"/>
  <tile gid="0"/>
  <tile gid="0"/>
  <tile gid="0"/>
  <tile gid="0"/>
  <tile gid="0"/>
  <tile gid="0"/>
  <tile gid="0"/>
  <tile gid="0"/>
  <tile gid="0"/>
  <tile gid="0"/>
  <tile gid="0"/>
  <tile gid="0"/>
  <tile gid="0"/>
  <tile gid="0"/>
  <tile gid="0"/>
  <tile gid="0"/>
  <tile gid="0"/>
  <tile gid="0"/>
  <tile gid="0"/>
  <tile gid="0"/>
  <tile gid="0"/>
  <tile gid="0"/>
  <tile gid="0"/>
  <tile gid="0"/>
  <tile gid="0"/>
  <tile gid="0"/>
  <tile gid="0"/>
  <tile gid="0"/>
  <tile gid="0"/>
  <tile gid="0"/>
  <tile gid="0"/>
  <tile gid="0"/>
  <tile gid="0"/>
  <tile gid="0"/>
  <tile gid="0"/>
  <tile gid="0"/>
  <tile gid="0"/>
  <tile gid="0"/>
  <tile gid="0"/>
  <tile gid="0"/>
  <tile gid="0"/>
  <tile gid="0"/>
  <tile gid="0"/>
  <tile gid="0"/>
  <tile gid="0"/>
  <tile gid="0"/>
  <tile gid="0"/>
  <tile gid="0"/>
  <tile gid="0"/>
  <tile gid="0"/>
  <tile gid="0"/>
  <tile gid="0"/>
  <tile gid="0"/>
  <tile gid="0"/>
  <tile gid="0"/>
  <tile gid="0"/>
  <tile gid="0"/>
  <tile gid="0"/>
  <tile gid="0"/>
  <tile gid="0"/>
  <tile gid="0"/>
  <tile gid="0"/>
  <tile gid="0"/>
  <tile gid="0"/>
  <tile gid="0"/>
  <tile gid="0"/>
  <tile gid="0"/>
  <tile gid="0"/>
  <tile gid="0"/>
  <tile gid="0"/>
  <tile gid="0"/>
  <tile gid="0"/>
  <tile gid="0"/>
  <tile gid="0"/>
  <tile gid="0"/>
  <tile gid="0"/>
  <tile gid="0"/>
  <tile gid="0"/>
  <tile gid="0"/>
  <tile gid="0"/>
  <tile gid="0"/>
  <tile gid="0"/>
  <tile gid="0"/>
  <tile gid="0"/>
  <tile gid="0"/>
  <tile gid="0"/>
  <tile gid="0"/>
  <tile gid="0"/>
  <tile gid="0"/>
  <tile gid="0"/>
  <tile gid="0"/>
  <tile gid="0"/>
  <tile gid="0"/>
  <tile gid="0"/>
  <tile gid="0"/>
  <tile gid="0"/>
  <tile gid="0"/>
  <tile gid="0"/>
  <tile gid="0"/>
  <tile gid="0"/>
  <tile gid="0"/>
  <tile gid="0"/>
  <tile gid="0"/>
  <tile gid="0"/>
  <tile gid="0"/>
  <tile gid="0"/>
  <tile gid="0"/>
  <tile gid="0"/>
  <tile gid="0"/>
  <tile gid="0"/>
  <tile gid="0"/>
  <tile gid="0"/>
  <tile gid="0"/>
  <tile gid="0"/>
  <tile gid="0"/>
  <tile gid="0"/>
  <tile gid="0"/>
  <tile gid="0"/>
  <tile gid="0"/>
  <tile gid="0"/>
  <tile gid="0"/>
  <tile gid="0"/>
  <tile gid="0"/>
  <tile gid="0"/>
  <tile gid="0"/>
  <tile gid="0"/>
  <tile gid="0"/>
  <tile gid="0"/>
  <tile gid="0"/>
  <tile gid="0"/>
  <tile gid="0"/>
  <tile gid="0"/>
  <tile gid="0"/>
  <tile gid="0"/>
  <tile gid="0"/>
  <tile gid="0"/>
  <tile gid="0"/>
  <tile gid="0"/>
  <tile gid="0"/>
  <tile gid="0"/>
  <tile gid="0"/>
  <tile gid="0"/>
  <tile gid="0"/>
  <tile gid="0"/>
  <tile gid="0"/>
  <tile gid="0"/>
  <tile gid="0"/>
  <tile gid="0"/>
  <tile gid="0"/>
  <tile gid="0"/>
  <tile gid="0"/>
  <tile gid="0"/>
  <tile gid="0"/>
  <tile gid="0"/>
  <tile gid="0"/>
  <tile gid="0"/>
  <tile gid="0"/>
  <tile gid="0"/>
  <tile gid="0"/>
  <tile gid="0"/>
  <tile gid="0"/>
  <tile gid="0"/>
  <tile gid="0"/>
  <tile gid="0"/>
  <tile gid="0"/>
  <tile gid="0"/>
  <tile gid="0"/>
  <tile gid="0"/>
  <tile gid="0"/>
  <tile gid="0"/>
  <tile gid="0"/>
  <tile gid="0"/>
  <tile gid="0"/>
  <tile gid="0"/>
  <tile gid="0"/>
  <tile gid="0"/>
  <tile gid="0"/>
  <tile gid="0"/>
  <tile gid="0"/>
  <tile gid="0"/>
  <tile gid="0"/>
  <tile gid="0"/>
  <tile gid="0"/>
  <tile gid="0"/>
  <tile gid="0"/>
  <tile gid="0"/>
  <tile gid="0"/>
  <tile gid="0"/>
  <tile gid="0"/>
  <tile gid="0"/>
  <tile gid="0"/>
  <tile gid="0"/>
  <tile gid="0"/>
  <tile gid="0"/>
  <tile gid="0"/>
  <tile gid="0"/>
  <tile gid="0"/>
  <tile gid="0"/>
  <tile gid="0"/>
  <tile gid="0"/>
  <tile gid="0"/>
  <tile gid="0"/>
  <tile gid="0"/>
  <tile gid="0"/>
  <tile gid="0"/>
  <tile gid="0"/>
  <tile gid="0"/>
  <tile gid="0"/>
  <tile gid="0"/>
  <tile gid="0"/>
  <tile gid="0"/>
  <tile gid="0"/>
  <tile gid="0"/>
  <tile gid="0"/>
  <tile gid="0"/>
  <tile gid="0"/>
  <tile gid="0"/>
  <tile gid="0"/>
  <tile gid="0"/>
  <tile gid="0"/>
  <tile gid="0"/>
  <tile gid="0"/>
  <tile gid="0"/>
  <tile gid="0"/>
  <tile gid="0"/>
  <tile gid="0"/>
  <tile gid="0"/>
  <tile gid="0"/>
  <tile gid="0"/>
  <tile gid="0"/>
  <tile gid="0"/>
  <tile gid="0"/>
  <tile gid="0"/>
  <tile gid="0"/>
  <tile gid="0"/>
  <tile gid="0"/>
  <tile gid="0"/>
  <tile gid="0"/>
  <tile gid="0"/>
  <tile gid="0"/>
  <tile gid="0"/>
  <tile gid="0"/>
  <tile gid="0"/>
  <tile gid="0"/>
  <tile gid="0"/>
  <tile gid="0"/>
  <tile gid="0"/>
  <tile gid="0"/>
  <tile gid="0"/>
  <tile gid="0"/>
  <tile gid="0"/>
  <tile gid="0"/>
  <tile gid="0"/>
  <tile gid="0"/>
  <tile gid="0"/>
  <tile gid="0"/>
  <tile gid="0"/>
  <tile gid="0"/>
  <tile gid="0"/>
  <tile gid="0"/>
  <tile gid="0"/>
  <tile gid="0"/>
  <tile gid="0"/>
  <tile gid="0"/>
  <tile gid="0"/>
  <tile gid="0"/>
  <tile gid="0"/>
  <tile gid="0"/>
  <tile gid="0"/>
  <tile gid="0"/>
  <tile gid="0"/>
  <tile gid="0"/>
  <tile gid="0"/>
  <tile gid="0"/>
  <tile gid="0"/>
  <tile gid="0"/>
  <tile gid="0"/>
  <tile gid="0"/>
  <tile gid="0"/>
  <tile gid="0"/>
  <tile gid="0"/>
  <tile gid="0"/>
  <tile gid="0"/>
  <tile gid="0"/>
  <tile gid="0"/>
  <tile gid="0"/>
  <tile gid="0"/>
  <tile gid="0"/>
  <tile gid="0"/>
  <tile gid="0"/>
  <tile gid="0"/>
  <tile gid="0"/>
  <tile gid="0"/>
  <tile gid="0"/>
  <tile gid="0"/>
  <tile gid="0"/>
  <tile gid="0"/>
  <tile gid="0"/>
  <tile gid="0"/>
  <tile gid="0"/>
  <tile gid="0"/>
  <tile gid="0"/>
  <tile gid="0"/>
  <tile gid="0"/>
  <tile gid="0"/>
  <tile gid="0"/>
  <tile gid="0"/>
  <tile gid="0"/>
  <tile gid="0"/>
  <tile gid="0"/>
  <tile gid="0"/>
  <tile gid="0"/>
  <tile gid="0"/>
  <tile gid="0"/>
  <tile gid="0"/>
  <tile gid="0"/>
  <tile gid="0"/>
  <tile gid="0"/>
  <tile gid="0"/>
  <tile gid="0"/>
  <tile gid="0"/>
  <tile gid="0"/>
  <tile gid="0"/>
  <tile gid="0"/>
  <tile gid="0"/>
  <tile gid="0"/>
  <tile gid="0"/>
  <tile gid="0"/>
  <tile gid="0"/>
  <tile gid="0"/>
  <tile gid="0"/>
  <tile gid="0"/>
  <tile gid="0"/>
  <tile gid="0"/>
  <tile gid="0"/>
  <tile gid="0"/>
  <tile gid="0"/>
  <tile gid="0"/>
  <tile gid="0"/>
  <tile gid="0"/>
  <tile gid="0"/>
  <tile gid="0"/>
  <tile gid="0"/>
  <tile gid="0"/>
  <tile gid="0"/>
  <tile gid="0"/>
  <tile gid="0"/>
  <tile gid="0"/>
  <tile gid="0"/>
  <tile gid="0"/>
  <tile gid="0"/>
  <tile gid="0"/>
  <tile gid="0"/>
  <tile gid="0"/>
  <tile gid="0"/>
  <tile gid="0"/>
  <tile gid="0"/>
  <tile gid="0"/>
  <tile gid="0"/>
  <tile gid="0"/>
  <tile gid="0"/>
  <tile gid="0"/>
  <tile gid="0"/>
  <tile gid="0"/>
  <tile gid="0"/>
  <tile gid="0"/>
  <tile gid="0"/>
  <tile gid="0"/>
  <tile gid="0"/>
  <tile gid="0"/>
  <tile gid="0"/>
  <tile gid="0"/>
  <tile gid="0"/>
  <tile gid="0"/>
  <tile gid="0"/>
  <tile gid="0"/>
  <tile gid="0"/>
  <tile gid="0"/>
  <tile gid="0"/>
  <tile gid="0"/>
  <tile gid="0"/>
  <tile gid="0"/>
  <tile gid="0"/>
  <tile gid="0"/>
  <tile gid="0"/>
  <tile gid="0"/>
  <tile gid="0"/>
  <tile gid="0"/>
  <tile gid="0"/>
  <tile gid="0"/>
  <tile gid="0"/>
  <tile gid="0"/>
  <tile gid="0"/>
  <tile gid="0"/>
  <tile gid="0"/>
  <tile gid="0"/>
  <tile gid="0"/>
  <tile gid="0"/>
  <tile gid="0"/>
  <tile gid="0"/>
  <tile gid="0"/>
  <tile gid="0"/>
  <tile gid="0"/>
  <tile gid="0"/>
  <tile gid="0"/>
  <tile gid="0"/>
  <tile gid="0"/>
  <tile gid="0"/>
  <tile gid="0"/>
  <tile gid="0"/>
  <tile gid="0"/>
  <tile gid="0"/>
  <tile gid="0"/>
  <tile gid="0"/>
  <tile gid="0"/>
  <tile gid="0"/>
  <tile gid="0"/>
  <tile gid="0"/>
  <tile gid="0"/>
  <tile gid="0"/>
  <tile gid="0"/>
  <tile gid="0"/>
  <tile gid="0"/>
  <tile gid="0"/>
  <tile gid="0"/>
  <tile gid="0"/>
  <tile gid="0"/>
  <tile gid="0"/>
  <tile gid="0"/>
  <tile gid="0"/>
  <tile gid="0"/>
  <tile gid="0"/>
  <tile gid="0"/>
  <tile gid="0"/>
  <tile gid="0"/>
  <tile gid="0"/>
  <tile gid="0"/>
  <tile gid="0"/>
  <tile gid="0"/>
  <tile gid="0"/>
  <tile gid="0"/>
  <tile gid="0"/>
  <tile gid="0"/>
  <tile gid="0"/>
  <tile gid="0"/>
  <tile gid="0"/>
  <tile gid="0"/>
  <tile gid="0"/>
  <tile gid="0"/>
  <tile gid="0"/>
  <tile gid="0"/>
  <tile gid="0"/>
  <tile gid="0"/>
  <tile gid="0"/>
  <tile gid="0"/>
  <tile gid="0"/>
  <tile gid="0"/>
  <tile gid="0"/>
  <tile gid="0"/>
  <tile gid="0"/>
  <tile gid="0"/>
  <tile gid="0"/>
  <tile gid="0"/>
  <tile gid="0"/>
  <tile gid="0"/>
  <tile gid="0"/>
  <tile gid="0"/>
  <tile gid="0"/>
  <tile gid="0"/>
  <tile gid="0"/>
  <tile gid="0"/>
  <tile gid="0"/>
  <tile gid="0"/>
  <tile gid="0"/>
  <tile gid="0"/>
  <tile gid="0"/>
  <tile gid="0"/>
  <tile gid="0"/>
  <tile gid="0"/>
  <tile gid="0"/>
  <tile gid="0"/>
  <tile gid="0"/>
  <tile gid="0"/>
  <tile gid="0"/>
  <tile gid="0"/>
  <tile gid="0"/>
  <tile gid="0"/>
  <tile gid="0"/>
  <tile gid="0"/>
  <tile gid="0"/>
  <tile gid="0"/>
  <tile gid="0"/>
  <tile gid="0"/>
  <tile gid="0"/>
  <tile gid="0"/>
  <tile gid="0"/>
  <tile gid="0"/>
  <tile gid="0"/>
  <tile gid="0"/>
  <tile gid="0"/>
  <tile gid="0"/>
  <tile gid="0"/>
  <tile gid="0"/>
  <tile gid="0"/>
  <tile gid="0"/>
  <tile gid="0"/>
  <tile gid="0"/>
  <tile gid="0"/>
  <tile gid="0"/>
  <tile gid="0"/>
  <tile gid="0"/>
  <tile gid="0"/>
  <tile gid="0"/>
  <tile gid="0"/>
  <tile gid="0"/>
  <tile gid="0"/>
  <tile gid="0"/>
  <tile gid="0"/>
  <tile gid="0"/>
  <tile gid="0"/>
  <tile gid="0"/>
  <tile gid="0"/>
  <tile gid="0"/>
  <tile gid="0"/>
  <tile gid="0"/>
  <tile gid="0"/>
  <tile gid="0"/>
  <tile gid="0"/>
  <tile gid="0"/>
  <tile gid="0"/>
  <tile gid="0"/>
  <tile gid="0"/>
  <tile gid="0"/>
  <tile gid="0"/>
  <tile gid="0"/>
  <tile gid="0"/>
  <tile gid="0"/>
  <tile gid="0"/>
  <tile gid="0"/>
  <tile gid="0"/>
  <tile gid="0"/>
  <tile gid="0"/>
  <tile gid="0"/>
  <tile gid="0"/>
  <tile gid="0"/>
  <tile gid="0"/>
  <tile gid="0"/>
  <tile gid="0"/>
  <tile gid="0"/>
  <tile gid="0"/>
  <tile gid="0"/>
  <tile gid="0"/>
  <tile gid="0"/>
  <tile gid="0"/>
  <tile gid="0"/>
  <tile gid="0"/>
  <tile gid="0"/>
  <tile gid="0"/>
  <tile gid="0"/>
  <tile gid="0"/>
  <tile gid="0"/>
  <tile gid="0"/>
  <tile gid="0"/>
  <tile gid="0"/>
  <tile gid="0"/>
  <tile gid="0"/>
  <tile gid="0"/>
  <tile gid="0"/>
  <tile gid="0"/>
  <tile gid="0"/>
  <tile gid="0"/>
  <tile gid="0"/>
  <tile gid="0"/>
  <tile gid="0"/>
  <tile gid="0"/>
  <tile gid="0"/>
  <tile gid="0"/>
  <tile gid="0"/>
  <tile gid="0"/>
  <tile gid="0"/>
  <tile gid="0"/>
  <tile gid="0"/>
  <tile gid="0"/>
  <tile gid="0"/>
  <tile gid="0"/>
  <tile gid="0"/>
  <tile gid="0"/>
  <tile gid="0"/>
  <tile gid="0"/>
  <tile gid="0"/>
  <tile gid="0"/>
  <tile gid="0"/>
  <tile gid="0"/>
  <tile gid="0"/>
  </data>
 </layer>
 <layer name="Map Change 2" width="32" height="30">
  <properties>
   <property name="ID" value ="2"/>
   <property name="Height" value ="1"/>
   <property name="Width" value ="3"/>
   <property name="X" value ="11"/>
   <property name="Y" value ="10"/>
  </properties>
  <data>
  <tile gid="0"/>
  <tile gid="0"/>
  <tile gid="0"/>
  <tile gid="0"/>
  <tile gid="0"/>
  <tile gid="0"/>
  <tile gid="0"/>
  <tile gid="0"/>
  <tile gid="0"/>
  <tile gid="0"/>
  <tile gid="0"/>
  <tile gid="0"/>
  <tile gid="0"/>
  <tile gid="0"/>
  <tile gid="0"/>
  <tile gid="0"/>
  <tile gid="0"/>
  <tile gid="0"/>
  <tile gid="0"/>
  <tile gid="0"/>
  <tile gid="0"/>
  <tile gid="0"/>
  <tile gid="0"/>
  <tile gid="0"/>
  <tile gid="0"/>
  <tile gid="0"/>
  <tile gid="0"/>
  <tile gid="0"/>
  <tile gid="0"/>
  <tile gid="0"/>
  <tile gid="0"/>
  <tile gid="0"/>
  <tile gid="0"/>
  <tile gid="0"/>
  <tile gid="0"/>
  <tile gid="0"/>
  <tile gid="0"/>
  <tile gid="0"/>
  <tile gid="0"/>
  <tile gid="0"/>
  <tile gid="0"/>
  <tile gid="0"/>
  <tile gid="0"/>
  <tile gid="0"/>
  <tile gid="0"/>
  <tile gid="0"/>
  <tile gid="0"/>
  <tile gid="0"/>
  <tile gid="0"/>
  <tile gid="0"/>
  <tile gid="0"/>
  <tile gid="0"/>
  <tile gid="0"/>
  <tile gid="0"/>
  <tile gid="0"/>
  <tile gid="0"/>
  <tile gid="0"/>
  <tile gid="0"/>
  <tile gid="0"/>
  <tile gid="0"/>
  <tile gid="0"/>
  <tile gid="0"/>
  <tile gid="0"/>
  <tile gid="0"/>
  <tile gid="0"/>
  <tile gid="0"/>
  <tile gid="0"/>
  <tile gid="0"/>
  <tile gid="0"/>
  <tile gid="0"/>
  <tile gid="0"/>
  <tile gid="0"/>
  <tile gid="0"/>
  <tile gid="0"/>
  <tile gid="0"/>
  <tile gid="0"/>
  <tile gid="0"/>
  <tile gid="0"/>
  <tile gid="0"/>
  <tile gid="0"/>
  <tile gid="0"/>
  <tile gid="0"/>
  <tile gid="0"/>
  <tile gid="0"/>
  <tile gid="0"/>
  <tile gid="0"/>
  <tile gid="0"/>
  <tile gid="0"/>
  <tile gid="0"/>
  <tile gid="0"/>
  <tile gid="0"/>
  <tile gid="0"/>
  <tile gid="0"/>
  <tile gid="0"/>
  <tile gid="0"/>
  <tile gid="0"/>
  <tile gid="0"/>
  <tile gid="0"/>
  <tile gid="0"/>
  <tile gid="0"/>
  <tile gid="0"/>
  <tile gid="0"/>
  <tile gid="0"/>
  <tile gid="0"/>
  <tile gid="0"/>
  <tile gid="0"/>
  <tile gid="0"/>
  <tile gid="0"/>
  <tile gid="0"/>
  <tile gid="0"/>
  <tile gid="0"/>
  <tile gid="0"/>
  <tile gid="0"/>
  <tile gid="0"/>
  <tile gid="0"/>
  <tile gid="0"/>
  <tile gid="0"/>
  <tile gid="0"/>
  <tile gid="0"/>
  <tile gid="0"/>
  <tile gid="0"/>
  <tile gid="0"/>
  <tile gid="0"/>
  <tile gid="0"/>
  <tile gid="0"/>
  <tile gid="0"/>
  <tile gid="0"/>
  <tile gid="0"/>
  <tile gid="0"/>
  <tile gid="0"/>
  <tile gid="0"/>
  <tile gid="0"/>
  <tile gid="0"/>
  <tile gid="0"/>
  <tile gid="0"/>
  <tile gid="0"/>
  <tile gid="0"/>
  <tile gid="0"/>
  <tile gid="0"/>
  <tile gid="0"/>
  <tile gid="0"/>
  <tile gid="0"/>
  <tile gid="0"/>
  <tile gid="0"/>
  <tile gid="0"/>
  <tile gid="0"/>
  <tile gid="0"/>
  <tile gid="0"/>
  <tile gid="0"/>
  <tile gid="0"/>
  <tile gid="0"/>
  <tile gid="0"/>
  <tile gid="0"/>
  <tile gid="0"/>
  <tile gid="0"/>
  <tile gid="0"/>
  <tile gid="0"/>
  <tile gid="0"/>
  <tile gid="0"/>
  <tile gid="0"/>
  <tile gid="0"/>
  <tile gid="0"/>
  <tile gid="0"/>
  <tile gid="0"/>
  <tile gid="0"/>
  <tile gid="0"/>
  <tile gid="0"/>
  <tile gid="0"/>
  <tile gid="0"/>
  <tile gid="0"/>
  <tile gid="0"/>
  <tile gid="0"/>
  <tile gid="0"/>
  <tile gid="0"/>
  <tile gid="0"/>
  <tile gid="0"/>
  <tile gid="0"/>
  <tile gid="0"/>
  <tile gid="0"/>
  <tile gid="0"/>
  <tile gid="0"/>
  <tile gid="0"/>
  <tile gid="0"/>
  <tile gid="0"/>
  <tile gid="0"/>
  <tile gid="0"/>
  <tile gid="0"/>
  <tile gid="0"/>
  <tile gid="0"/>
  <tile gid="0"/>
  <tile gid="0"/>
  <tile gid="0"/>
  <tile gid="0"/>
  <tile gid="0"/>
  <tile gid="0"/>
  <tile gid="0"/>
  <tile gid="0"/>
  <tile gid="0"/>
  <tile gid="0"/>
  <tile gid="0"/>
  <tile gid="0"/>
  <tile gid="0"/>
  <tile gid="0"/>
  <tile gid="0"/>
  <tile gid="0"/>
  <tile gid="0"/>
  <tile gid="0"/>
  <tile gid="0"/>
  <tile gid="0"/>
  <tile gid="0"/>
  <tile gid="0"/>
  <tile gid="0"/>
  <tile gid="0"/>
  <tile gid="0"/>
  <tile gid="0"/>
  <tile gid="0"/>
  <tile gid="0"/>
  <tile gid="0"/>
  <tile gid="0"/>
  <tile gid="0"/>
  <tile gid="0"/>
  <tile gid="0"/>
  <tile gid="0"/>
  <tile gid="0"/>
  <tile gid="0"/>
  <tile gid="0"/>
  <tile gid="0"/>
  <tile gid="0"/>
  <tile gid="0"/>
  <tile gid="0"/>
  <tile gid="0"/>
  <tile gid="0"/>
  <tile gid="0"/>
  <tile gid="0"/>
  <tile gid="0"/>
  <tile gid="0"/>
  <tile gid="0"/>
  <tile gid="0"/>
  <tile gid="0"/>
  <tile gid="0"/>
  <tile gid="0"/>
  <tile gid="0"/>
  <tile gid="0"/>
  <tile gid="0"/>
  <tile gid="0"/>
  <tile gid="0"/>
  <tile gid="0"/>
  <tile gid="0"/>
  <tile gid="0"/>
  <tile gid="0"/>
  <tile gid="0"/>
  <tile gid="0"/>
  <tile gid="0"/>
  <tile gid="0"/>
  <tile gid="0"/>
  <tile gid="0"/>
  <tile gid="0"/>
  <tile gid="0"/>
  <tile gid="0"/>
  <tile gid="0"/>
  <tile gid="0"/>
  <tile gid="0"/>
  <tile gid="0"/>
  <tile gid="0"/>
  <tile gid="0"/>
  <tile gid="0"/>
  <tile gid="0"/>
  <tile gid="0"/>
  <tile gid="0"/>
  <tile gid="0"/>
  <tile gid="0"/>
  <tile gid="0"/>
  <tile gid="0"/>
  <tile gid="0"/>
  <tile gid="0"/>
  <tile gid="0"/>
  <tile gid="0"/>
  <tile gid="0"/>
  <tile gid="0"/>
  <tile gid="0"/>
  <tile gid="0"/>
  <tile gid="0"/>
  <tile gid="0"/>
  <tile gid="0"/>
  <tile gid="0"/>
  <tile gid="0"/>
  <tile gid="0"/>
  <tile gid="0"/>
  <tile gid="0"/>
  <tile gid="0"/>
  <tile gid="0"/>
  <tile gid="0"/>
  <tile gid="0"/>
  <tile gid="0"/>
  <tile gid="0"/>
  <tile gid="0"/>
  <tile gid="0"/>
  <tile gid="0"/>
  <tile gid="0"/>
  <tile gid="0"/>
  <tile gid="0"/>
  <tile gid="0"/>
  <tile gid="0"/>
  <tile gid="0"/>
  <tile gid="0"/>
  <tile gid="0"/>
  <tile gid="0"/>
  <tile gid="0"/>
  <tile gid="0"/>
  <tile gid="0"/>
  <tile gid="0"/>
  <tile gid="0"/>
  <tile gid="0"/>
  <tile gid="0"/>
  <tile gid="0"/>
  <tile gid="0"/>
  <tile gid="0"/>
  <tile gid="0"/>
  <tile gid="0"/>
  <tile gid="0"/>
  <tile gid="0"/>
  <tile gid="0"/>
  <tile gid="0"/>
  <tile gid="0"/>
  <tile gid="0"/>
  <tile gid="0"/>
  <tile gid="0"/>
  <tile gid="0"/>
  <tile gid="0"/>
  <tile gid="0"/>
  <tile gid="0"/>
  <tile gid="1"/>
  <tile gid="453"/>
  <tile gid="1"/>
  <tile gid="0"/>
  <tile gid="0"/>
  <tile gid="0"/>
  <tile gid="0"/>
  <tile gid="0"/>
  <tile gid="0"/>
  <tile gid="0"/>
  <tile gid="0"/>
  <tile gid="0"/>
  <tile gid="0"/>
  <tile gid="0"/>
  <tile gid="0"/>
  <tile gid="0"/>
  <tile gid="0"/>
  <tile gid="0"/>
  <tile gid="0"/>
  <tile gid="0"/>
  <tile gid="0"/>
  <tile gid="0"/>
  <tile gid="0"/>
  <tile gid="0"/>
  <tile gid="0"/>
  <tile gid="0"/>
  <tile gid="0"/>
  <tile gid="0"/>
  <tile gid="0"/>
  <tile gid="0"/>
  <tile gid="0"/>
  <tile gid="0"/>
  <tile gid="0"/>
  <tile gid="0"/>
  <tile gid="0"/>
  <tile gid="0"/>
  <tile gid="0"/>
  <tile gid="0"/>
  <tile gid="0"/>
  <tile gid="0"/>
  <tile gid="0"/>
  <tile gid="0"/>
  <tile gid="0"/>
  <tile gid="0"/>
  <tile gid="0"/>
  <tile gid="0"/>
  <tile gid="0"/>
  <tile gid="0"/>
  <tile gid="0"/>
  <tile gid="0"/>
  <tile gid="0"/>
  <tile gid="0"/>
  <tile gid="0"/>
  <tile gid="0"/>
  <tile gid="0"/>
  <tile gid="0"/>
  <tile gid="0"/>
  <tile gid="0"/>
  <tile gid="0"/>
  <tile gid="0"/>
  <tile gid="0"/>
  <tile gid="0"/>
  <tile gid="0"/>
  <tile gid="0"/>
  <tile gid="0"/>
  <tile gid="0"/>
  <tile gid="0"/>
  <tile gid="0"/>
  <tile gid="0"/>
  <tile gid="0"/>
  <tile gid="0"/>
  <tile gid="0"/>
  <tile gid="0"/>
  <tile gid="0"/>
  <tile gid="0"/>
  <tile gid="0"/>
  <tile gid="0"/>
  <tile gid="0"/>
  <tile gid="0"/>
  <tile gid="0"/>
  <tile gid="0"/>
  <tile gid="0"/>
  <tile gid="0"/>
  <tile gid="0"/>
  <tile gid="0"/>
  <tile gid="0"/>
  <tile gid="0"/>
  <tile gid="0"/>
  <tile gid="0"/>
  <tile gid="0"/>
  <tile gid="0"/>
  <tile gid="0"/>
  <tile gid="0"/>
  <tile gid="0"/>
  <tile gid="0"/>
  <tile gid="0"/>
  <tile gid="0"/>
  <tile gid="0"/>
  <tile gid="0"/>
  <tile gid="0"/>
  <tile gid="0"/>
  <tile gid="0"/>
  <tile gid="0"/>
  <tile gid="0"/>
  <tile gid="0"/>
  <tile gid="0"/>
  <tile gid="0"/>
  <tile gid="0"/>
  <tile gid="0"/>
  <tile gid="0"/>
  <tile gid="0"/>
  <tile gid="0"/>
  <tile gid="0"/>
  <tile gid="0"/>
  <tile gid="0"/>
  <tile gid="0"/>
  <tile gid="0"/>
  <tile gid="0"/>
  <tile gid="0"/>
  <tile gid="0"/>
  <tile gid="0"/>
  <tile gid="0"/>
  <tile gid="0"/>
  <tile gid="0"/>
  <tile gid="0"/>
  <tile gid="0"/>
  <tile gid="0"/>
  <tile gid="0"/>
  <tile gid="0"/>
  <tile gid="0"/>
  <tile gid="0"/>
  <tile gid="0"/>
  <tile gid="0"/>
  <tile gid="0"/>
  <tile gid="0"/>
  <tile gid="0"/>
  <tile gid="0"/>
  <tile gid="0"/>
  <tile gid="0"/>
  <tile gid="0"/>
  <tile gid="0"/>
  <tile gid="0"/>
  <tile gid="0"/>
  <tile gid="0"/>
  <tile gid="0"/>
  <tile gid="0"/>
  <tile gid="0"/>
  <tile gid="0"/>
  <tile gid="0"/>
  <tile gid="0"/>
  <tile gid="0"/>
  <tile gid="0"/>
  <tile gid="0"/>
  <tile gid="0"/>
  <tile gid="0"/>
  <tile gid="0"/>
  <tile gid="0"/>
  <tile gid="0"/>
  <tile gid="0"/>
  <tile gid="0"/>
  <tile gid="0"/>
  <tile gid="0"/>
  <tile gid="0"/>
  <tile gid="0"/>
  <tile gid="0"/>
  <tile gid="0"/>
  <tile gid="0"/>
  <tile gid="0"/>
  <tile gid="0"/>
  <tile gid="0"/>
  <tile gid="0"/>
  <tile gid="0"/>
  <tile gid="0"/>
  <tile gid="0"/>
  <tile gid="0"/>
  <tile gid="0"/>
  <tile gid="0"/>
  <tile gid="0"/>
  <tile gid="0"/>
  <tile gid="0"/>
  <tile gid="0"/>
  <tile gid="0"/>
  <tile gid="0"/>
  <tile gid="0"/>
  <tile gid="0"/>
  <tile gid="0"/>
  <tile gid="0"/>
  <tile gid="0"/>
  <tile gid="0"/>
  <tile gid="0"/>
  <tile gid="0"/>
  <tile gid="0"/>
  <tile gid="0"/>
  <tile gid="0"/>
  <tile gid="0"/>
  <tile gid="0"/>
  <tile gid="0"/>
  <tile gid="0"/>
  <tile gid="0"/>
  <tile gid="0"/>
  <tile gid="0"/>
  <tile gid="0"/>
  <tile gid="0"/>
  <tile gid="0"/>
  <tile gid="0"/>
  <tile gid="0"/>
  <tile gid="0"/>
  <tile gid="0"/>
  <tile gid="0"/>
  <tile gid="0"/>
  <tile gid="0"/>
  <tile gid="0"/>
  <tile gid="0"/>
  <tile gid="0"/>
  <tile gid="0"/>
  <tile gid="0"/>
  <tile gid="0"/>
  <tile gid="0"/>
  <tile gid="0"/>
  <tile gid="0"/>
  <tile gid="0"/>
  <tile gid="0"/>
  <tile gid="0"/>
  <tile gid="0"/>
  <tile gid="0"/>
  <tile gid="0"/>
  <tile gid="0"/>
  <tile gid="0"/>
  <tile gid="0"/>
  <tile gid="0"/>
  <tile gid="0"/>
  <tile gid="0"/>
  <tile gid="0"/>
  <tile gid="0"/>
  <tile gid="0"/>
  <tile gid="0"/>
  <tile gid="0"/>
  <tile gid="0"/>
  <tile gid="0"/>
  <tile gid="0"/>
  <tile gid="0"/>
  <tile gid="0"/>
  <tile gid="0"/>
  <tile gid="0"/>
  <tile gid="0"/>
  <tile gid="0"/>
  <tile gid="0"/>
  <tile gid="0"/>
  <tile gid="0"/>
  <tile gid="0"/>
  <tile gid="0"/>
  <tile gid="0"/>
  <tile gid="0"/>
  <tile gid="0"/>
  <tile gid="0"/>
  <tile gid="0"/>
  <tile gid="0"/>
  <tile gid="0"/>
  <tile gid="0"/>
  <tile gid="0"/>
  <tile gid="0"/>
  <tile gid="0"/>
  <tile gid="0"/>
  <tile gid="0"/>
  <tile gid="0"/>
  <tile gid="0"/>
  <tile gid="0"/>
  <tile gid="0"/>
  <tile gid="0"/>
  <tile gid="0"/>
  <tile gid="0"/>
  <tile gid="0"/>
  <tile gid="0"/>
  <tile gid="0"/>
  <tile gid="0"/>
  <tile gid="0"/>
  <tile gid="0"/>
  <tile gid="0"/>
  <tile gid="0"/>
  <tile gid="0"/>
  <tile gid="0"/>
  <tile gid="0"/>
  <tile gid="0"/>
  <tile gid="0"/>
  <tile gid="0"/>
  <tile gid="0"/>
  <tile gid="0"/>
  <tile gid="0"/>
  <tile gid="0"/>
  <tile gid="0"/>
  <tile gid="0"/>
  <tile gid="0"/>
  <tile gid="0"/>
  <tile gid="0"/>
  <tile gid="0"/>
  <tile gid="0"/>
  <tile gid="0"/>
  <tile gid="0"/>
  <tile gid="0"/>
  <tile gid="0"/>
  <tile gid="0"/>
  <tile gid="0"/>
  <tile gid="0"/>
  <tile gid="0"/>
  <tile gid="0"/>
  <tile gid="0"/>
  <tile gid="0"/>
  <tile gid="0"/>
  <tile gid="0"/>
  <tile gid="0"/>
  <tile gid="0"/>
  <tile gid="0"/>
  <tile gid="0"/>
  <tile gid="0"/>
  <tile gid="0"/>
  <tile gid="0"/>
  <tile gid="0"/>
  <tile gid="0"/>
  <tile gid="0"/>
  <tile gid="0"/>
  <tile gid="0"/>
  <tile gid="0"/>
  <tile gid="0"/>
  <tile gid="0"/>
  <tile gid="0"/>
  <tile gid="0"/>
  <tile gid="0"/>
  <tile gid="0"/>
  <tile gid="0"/>
  <tile gid="0"/>
  <tile gid="0"/>
  <tile gid="0"/>
  <tile gid="0"/>
  <tile gid="0"/>
  <tile gid="0"/>
  <tile gid="0"/>
  <tile gid="0"/>
  <tile gid="0"/>
  <tile gid="0"/>
  <tile gid="0"/>
  <tile gid="0"/>
  <tile gid="0"/>
  <tile gid="0"/>
  <tile gid="0"/>
  <tile gid="0"/>
  <tile gid="0"/>
  <tile gid="0"/>
  <tile gid="0"/>
  <tile gid="0"/>
  <tile gid="0"/>
  <tile gid="0"/>
  <tile gid="0"/>
  <tile gid="0"/>
  <tile gid="0"/>
  <tile gid="0"/>
  <tile gid="0"/>
  <tile gid="0"/>
  <tile gid="0"/>
  <tile gid="0"/>
  <tile gid="0"/>
  <tile gid="0"/>
  <tile gid="0"/>
  <tile gid="0"/>
  <tile gid="0"/>
  <tile gid="0"/>
  <tile gid="0"/>
  <tile gid="0"/>
  <tile gid="0"/>
  <tile gid="0"/>
  <tile gid="0"/>
  <tile gid="0"/>
  <tile gid="0"/>
  <tile gid="0"/>
  <tile gid="0"/>
  <tile gid="0"/>
  <tile gid="0"/>
  <tile gid="0"/>
  <tile gid="0"/>
  <tile gid="0"/>
  <tile gid="0"/>
  <tile gid="0"/>
  <tile gid="0"/>
  <tile gid="0"/>
  <tile gid="0"/>
  <tile gid="0"/>
  <tile gid="0"/>
  <tile gid="0"/>
  <tile gid="0"/>
  <tile gid="0"/>
  <tile gid="0"/>
  <tile gid="0"/>
  <tile gid="0"/>
  <tile gid="0"/>
  <tile gid="0"/>
  <tile gid="0"/>
  <tile gid="0"/>
  <tile gid="0"/>
  <tile gid="0"/>
  <tile gid="0"/>
  <tile gid="0"/>
  <tile gid="0"/>
  <tile gid="0"/>
  <tile gid="0"/>
  <tile gid="0"/>
  <tile gid="0"/>
  <tile gid="0"/>
  <tile gid="0"/>
  <tile gid="0"/>
  <tile gid="0"/>
  <tile gid="0"/>
  <tile gid="0"/>
  <tile gid="0"/>
  <tile gid="0"/>
  <tile gid="0"/>
  <tile gid="0"/>
  <tile gid="0"/>
  <tile gid="0"/>
  <tile gid="0"/>
  <tile gid="0"/>
  <tile gid="0"/>
  <tile gid="0"/>
  <tile gid="0"/>
  <tile gid="0"/>
  <tile gid="0"/>
  <tile gid="0"/>
  <tile gid="0"/>
  <tile gid="0"/>
  <tile gid="0"/>
  <tile gid="0"/>
  <tile gid="0"/>
  <tile gid="0"/>
  <tile gid="0"/>
  <tile gid="0"/>
  <tile gid="0"/>
  <tile gid="0"/>
  <tile gid="0"/>
  <tile gid="0"/>
  <tile gid="0"/>
  <tile gid="0"/>
  <tile gid="0"/>
  <tile gid="0"/>
  <tile gid="0"/>
  <tile gid="0"/>
  <tile gid="0"/>
  <tile gid="0"/>
  <tile gid="0"/>
  <tile gid="0"/>
  <tile gid="0"/>
  <tile gid="0"/>
  <tile gid="0"/>
  <tile gid="0"/>
  <tile gid="0"/>
  <tile gid="0"/>
  <tile gid="0"/>
  <tile gid="0"/>
  <tile gid="0"/>
  <tile gid="0"/>
  <tile gid="0"/>
  <tile gid="0"/>
  <tile gid="0"/>
  <tile gid="0"/>
  <tile gid="0"/>
  <tile gid="0"/>
  <tile gid="0"/>
  <tile gid="0"/>
  <tile gid="0"/>
  <tile gid="0"/>
  <tile gid="0"/>
  <tile gid="0"/>
  <tile gid="0"/>
  <tile gid="0"/>
  <tile gid="0"/>
  <tile gid="0"/>
  <tile gid="0"/>
  <tile gid="0"/>
  <tile gid="0"/>
  <tile gid="0"/>
  <tile gid="0"/>
  <tile gid="0"/>
  <tile gid="0"/>
  <tile gid="0"/>
  <tile gid="0"/>
  <tile gid="0"/>
  <tile gid="0"/>
  <tile gid="0"/>
  <tile gid="0"/>
  <tile gid="0"/>
  <tile gid="0"/>
  <tile gid="0"/>
  <tile gid="0"/>
  <tile gid="0"/>
  <tile gid="0"/>
  <tile gid="0"/>
  <tile gid="0"/>
  <tile gid="0"/>
  <tile gid="0"/>
  <tile gid="0"/>
  <tile gid="0"/>
  <tile gid="0"/>
  <tile gid="0"/>
  <tile gid="0"/>
  <tile gid="0"/>
  <tile gid="0"/>
  <tile gid="0"/>
  <tile gid="0"/>
  <tile gid="0"/>
  <tile gid="0"/>
  <tile gid="0"/>
  <tile gid="0"/>
  <tile gid="0"/>
  <tile gid="0"/>
  <tile gid="0"/>
  <tile gid="0"/>
  <tile gid="0"/>
  <tile gid="0"/>
  <tile gid="0"/>
  <tile gid="0"/>
  <tile gid="0"/>
  <tile gid="0"/>
  <tile gid="0"/>
  <tile gid="0"/>
  <tile gid="0"/>
  <tile gid="0"/>
  <tile gid="0"/>
  <tile gid="0"/>
  <tile gid="0"/>
  <tile gid="0"/>
  <tile gid="0"/>
  <tile gid="0"/>
  <tile gid="0"/>
  <tile gid="0"/>
  <tile gid="0"/>
  <tile gid="0"/>
  <tile gid="0"/>
  <tile gid="0"/>
  <tile gid="0"/>
  <tile gid="0"/>
  <tile gid="0"/>
  <tile gid="0"/>
  <tile gid="0"/>
  <tile gid="0"/>
  <tile gid="0"/>
  <tile gid="0"/>
  <tile gid="0"/>
  <tile gid="0"/>
  <tile gid="0"/>
  <tile gid="0"/>
  <tile gid="0"/>
  <tile gid="0"/>
  <tile gid="0"/>
  <tile gid="0"/>
  <tile gid="0"/>
  <tile gid="0"/>
  <tile gid="0"/>
  <tile gid="0"/>
  <tile gid="0"/>
  <tile gid="0"/>
  <tile gid="0"/>
  <tile gid="0"/>
  <tile gid="0"/>
  <tile gid="0"/>
  <tile gid="0"/>
  <tile gid="0"/>
  <tile gid="0"/>
  <tile gid="0"/>
  <tile gid="0"/>
  <tile gid="0"/>
  <tile gid="0"/>
  <tile gid="0"/>
  <tile gid="0"/>
  <tile gid="0"/>
  <tile gid="0"/>
  <tile gid="0"/>
  <tile gid="0"/>
  <tile gid="0"/>
  <tile gid="0"/>
  <tile gid="0"/>
  <tile gid="0"/>
  <tile gid="0"/>
  <tile gid="0"/>
  <tile gid="0"/>
  <tile gid="0"/>
  <tile gid="0"/>
  <tile gid="0"/>
  <tile gid="0"/>
  <tile gid="0"/>
  <tile gid="0"/>
  <tile gid="0"/>
  <tile gid="0"/>
  <tile gid="0"/>
  <tile gid="0"/>
  <tile gid="0"/>
  <tile gid="0"/>
  <tile gid="0"/>
  <tile gid="0"/>
  <tile gid="0"/>
  <tile gid="0"/>
  <tile gid="0"/>
  <tile gid="0"/>
  <tile gid="0"/>
  <tile gid="0"/>
  <tile gid="0"/>
  <tile gid="0"/>
  <tile gid="0"/>
  <tile gid="0"/>
  <tile gid="0"/>
  <tile gid="0"/>
  <tile gid="0"/>
  <tile gid="0"/>
  <tile gid="0"/>
  <tile gid="0"/>
  <tile gid="0"/>
  <tile gid="0"/>
  <tile gid="0"/>
  <tile gid="0"/>
  <tile gid="0"/>
  <tile gid="0"/>
  <tile gid="0"/>
  <tile gid="0"/>
  <tile gid="0"/>
  <tile gid="0"/>
  <tile gid="0"/>
  <tile gid="0"/>
  <tile gid="0"/>
  <tile gid="0"/>
  <tile gid="0"/>
  <tile gid="0"/>
  <tile gid="0"/>
  <tile gid="0"/>
  </data>
 </layer>
 <layer name="Map Change 3" width="32" height="30">
  <properties>
   <property name="ID" value ="3"/>
   <property name="Height" value ="1"/>
   <property name="Width" value ="3"/>
   <property name="X" value ="26"/>
   <property name="Y" value ="18"/>
  </properties>
  <data>
  <tile gid="0"/>
  <tile gid="0"/>
  <tile gid="0"/>
  <tile gid="0"/>
  <tile gid="0"/>
  <tile gid="0"/>
  <tile gid="0"/>
  <tile gid="0"/>
  <tile gid="0"/>
  <tile gid="0"/>
  <tile gid="0"/>
  <tile gid="0"/>
  <tile gid="0"/>
  <tile gid="0"/>
  <tile gid="0"/>
  <tile gid="0"/>
  <tile gid="0"/>
  <tile gid="0"/>
  <tile gid="0"/>
  <tile gid="0"/>
  <tile gid="0"/>
  <tile gid="0"/>
  <tile gid="0"/>
  <tile gid="0"/>
  <tile gid="0"/>
  <tile gid="0"/>
  <tile gid="0"/>
  <tile gid="0"/>
  <tile gid="0"/>
  <tile gid="0"/>
  <tile gid="0"/>
  <tile gid="0"/>
  <tile gid="0"/>
  <tile gid="0"/>
  <tile gid="0"/>
  <tile gid="0"/>
  <tile gid="0"/>
  <tile gid="0"/>
  <tile gid="0"/>
  <tile gid="0"/>
  <tile gid="0"/>
  <tile gid="0"/>
  <tile gid="0"/>
  <tile gid="0"/>
  <tile gid="0"/>
  <tile gid="0"/>
  <tile gid="0"/>
  <tile gid="0"/>
  <tile gid="0"/>
  <tile gid="0"/>
  <tile gid="0"/>
  <tile gid="0"/>
  <tile gid="0"/>
  <tile gid="0"/>
  <tile gid="0"/>
  <tile gid="0"/>
  <tile gid="0"/>
  <tile gid="0"/>
  <tile gid="0"/>
  <tile gid="0"/>
  <tile gid="0"/>
  <tile gid="0"/>
  <tile gid="0"/>
  <tile gid="0"/>
  <tile gid="0"/>
  <tile gid="0"/>
  <tile gid="0"/>
  <tile gid="0"/>
  <tile gid="0"/>
  <tile gid="0"/>
  <tile gid="0"/>
  <tile gid="0"/>
  <tile gid="0"/>
  <tile gid="0"/>
  <tile gid="0"/>
  <tile gid="0"/>
  <tile gid="0"/>
  <tile gid="0"/>
  <tile gid="0"/>
  <tile gid="0"/>
  <tile gid="0"/>
  <tile gid="0"/>
  <tile gid="0"/>
  <tile gid="0"/>
  <tile gid="0"/>
  <tile gid="0"/>
  <tile gid="0"/>
  <tile gid="0"/>
  <tile gid="0"/>
  <tile gid="0"/>
  <tile gid="0"/>
  <tile gid="0"/>
  <tile gid="0"/>
  <tile gid="0"/>
  <tile gid="0"/>
  <tile gid="0"/>
  <tile gid="0"/>
  <tile gid="0"/>
  <tile gid="0"/>
  <tile gid="0"/>
  <tile gid="0"/>
  <tile gid="0"/>
  <tile gid="0"/>
  <tile gid="0"/>
  <tile gid="0"/>
  <tile gid="0"/>
  <tile gid="0"/>
  <tile gid="0"/>
  <tile gid="0"/>
  <tile gid="0"/>
  <tile gid="0"/>
  <tile gid="0"/>
  <tile gid="0"/>
  <tile gid="0"/>
  <tile gid="0"/>
  <tile gid="0"/>
  <tile gid="0"/>
  <tile gid="0"/>
  <tile gid="0"/>
  <tile gid="0"/>
  <tile gid="0"/>
  <tile gid="0"/>
  <tile gid="0"/>
  <tile gid="0"/>
  <tile gid="0"/>
  <tile gid="0"/>
  <tile gid="0"/>
  <tile gid="0"/>
  <tile gid="0"/>
  <tile gid="0"/>
  <tile gid="0"/>
  <tile gid="0"/>
  <tile gid="0"/>
  <tile gid="0"/>
  <tile gid="0"/>
  <tile gid="0"/>
  <tile gid="0"/>
  <tile gid="0"/>
  <tile gid="0"/>
  <tile gid="0"/>
  <tile gid="0"/>
  <tile gid="0"/>
  <tile gid="0"/>
  <tile gid="0"/>
  <tile gid="0"/>
  <tile gid="0"/>
  <tile gid="0"/>
  <tile gid="0"/>
  <tile gid="0"/>
  <tile gid="0"/>
  <tile gid="0"/>
  <tile gid="0"/>
  <tile gid="0"/>
  <tile gid="0"/>
  <tile gid="0"/>
  <tile gid="0"/>
  <tile gid="0"/>
  <tile gid="0"/>
  <tile gid="0"/>
  <tile gid="0"/>
  <tile gid="0"/>
  <tile gid="0"/>
  <tile gid="0"/>
  <tile gid="0"/>
  <tile gid="0"/>
  <tile gid="0"/>
  <tile gid="0"/>
  <tile gid="0"/>
  <tile gid="0"/>
  <tile gid="0"/>
  <tile gid="0"/>
  <tile gid="0"/>
  <tile gid="0"/>
  <tile gid="0"/>
  <tile gid="0"/>
  <tile gid="0"/>
  <tile gid="0"/>
  <tile gid="0"/>
  <tile gid="0"/>
  <tile gid="0"/>
  <tile gid="0"/>
  <tile gid="0"/>
  <tile gid="0"/>
  <tile gid="0"/>
  <tile gid="0"/>
  <tile gid="0"/>
  <tile gid="0"/>
  <tile gid="0"/>
  <tile gid="0"/>
  <tile gid="0"/>
  <tile gid="0"/>
  <tile gid="0"/>
  <tile gid="0"/>
  <tile gid="0"/>
  <tile gid="0"/>
  <tile gid="0"/>
  <tile gid="0"/>
  <tile gid="0"/>
  <tile gid="0"/>
  <tile gid="0"/>
  <tile gid="0"/>
  <tile gid="0"/>
  <tile gid="0"/>
  <tile gid="0"/>
  <tile gid="0"/>
  <tile gid="0"/>
  <tile gid="0"/>
  <tile gid="0"/>
  <tile gid="0"/>
  <tile gid="0"/>
  <tile gid="0"/>
  <tile gid="0"/>
  <tile gid="0"/>
  <tile gid="0"/>
  <tile gid="0"/>
  <tile gid="0"/>
  <tile gid="0"/>
  <tile gid="0"/>
  <tile gid="0"/>
  <tile gid="0"/>
  <tile gid="0"/>
  <tile gid="0"/>
  <tile gid="0"/>
  <tile gid="0"/>
  <tile gid="0"/>
  <tile gid="0"/>
  <tile gid="0"/>
  <tile gid="0"/>
  <tile gid="0"/>
  <tile gid="0"/>
  <tile gid="0"/>
  <tile gid="0"/>
  <tile gid="0"/>
  <tile gid="0"/>
  <tile gid="0"/>
  <tile gid="0"/>
  <tile gid="0"/>
  <tile gid="0"/>
  <tile gid="0"/>
  <tile gid="0"/>
  <tile gid="0"/>
  <tile gid="0"/>
  <tile gid="0"/>
  <tile gid="0"/>
  <tile gid="0"/>
  <tile gid="0"/>
  <tile gid="0"/>
  <tile gid="0"/>
  <tile gid="0"/>
  <tile gid="0"/>
  <tile gid="0"/>
  <tile gid="0"/>
  <tile gid="0"/>
  <tile gid="0"/>
  <tile gid="0"/>
  <tile gid="0"/>
  <tile gid="0"/>
  <tile gid="0"/>
  <tile gid="0"/>
  <tile gid="0"/>
  <tile gid="0"/>
  <tile gid="0"/>
  <tile gid="0"/>
  <tile gid="0"/>
  <tile gid="0"/>
  <tile gid="0"/>
  <tile gid="0"/>
  <tile gid="0"/>
  <tile gid="0"/>
  <tile gid="0"/>
  <tile gid="0"/>
  <tile gid="0"/>
  <tile gid="0"/>
  <tile gid="0"/>
  <tile gid="0"/>
  <tile gid="0"/>
  <tile gid="0"/>
  <tile gid="0"/>
  <tile gid="0"/>
  <tile gid="0"/>
  <tile gid="0"/>
  <tile gid="0"/>
  <tile gid="0"/>
  <tile gid="0"/>
  <tile gid="0"/>
  <tile gid="0"/>
  <tile gid="0"/>
  <tile gid="0"/>
  <tile gid="0"/>
  <tile gid="0"/>
  <tile gid="0"/>
  <tile gid="0"/>
  <tile gid="0"/>
  <tile gid="0"/>
  <tile gid="0"/>
  <tile gid="0"/>
  <tile gid="0"/>
  <tile gid="0"/>
  <tile gid="0"/>
  <tile gid="0"/>
  <tile gid="0"/>
  <tile gid="0"/>
  <tile gid="0"/>
  <tile gid="0"/>
  <tile gid="0"/>
  <tile gid="0"/>
  <tile gid="0"/>
  <tile gid="0"/>
  <tile gid="0"/>
  <tile gid="0"/>
  <tile gid="0"/>
  <tile gid="0"/>
  <tile gid="0"/>
  <tile gid="0"/>
  <tile gid="0"/>
  <tile gid="0"/>
  <tile gid="0"/>
  <tile gid="0"/>
  <tile gid="0"/>
  <tile gid="0"/>
  <tile gid="0"/>
  <tile gid="0"/>
  <tile gid="0"/>
  <tile gid="0"/>
  <tile gid="0"/>
  <tile gid="0"/>
  <tile gid="0"/>
  <tile gid="0"/>
  <tile gid="0"/>
  <tile gid="0"/>
  <tile gid="0"/>
  <tile gid="0"/>
  <tile gid="0"/>
  <tile gid="0"/>
  <tile gid="0"/>
  <tile gid="0"/>
  <tile gid="0"/>
  <tile gid="0"/>
  <tile gid="0"/>
  <tile gid="0"/>
  <tile gid="0"/>
  <tile gid="0"/>
  <tile gid="0"/>
  <tile gid="0"/>
  <tile gid="0"/>
  <tile gid="0"/>
  <tile gid="0"/>
  <tile gid="0"/>
  <tile gid="0"/>
  <tile gid="0"/>
  <tile gid="0"/>
  <tile gid="0"/>
  <tile gid="0"/>
  <tile gid="0"/>
  <tile gid="0"/>
  <tile gid="0"/>
  <tile gid="0"/>
  <tile gid="0"/>
  <tile gid="0"/>
  <tile gid="0"/>
  <tile gid="0"/>
  <tile gid="0"/>
  <tile gid="0"/>
  <tile gid="0"/>
  <tile gid="0"/>
  <tile gid="0"/>
  <tile gid="0"/>
  <tile gid="0"/>
  <tile gid="0"/>
  <tile gid="0"/>
  <tile gid="0"/>
  <tile gid="0"/>
  <tile gid="0"/>
  <tile gid="0"/>
  <tile gid="0"/>
  <tile gid="0"/>
  <tile gid="0"/>
  <tile gid="0"/>
  <tile gid="0"/>
  <tile gid="0"/>
  <tile gid="0"/>
  <tile gid="0"/>
  <tile gid="0"/>
  <tile gid="0"/>
  <tile gid="0"/>
  <tile gid="0"/>
  <tile gid="0"/>
  <tile gid="0"/>
  <tile gid="0"/>
  <tile gid="0"/>
  <tile gid="0"/>
  <tile gid="0"/>
  <tile gid="0"/>
  <tile gid="0"/>
  <tile gid="0"/>
  <tile gid="0"/>
  <tile gid="0"/>
  <tile gid="0"/>
  <tile gid="0"/>
  <tile gid="0"/>
  <tile gid="0"/>
  <tile gid="0"/>
  <tile gid="0"/>
  <tile gid="0"/>
  <tile gid="0"/>
  <tile gid="0"/>
  <tile gid="0"/>
  <tile gid="0"/>
  <tile gid="0"/>
  <tile gid="0"/>
  <tile gid="0"/>
  <tile gid="0"/>
  <tile gid="0"/>
  <tile gid="0"/>
  <tile gid="0"/>
  <tile gid="0"/>
  <tile gid="0"/>
  <tile gid="0"/>
  <tile gid="0"/>
  <tile gid="0"/>
  <tile gid="0"/>
  <tile gid="0"/>
  <tile gid="0"/>
  <tile gid="0"/>
  <tile gid="0"/>
  <tile gid="0"/>
  <tile gid="0"/>
  <tile gid="0"/>
  <tile gid="0"/>
  <tile gid="0"/>
  <tile gid="0"/>
  <tile gid="0"/>
  <tile gid="0"/>
  <tile gid="0"/>
  <tile gid="0"/>
  <tile gid="0"/>
  <tile gid="0"/>
  <tile gid="0"/>
  <tile gid="0"/>
  <tile gid="0"/>
  <tile gid="0"/>
  <tile gid="0"/>
  <tile gid="0"/>
  <tile gid="0"/>
  <tile gid="0"/>
  <tile gid="0"/>
  <tile gid="0"/>
  <tile gid="0"/>
  <tile gid="0"/>
  <tile gid="0"/>
  <tile gid="0"/>
  <tile gid="0"/>
  <tile gid="0"/>
  <tile gid="0"/>
  <tile gid="0"/>
  <tile gid="0"/>
  <tile gid="0"/>
  <tile gid="0"/>
  <tile gid="0"/>
  <tile gid="0"/>
  <tile gid="0"/>
  <tile gid="0"/>
  <tile gid="0"/>
  <tile gid="0"/>
  <tile gid="0"/>
  <tile gid="0"/>
  <tile gid="0"/>
  <tile gid="0"/>
  <tile gid="0"/>
  <tile gid="0"/>
  <tile gid="0"/>
  <tile gid="0"/>
  <tile gid="0"/>
  <tile gid="0"/>
  <tile gid="0"/>
  <tile gid="0"/>
  <tile gid="0"/>
  <tile gid="0"/>
  <tile gid="0"/>
  <tile gid="0"/>
  <tile gid="0"/>
  <tile gid="0"/>
  <tile gid="0"/>
  <tile gid="0"/>
  <tile gid="0"/>
  <tile gid="0"/>
  <tile gid="0"/>
  <tile gid="0"/>
  <tile gid="0"/>
  <tile gid="0"/>
  <tile gid="0"/>
  <tile gid="0"/>
  <tile gid="0"/>
  <tile gid="0"/>
  <tile gid="0"/>
  <tile gid="0"/>
  <tile gid="0"/>
  <tile gid="0"/>
  <tile gid="0"/>
  <tile gid="0"/>
  <tile gid="0"/>
  <tile gid="0"/>
  <tile gid="0"/>
  <tile gid="0"/>
  <tile gid="0"/>
  <tile gid="0"/>
  <tile gid="0"/>
  <tile gid="0"/>
  <tile gid="0"/>
  <tile gid="0"/>
  <tile gid="0"/>
  <tile gid="0"/>
  <tile gid="0"/>
  <tile gid="0"/>
  <tile gid="0"/>
  <tile gid="0"/>
  <tile gid="0"/>
  <tile gid="0"/>
  <tile gid="0"/>
  <tile gid="0"/>
  <tile gid="0"/>
  <tile gid="0"/>
  <tile gid="0"/>
  <tile gid="0"/>
  <tile gid="0"/>
  <tile gid="0"/>
  <tile gid="0"/>
  <tile gid="0"/>
  <tile gid="0"/>
  <tile gid="0"/>
  <tile gid="0"/>
  <tile gid="0"/>
  <tile gid="0"/>
  <tile gid="0"/>
  <tile gid="0"/>
  <tile gid="0"/>
  <tile gid="0"/>
  <tile gid="0"/>
  <tile gid="0"/>
  <tile gid="0"/>
  <tile gid="0"/>
  <tile gid="0"/>
  <tile gid="0"/>
  <tile gid="0"/>
  <tile gid="0"/>
  <tile gid="0"/>
  <tile gid="0"/>
  <tile gid="0"/>
  <tile gid="0"/>
  <tile gid="0"/>
  <tile gid="0"/>
  <tile gid="0"/>
  <tile gid="0"/>
  <tile gid="0"/>
  <tile gid="0"/>
  <tile gid="0"/>
  <tile gid="0"/>
  <tile gid="0"/>
  <tile gid="0"/>
  <tile gid="0"/>
  <tile gid="0"/>
  <tile gid="0"/>
  <tile gid="0"/>
  <tile gid="0"/>
  <tile gid="0"/>
  <tile gid="0"/>
  <tile gid="0"/>
  <tile gid="0"/>
  <tile gid="0"/>
  <tile gid="0"/>
  <tile gid="0"/>
  <tile gid="0"/>
  <tile gid="0"/>
  <tile gid="0"/>
  <tile gid="0"/>
  <tile gid="0"/>
  <tile gid="0"/>
  <tile gid="0"/>
  <tile gid="0"/>
  <tile gid="0"/>
  <tile gid="0"/>
  <tile gid="0"/>
  <tile gid="0"/>
  <tile gid="0"/>
  <tile gid="0"/>
  <tile gid="0"/>
  <tile gid="0"/>
  <tile gid="0"/>
  <tile gid="0"/>
  <tile gid="0"/>
  <tile gid="0"/>
  <tile gid="0"/>
  <tile gid="0"/>
  <tile gid="0"/>
  <tile gid="0"/>
  <tile gid="0"/>
  <tile gid="0"/>
  <tile gid="0"/>
  <tile gid="0"/>
  <tile gid="0"/>
  <tile gid="0"/>
  <tile gid="0"/>
  <tile gid="709"/>
  <tile gid="421"/>
  <tile gid="709"/>
  <tile gid="0"/>
  <tile gid="0"/>
  <tile gid="0"/>
  <tile gid="0"/>
  <tile gid="0"/>
  <tile gid="0"/>
  <tile gid="0"/>
  <tile gid="0"/>
  <tile gid="0"/>
  <tile gid="0"/>
  <tile gid="0"/>
  <tile gid="0"/>
  <tile gid="0"/>
  <tile gid="0"/>
  <tile gid="0"/>
  <tile gid="0"/>
  <tile gid="0"/>
  <tile gid="0"/>
  <tile gid="0"/>
  <tile gid="0"/>
  <tile gid="0"/>
  <tile gid="0"/>
  <tile gid="0"/>
  <tile gid="0"/>
  <tile gid="0"/>
  <tile gid="0"/>
  <tile gid="0"/>
  <tile gid="0"/>
  <tile gid="0"/>
  <tile gid="0"/>
  <tile gid="0"/>
  <tile gid="0"/>
  <tile gid="0"/>
  <tile gid="0"/>
  <tile gid="0"/>
  <tile gid="0"/>
  <tile gid="0"/>
  <tile gid="0"/>
  <tile gid="0"/>
  <tile gid="0"/>
  <tile gid="0"/>
  <tile gid="0"/>
  <tile gid="0"/>
  <tile gid="0"/>
  <tile gid="0"/>
  <tile gid="0"/>
  <tile gid="0"/>
  <tile gid="0"/>
  <tile gid="0"/>
  <tile gid="0"/>
  <tile gid="0"/>
  <tile gid="0"/>
  <tile gid="0"/>
  <tile gid="0"/>
  <tile gid="0"/>
  <tile gid="0"/>
  <tile gid="0"/>
  <tile gid="0"/>
  <tile gid="0"/>
  <tile gid="0"/>
  <tile gid="0"/>
  <tile gid="0"/>
  <tile gid="0"/>
  <tile gid="0"/>
  <tile gid="0"/>
  <tile gid="0"/>
  <tile gid="0"/>
  <tile gid="0"/>
  <tile gid="0"/>
  <tile gid="0"/>
  <tile gid="0"/>
  <tile gid="0"/>
  <tile gid="0"/>
  <tile gid="0"/>
  <tile gid="0"/>
  <tile gid="0"/>
  <tile gid="0"/>
  <tile gid="0"/>
  <tile gid="0"/>
  <tile gid="0"/>
  <tile gid="0"/>
  <tile gid="0"/>
  <tile gid="0"/>
  <tile gid="0"/>
  <tile gid="0"/>
  <tile gid="0"/>
  <tile gid="0"/>
  <tile gid="0"/>
  <tile gid="0"/>
  <tile gid="0"/>
  <tile gid="0"/>
  <tile gid="0"/>
  <tile gid="0"/>
  <tile gid="0"/>
  <tile gid="0"/>
  <tile gid="0"/>
  <tile gid="0"/>
  <tile gid="0"/>
  <tile gid="0"/>
  <tile gid="0"/>
  <tile gid="0"/>
  <tile gid="0"/>
  <tile gid="0"/>
  <tile gid="0"/>
  <tile gid="0"/>
  <tile gid="0"/>
  <tile gid="0"/>
  <tile gid="0"/>
  <tile gid="0"/>
  <tile gid="0"/>
  <tile gid="0"/>
  <tile gid="0"/>
  <tile gid="0"/>
  <tile gid="0"/>
  <tile gid="0"/>
  <tile gid="0"/>
  <tile gid="0"/>
  <tile gid="0"/>
  <tile gid="0"/>
  <tile gid="0"/>
  <tile gid="0"/>
  <tile gid="0"/>
  <tile gid="0"/>
  <tile gid="0"/>
  <tile gid="0"/>
  <tile gid="0"/>
  <tile gid="0"/>
  <tile gid="0"/>
  <tile gid="0"/>
  <tile gid="0"/>
  <tile gid="0"/>
  <tile gid="0"/>
  <tile gid="0"/>
  <tile gid="0"/>
  <tile gid="0"/>
  <tile gid="0"/>
  <tile gid="0"/>
  <tile gid="0"/>
  <tile gid="0"/>
  <tile gid="0"/>
  <tile gid="0"/>
  <tile gid="0"/>
  <tile gid="0"/>
  <tile gid="0"/>
  <tile gid="0"/>
  <tile gid="0"/>
  <tile gid="0"/>
  <tile gid="0"/>
  <tile gid="0"/>
  <tile gid="0"/>
  <tile gid="0"/>
  <tile gid="0"/>
  <tile gid="0"/>
  <tile gid="0"/>
  <tile gid="0"/>
  <tile gid="0"/>
  <tile gid="0"/>
  <tile gid="0"/>
  <tile gid="0"/>
  <tile gid="0"/>
  <tile gid="0"/>
  <tile gid="0"/>
  <tile gid="0"/>
  <tile gid="0"/>
  <tile gid="0"/>
  <tile gid="0"/>
  <tile gid="0"/>
  <tile gid="0"/>
  <tile gid="0"/>
  <tile gid="0"/>
  <tile gid="0"/>
  <tile gid="0"/>
  <tile gid="0"/>
  <tile gid="0"/>
  <tile gid="0"/>
  <tile gid="0"/>
  <tile gid="0"/>
  <tile gid="0"/>
  <tile gid="0"/>
  <tile gid="0"/>
  <tile gid="0"/>
  <tile gid="0"/>
  <tile gid="0"/>
  <tile gid="0"/>
  <tile gid="0"/>
  <tile gid="0"/>
  <tile gid="0"/>
  <tile gid="0"/>
  <tile gid="0"/>
  <tile gid="0"/>
  <tile gid="0"/>
  <tile gid="0"/>
  <tile gid="0"/>
  <tile gid="0"/>
  <tile gid="0"/>
  <tile gid="0"/>
  <tile gid="0"/>
  <tile gid="0"/>
  <tile gid="0"/>
  <tile gid="0"/>
  <tile gid="0"/>
  <tile gid="0"/>
  <tile gid="0"/>
  <tile gid="0"/>
  <tile gid="0"/>
  <tile gid="0"/>
  <tile gid="0"/>
  <tile gid="0"/>
  <tile gid="0"/>
  <tile gid="0"/>
  <tile gid="0"/>
  <tile gid="0"/>
  <tile gid="0"/>
  <tile gid="0"/>
  <tile gid="0"/>
  <tile gid="0"/>
  <tile gid="0"/>
  <tile gid="0"/>
  <tile gid="0"/>
  <tile gid="0"/>
  <tile gid="0"/>
  <tile gid="0"/>
  <tile gid="0"/>
  <tile gid="0"/>
  <tile gid="0"/>
  <tile gid="0"/>
  <tile gid="0"/>
  <tile gid="0"/>
  <tile gid="0"/>
  <tile gid="0"/>
  <tile gid="0"/>
  <tile gid="0"/>
  <tile gid="0"/>
  <tile gid="0"/>
  <tile gid="0"/>
  <tile gid="0"/>
  <tile gid="0"/>
  <tile gid="0"/>
  <tile gid="0"/>
  <tile gid="0"/>
  <tile gid="0"/>
  <tile gid="0"/>
  <tile gid="0"/>
  <tile gid="0"/>
  <tile gid="0"/>
  <tile gid="0"/>
  <tile gid="0"/>
  <tile gid="0"/>
  <tile gid="0"/>
  <tile gid="0"/>
  <tile gid="0"/>
  <tile gid="0"/>
  <tile gid="0"/>
  <tile gid="0"/>
  <tile gid="0"/>
  <tile gid="0"/>
  <tile gid="0"/>
  <tile gid="0"/>
  <tile gid="0"/>
  <tile gid="0"/>
  <tile gid="0"/>
  <tile gid="0"/>
  <tile gid="0"/>
  <tile gid="0"/>
  <tile gid="0"/>
  <tile gid="0"/>
  <tile gid="0"/>
  <tile gid="0"/>
  <tile gid="0"/>
  <tile gid="0"/>
  <tile gid="0"/>
  <tile gid="0"/>
  <tile gid="0"/>
  <tile gid="0"/>
  <tile gid="0"/>
  <tile gid="0"/>
  <tile gid="0"/>
  <tile gid="0"/>
  <tile gid="0"/>
  <tile gid="0"/>
  <tile gid="0"/>
  <tile gid="0"/>
  <tile gid="0"/>
  <tile gid="0"/>
  <tile gid="0"/>
  <tile gid="0"/>
  <tile gid="0"/>
  <tile gid="0"/>
  <tile gid="0"/>
  <tile gid="0"/>
  <tile gid="0"/>
  <tile gid="0"/>
  <tile gid="0"/>
  <tile gid="0"/>
  <tile gid="0"/>
  <tile gid="0"/>
  <tile gid="0"/>
  <tile gid="0"/>
  <tile gid="0"/>
  <tile gid="0"/>
  <tile gid="0"/>
  <tile gid="0"/>
  <tile gid="0"/>
  <tile gid="0"/>
  <tile gid="0"/>
  <tile gid="0"/>
  <tile gid="0"/>
  <tile gid="0"/>
  <tile gid="0"/>
  <tile gid="0"/>
  <tile gid="0"/>
  <tile gid="0"/>
  <tile gid="0"/>
  <tile gid="0"/>
  <tile gid="0"/>
  <tile gid="0"/>
  <tile gid="0"/>
  <tile gid="0"/>
  <tile gid="0"/>
  <tile gid="0"/>
  <tile gid="0"/>
  <tile gid="0"/>
  <tile gid="0"/>
  <tile gid="0"/>
  <tile gid="0"/>
  <tile gid="0"/>
  <tile gid="0"/>
  <tile gid="0"/>
  <tile gid="0"/>
  <tile gid="0"/>
  <tile gid="0"/>
  <tile gid="0"/>
  <tile gid="0"/>
  <tile gid="0"/>
  <tile gid="0"/>
  <tile gid="0"/>
  <tile gid="0"/>
  <tile gid="0"/>
  <tile gid="0"/>
  <tile gid="0"/>
  <tile gid="0"/>
  <tile gid="0"/>
  <tile gid="0"/>
  <tile gid="0"/>
  <tile gid="0"/>
  <tile gid="0"/>
  <tile gid="0"/>
  <tile gid="0"/>
  <tile gid="0"/>
  <tile gid="0"/>
  <tile gid="0"/>
  <tile gid="0"/>
  <tile gid="0"/>
  <tile gid="0"/>
  <tile gid="0"/>
  </data>
 </layer>
 <layer name="Map Change 4" width="32" height="30">
  <properties>
   <property name="ID" value ="4"/>
   <property name="Height" value ="1"/>
   <property name="Width" value ="1"/>
   <property name="X" value ="14"/>
   <property name="Y" value ="9"/>
  </properties>
  <data>
  <tile gid="0"/>
  <tile gid="0"/>
  <tile gid="0"/>
  <tile gid="0"/>
  <tile gid="0"/>
  <tile gid="0"/>
  <tile gid="0"/>
  <tile gid="0"/>
  <tile gid="0"/>
  <tile gid="0"/>
  <tile gid="0"/>
  <tile gid="0"/>
  <tile gid="0"/>
  <tile gid="0"/>
  <tile gid="0"/>
  <tile gid="0"/>
  <tile gid="0"/>
  <tile gid="0"/>
  <tile gid="0"/>
  <tile gid="0"/>
  <tile gid="0"/>
  <tile gid="0"/>
  <tile gid="0"/>
  <tile gid="0"/>
  <tile gid="0"/>
  <tile gid="0"/>
  <tile gid="0"/>
  <tile gid="0"/>
  <tile gid="0"/>
  <tile gid="0"/>
  <tile gid="0"/>
  <tile gid="0"/>
  <tile gid="0"/>
  <tile gid="0"/>
  <tile gid="0"/>
  <tile gid="0"/>
  <tile gid="0"/>
  <tile gid="0"/>
  <tile gid="0"/>
  <tile gid="0"/>
  <tile gid="0"/>
  <tile gid="0"/>
  <tile gid="0"/>
  <tile gid="0"/>
  <tile gid="0"/>
  <tile gid="0"/>
  <tile gid="0"/>
  <tile gid="0"/>
  <tile gid="0"/>
  <tile gid="0"/>
  <tile gid="0"/>
  <tile gid="0"/>
  <tile gid="0"/>
  <tile gid="0"/>
  <tile gid="0"/>
  <tile gid="0"/>
  <tile gid="0"/>
  <tile gid="0"/>
  <tile gid="0"/>
  <tile gid="0"/>
  <tile gid="0"/>
  <tile gid="0"/>
  <tile gid="0"/>
  <tile gid="0"/>
  <tile gid="0"/>
  <tile gid="0"/>
  <tile gid="0"/>
  <tile gid="0"/>
  <tile gid="0"/>
  <tile gid="0"/>
  <tile gid="0"/>
  <tile gid="0"/>
  <tile gid="0"/>
  <tile gid="0"/>
  <tile gid="0"/>
  <tile gid="0"/>
  <tile gid="0"/>
  <tile gid="0"/>
  <tile gid="0"/>
  <tile gid="0"/>
  <tile gid="0"/>
  <tile gid="0"/>
  <tile gid="0"/>
  <tile gid="0"/>
  <tile gid="0"/>
  <tile gid="0"/>
  <tile gid="0"/>
  <tile gid="0"/>
  <tile gid="0"/>
  <tile gid="0"/>
  <tile gid="0"/>
  <tile gid="0"/>
  <tile gid="0"/>
  <tile gid="0"/>
  <tile gid="0"/>
  <tile gid="0"/>
  <tile gid="0"/>
  <tile gid="0"/>
  <tile gid="0"/>
  <tile gid="0"/>
  <tile gid="0"/>
  <tile gid="0"/>
  <tile gid="0"/>
  <tile gid="0"/>
  <tile gid="0"/>
  <tile gid="0"/>
  <tile gid="0"/>
  <tile gid="0"/>
  <tile gid="0"/>
  <tile gid="0"/>
  <tile gid="0"/>
  <tile gid="0"/>
  <tile gid="0"/>
  <tile gid="0"/>
  <tile gid="0"/>
  <tile gid="0"/>
  <tile gid="0"/>
  <tile gid="0"/>
  <tile gid="0"/>
  <tile gid="0"/>
  <tile gid="0"/>
  <tile gid="0"/>
  <tile gid="0"/>
  <tile gid="0"/>
  <tile gid="0"/>
  <tile gid="0"/>
  <tile gid="0"/>
  <tile gid="0"/>
  <tile gid="0"/>
  <tile gid="0"/>
  <tile gid="0"/>
  <tile gid="0"/>
  <tile gid="0"/>
  <tile gid="0"/>
  <tile gid="0"/>
  <tile gid="0"/>
  <tile gid="0"/>
  <tile gid="0"/>
  <tile gid="0"/>
  <tile gid="0"/>
  <tile gid="0"/>
  <tile gid="0"/>
  <tile gid="0"/>
  <tile gid="0"/>
  <tile gid="0"/>
  <tile gid="0"/>
  <tile gid="0"/>
  <tile gid="0"/>
  <tile gid="0"/>
  <tile gid="0"/>
  <tile gid="0"/>
  <tile gid="0"/>
  <tile gid="0"/>
  <tile gid="0"/>
  <tile gid="0"/>
  <tile gid="0"/>
  <tile gid="0"/>
  <tile gid="0"/>
  <tile gid="0"/>
  <tile gid="0"/>
  <tile gid="0"/>
  <tile gid="0"/>
  <tile gid="0"/>
  <tile gid="0"/>
  <tile gid="0"/>
  <tile gid="0"/>
  <tile gid="0"/>
  <tile gid="0"/>
  <tile gid="0"/>
  <tile gid="0"/>
  <tile gid="0"/>
  <tile gid="0"/>
  <tile gid="0"/>
  <tile gid="0"/>
  <tile gid="0"/>
  <tile gid="0"/>
  <tile gid="0"/>
  <tile gid="0"/>
  <tile gid="0"/>
  <tile gid="0"/>
  <tile gid="0"/>
  <tile gid="0"/>
  <tile gid="0"/>
  <tile gid="0"/>
  <tile gid="0"/>
  <tile gid="0"/>
  <tile gid="0"/>
  <tile gid="0"/>
  <tile gid="0"/>
  <tile gid="0"/>
  <tile gid="0"/>
  <tile gid="0"/>
  <tile gid="0"/>
  <tile gid="0"/>
  <tile gid="0"/>
  <tile gid="0"/>
  <tile gid="0"/>
  <tile gid="0"/>
  <tile gid="0"/>
  <tile gid="0"/>
  <tile gid="0"/>
  <tile gid="0"/>
  <tile gid="0"/>
  <tile gid="0"/>
  <tile gid="0"/>
  <tile gid="0"/>
  <tile gid="0"/>
  <tile gid="0"/>
  <tile gid="0"/>
  <tile gid="0"/>
  <tile gid="0"/>
  <tile gid="0"/>
  <tile gid="0"/>
  <tile gid="0"/>
  <tile gid="0"/>
  <tile gid="0"/>
  <tile gid="0"/>
  <tile gid="0"/>
  <tile gid="0"/>
  <tile gid="0"/>
  <tile gid="0"/>
  <tile gid="0"/>
  <tile gid="0"/>
  <tile gid="0"/>
  <tile gid="0"/>
  <tile gid="0"/>
  <tile gid="0"/>
  <tile gid="0"/>
  <tile gid="0"/>
  <tile gid="0"/>
  <tile gid="0"/>
  <tile gid="0"/>
  <tile gid="0"/>
  <tile gid="0"/>
  <tile gid="0"/>
  <tile gid="0"/>
  <tile gid="0"/>
  <tile gid="0"/>
  <tile gid="0"/>
  <tile gid="0"/>
  <tile gid="0"/>
  <tile gid="0"/>
  <tile gid="0"/>
  <tile gid="0"/>
  <tile gid="0"/>
  <tile gid="0"/>
  <tile gid="0"/>
  <tile gid="0"/>
  <tile gid="0"/>
  <tile gid="0"/>
  <tile gid="0"/>
  <tile gid="0"/>
  <tile gid="0"/>
  <tile gid="0"/>
  <tile gid="0"/>
  <tile gid="0"/>
  <tile gid="0"/>
  <tile gid="0"/>
  <tile gid="0"/>
  <tile gid="0"/>
  <tile gid="0"/>
  <tile gid="0"/>
  <tile gid="0"/>
  <tile gid="0"/>
  <tile gid="0"/>
  <tile gid="0"/>
  <tile gid="0"/>
  <tile gid="0"/>
  <tile gid="0"/>
  <tile gid="0"/>
  <tile gid="0"/>
  <tile gid="0"/>
  <tile gid="0"/>
  <tile gid="0"/>
  <tile gid="0"/>
  <tile gid="0"/>
  <tile gid="0"/>
  <tile gid="0"/>
  <tile gid="0"/>
  <tile gid="0"/>
  <tile gid="0"/>
  <tile gid="0"/>
  <tile gid="0"/>
  <tile gid="0"/>
  <tile gid="0"/>
  <tile gid="0"/>
  <tile gid="0"/>
  <tile gid="0"/>
  <tile gid="0"/>
  <tile gid="0"/>
  <tile gid="0"/>
  <tile gid="0"/>
  <tile gid="0"/>
  <tile gid="0"/>
  <tile gid="0"/>
  <tile gid="0"/>
  <tile gid="0"/>
  <tile gid="0"/>
  <tile gid="0"/>
  <tile gid="0"/>
  <tile gid="0"/>
  <tile gid="0"/>
  <tile gid="65"/>
  <tile gid="0"/>
  <tile gid="0"/>
  <tile gid="0"/>
  <tile gid="0"/>
  <tile gid="0"/>
  <tile gid="0"/>
  <tile gid="0"/>
  <tile gid="0"/>
  <tile gid="0"/>
  <tile gid="0"/>
  <tile gid="0"/>
  <tile gid="0"/>
  <tile gid="0"/>
  <tile gid="0"/>
  <tile gid="0"/>
  <tile gid="0"/>
  <tile gid="0"/>
  <tile gid="0"/>
  <tile gid="0"/>
  <tile gid="0"/>
  <tile gid="0"/>
  <tile gid="0"/>
  <tile gid="0"/>
  <tile gid="0"/>
  <tile gid="0"/>
  <tile gid="0"/>
  <tile gid="0"/>
  <tile gid="0"/>
  <tile gid="0"/>
  <tile gid="0"/>
  <tile gid="0"/>
  <tile gid="0"/>
  <tile gid="0"/>
  <tile gid="0"/>
  <tile gid="0"/>
  <tile gid="0"/>
  <tile gid="0"/>
  <tile gid="0"/>
  <tile gid="0"/>
  <tile gid="0"/>
  <tile gid="0"/>
  <tile gid="0"/>
  <tile gid="0"/>
  <tile gid="0"/>
  <tile gid="0"/>
  <tile gid="0"/>
  <tile gid="0"/>
  <tile gid="0"/>
  <tile gid="0"/>
  <tile gid="0"/>
  <tile gid="0"/>
  <tile gid="0"/>
  <tile gid="0"/>
  <tile gid="0"/>
  <tile gid="0"/>
  <tile gid="0"/>
  <tile gid="0"/>
  <tile gid="0"/>
  <tile gid="0"/>
  <tile gid="0"/>
  <tile gid="0"/>
  <tile gid="0"/>
  <tile gid="0"/>
  <tile gid="0"/>
  <tile gid="0"/>
  <tile gid="0"/>
  <tile gid="0"/>
  <tile gid="0"/>
  <tile gid="0"/>
  <tile gid="0"/>
  <tile gid="0"/>
  <tile gid="0"/>
  <tile gid="0"/>
  <tile gid="0"/>
  <tile gid="0"/>
  <tile gid="0"/>
  <tile gid="0"/>
  <tile gid="0"/>
  <tile gid="0"/>
  <tile gid="0"/>
  <tile gid="0"/>
  <tile gid="0"/>
  <tile gid="0"/>
  <tile gid="0"/>
  <tile gid="0"/>
  <tile gid="0"/>
  <tile gid="0"/>
  <tile gid="0"/>
  <tile gid="0"/>
  <tile gid="0"/>
  <tile gid="0"/>
  <tile gid="0"/>
  <tile gid="0"/>
  <tile gid="0"/>
  <tile gid="0"/>
  <tile gid="0"/>
  <tile gid="0"/>
  <tile gid="0"/>
  <tile gid="0"/>
  <tile gid="0"/>
  <tile gid="0"/>
  <tile gid="0"/>
  <tile gid="0"/>
  <tile gid="0"/>
  <tile gid="0"/>
  <tile gid="0"/>
  <tile gid="0"/>
  <tile gid="0"/>
  <tile gid="0"/>
  <tile gid="0"/>
  <tile gid="0"/>
  <tile gid="0"/>
  <tile gid="0"/>
  <tile gid="0"/>
  <tile gid="0"/>
  <tile gid="0"/>
  <tile gid="0"/>
  <tile gid="0"/>
  <tile gid="0"/>
  <tile gid="0"/>
  <tile gid="0"/>
  <tile gid="0"/>
  <tile gid="0"/>
  <tile gid="0"/>
  <tile gid="0"/>
  <tile gid="0"/>
  <tile gid="0"/>
  <tile gid="0"/>
  <tile gid="0"/>
  <tile gid="0"/>
  <tile gid="0"/>
  <tile gid="0"/>
  <tile gid="0"/>
  <tile gid="0"/>
  <tile gid="0"/>
  <tile gid="0"/>
  <tile gid="0"/>
  <tile gid="0"/>
  <tile gid="0"/>
  <tile gid="0"/>
  <tile gid="0"/>
  <tile gid="0"/>
  <tile gid="0"/>
  <tile gid="0"/>
  <tile gid="0"/>
  <tile gid="0"/>
  <tile gid="0"/>
  <tile gid="0"/>
  <tile gid="0"/>
  <tile gid="0"/>
  <tile gid="0"/>
  <tile gid="0"/>
  <tile gid="0"/>
  <tile gid="0"/>
  <tile gid="0"/>
  <tile gid="0"/>
  <tile gid="0"/>
  <tile gid="0"/>
  <tile gid="0"/>
  <tile gid="0"/>
  <tile gid="0"/>
  <tile gid="0"/>
  <tile gid="0"/>
  <tile gid="0"/>
  <tile gid="0"/>
  <tile gid="0"/>
  <tile gid="0"/>
  <tile gid="0"/>
  <tile gid="0"/>
  <tile gid="0"/>
  <tile gid="0"/>
  <tile gid="0"/>
  <tile gid="0"/>
  <tile gid="0"/>
  <tile gid="0"/>
  <tile gid="0"/>
  <tile gid="0"/>
  <tile gid="0"/>
  <tile gid="0"/>
  <tile gid="0"/>
  <tile gid="0"/>
  <tile gid="0"/>
  <tile gid="0"/>
  <tile gid="0"/>
  <tile gid="0"/>
  <tile gid="0"/>
  <tile gid="0"/>
  <tile gid="0"/>
  <tile gid="0"/>
  <tile gid="0"/>
  <tile gid="0"/>
  <tile gid="0"/>
  <tile gid="0"/>
  <tile gid="0"/>
  <tile gid="0"/>
  <tile gid="0"/>
  <tile gid="0"/>
  <tile gid="0"/>
  <tile gid="0"/>
  <tile gid="0"/>
  <tile gid="0"/>
  <tile gid="0"/>
  <tile gid="0"/>
  <tile gid="0"/>
  <tile gid="0"/>
  <tile gid="0"/>
  <tile gid="0"/>
  <tile gid="0"/>
  <tile gid="0"/>
  <tile gid="0"/>
  <tile gid="0"/>
  <tile gid="0"/>
  <tile gid="0"/>
  <tile gid="0"/>
  <tile gid="0"/>
  <tile gid="0"/>
  <tile gid="0"/>
  <tile gid="0"/>
  <tile gid="0"/>
  <tile gid="0"/>
  <tile gid="0"/>
  <tile gid="0"/>
  <tile gid="0"/>
  <tile gid="0"/>
  <tile gid="0"/>
  <tile gid="0"/>
  <tile gid="0"/>
  <tile gid="0"/>
  <tile gid="0"/>
  <tile gid="0"/>
  <tile gid="0"/>
  <tile gid="0"/>
  <tile gid="0"/>
  <tile gid="0"/>
  <tile gid="0"/>
  <tile gid="0"/>
  <tile gid="0"/>
  <tile gid="0"/>
  <tile gid="0"/>
  <tile gid="0"/>
  <tile gid="0"/>
  <tile gid="0"/>
  <tile gid="0"/>
  <tile gid="0"/>
  <tile gid="0"/>
  <tile gid="0"/>
  <tile gid="0"/>
  <tile gid="0"/>
  <tile gid="0"/>
  <tile gid="0"/>
  <tile gid="0"/>
  <tile gid="0"/>
  <tile gid="0"/>
  <tile gid="0"/>
  <tile gid="0"/>
  <tile gid="0"/>
  <tile gid="0"/>
  <tile gid="0"/>
  <tile gid="0"/>
  <tile gid="0"/>
  <tile gid="0"/>
  <tile gid="0"/>
  <tile gid="0"/>
  <tile gid="0"/>
  <tile gid="0"/>
  <tile gid="0"/>
  <tile gid="0"/>
  <tile gid="0"/>
  <tile gid="0"/>
  <tile gid="0"/>
  <tile gid="0"/>
  <tile gid="0"/>
  <tile gid="0"/>
  <tile gid="0"/>
  <tile gid="0"/>
  <tile gid="0"/>
  <tile gid="0"/>
  <tile gid="0"/>
  <tile gid="0"/>
  <tile gid="0"/>
  <tile gid="0"/>
  <tile gid="0"/>
  <tile gid="0"/>
  <tile gid="0"/>
  <tile gid="0"/>
  <tile gid="0"/>
  <tile gid="0"/>
  <tile gid="0"/>
  <tile gid="0"/>
  <tile gid="0"/>
  <tile gid="0"/>
  <tile gid="0"/>
  <tile gid="0"/>
  <tile gid="0"/>
  <tile gid="0"/>
  <tile gid="0"/>
  <tile gid="0"/>
  <tile gid="0"/>
  <tile gid="0"/>
  <tile gid="0"/>
  <tile gid="0"/>
  <tile gid="0"/>
  <tile gid="0"/>
  <tile gid="0"/>
  <tile gid="0"/>
  <tile gid="0"/>
  <tile gid="0"/>
  <tile gid="0"/>
  <tile gid="0"/>
  <tile gid="0"/>
  <tile gid="0"/>
  <tile gid="0"/>
  <tile gid="0"/>
  <tile gid="0"/>
  <tile gid="0"/>
  <tile gid="0"/>
  <tile gid="0"/>
  <tile gid="0"/>
  <tile gid="0"/>
  <tile gid="0"/>
  <tile gid="0"/>
  <tile gid="0"/>
  <tile gid="0"/>
  <tile gid="0"/>
  <tile gid="0"/>
  <tile gid="0"/>
  <tile gid="0"/>
  <tile gid="0"/>
  <tile gid="0"/>
  <tile gid="0"/>
  <tile gid="0"/>
  <tile gid="0"/>
  <tile gid="0"/>
  <tile gid="0"/>
  <tile gid="0"/>
  <tile gid="0"/>
  <tile gid="0"/>
  <tile gid="0"/>
  <tile gid="0"/>
  <tile gid="0"/>
  <tile gid="0"/>
  <tile gid="0"/>
  <tile gid="0"/>
  <tile gid="0"/>
  <tile gid="0"/>
  <tile gid="0"/>
  <tile gid="0"/>
  <tile gid="0"/>
  <tile gid="0"/>
  <tile gid="0"/>
  <tile gid="0"/>
  <tile gid="0"/>
  <tile gid="0"/>
  <tile gid="0"/>
  <tile gid="0"/>
  <tile gid="0"/>
  <tile gid="0"/>
  <tile gid="0"/>
  <tile gid="0"/>
  <tile gid="0"/>
  <tile gid="0"/>
  <tile gid="0"/>
  <tile gid="0"/>
  <tile gid="0"/>
  <tile gid="0"/>
  <tile gid="0"/>
  <tile gid="0"/>
  <tile gid="0"/>
  <tile gid="0"/>
  <tile gid="0"/>
  <tile gid="0"/>
  <tile gid="0"/>
  <tile gid="0"/>
  <tile gid="0"/>
  <tile gid="0"/>
  <tile gid="0"/>
  <tile gid="0"/>
  <tile gid="0"/>
  <tile gid="0"/>
  <tile gid="0"/>
  <tile gid="0"/>
  <tile gid="0"/>
  <tile gid="0"/>
  <tile gid="0"/>
  <tile gid="0"/>
  <tile gid="0"/>
  <tile gid="0"/>
  <tile gid="0"/>
  <tile gid="0"/>
  <tile gid="0"/>
  <tile gid="0"/>
  <tile gid="0"/>
  <tile gid="0"/>
  <tile gid="0"/>
  <tile gid="0"/>
  <tile gid="0"/>
  <tile gid="0"/>
  <tile gid="0"/>
  <tile gid="0"/>
  <tile gid="0"/>
  <tile gid="0"/>
  <tile gid="0"/>
  <tile gid="0"/>
  <tile gid="0"/>
  <tile gid="0"/>
  <tile gid="0"/>
  <tile gid="0"/>
  <tile gid="0"/>
  <tile gid="0"/>
  <tile gid="0"/>
  <tile gid="0"/>
  <tile gid="0"/>
  <tile gid="0"/>
  <tile gid="0"/>
  <tile gid="0"/>
  <tile gid="0"/>
  <tile gid="0"/>
  <tile gid="0"/>
  <tile gid="0"/>
  <tile gid="0"/>
  <tile gid="0"/>
  <tile gid="0"/>
  <tile gid="0"/>
  <tile gid="0"/>
  <tile gid="0"/>
  <tile gid="0"/>
  <tile gid="0"/>
  <tile gid="0"/>
  <tile gid="0"/>
  <tile gid="0"/>
  <tile gid="0"/>
  <tile gid="0"/>
  <tile gid="0"/>
  <tile gid="0"/>
  <tile gid="0"/>
  <tile gid="0"/>
  <tile gid="0"/>
  <tile gid="0"/>
  <tile gid="0"/>
  <tile gid="0"/>
  <tile gid="0"/>
  <tile gid="0"/>
  <tile gid="0"/>
  <tile gid="0"/>
  <tile gid="0"/>
  <tile gid="0"/>
  <tile gid="0"/>
  <tile gid="0"/>
  <tile gid="0"/>
  <tile gid="0"/>
  <tile gid="0"/>
  <tile gid="0"/>
  <tile gid="0"/>
  <tile gid="0"/>
  <tile gid="0"/>
  <tile gid="0"/>
  <tile gid="0"/>
  <tile gid="0"/>
  <tile gid="0"/>
  <tile gid="0"/>
  <tile gid="0"/>
  <tile gid="0"/>
  <tile gid="0"/>
  <tile gid="0"/>
  <tile gid="0"/>
  <tile gid="0"/>
  <tile gid="0"/>
  <tile gid="0"/>
  <tile gid="0"/>
  <tile gid="0"/>
  <tile gid="0"/>
  <tile gid="0"/>
  <tile gid="0"/>
  <tile gid="0"/>
  <tile gid="0"/>
  <tile gid="0"/>
  <tile gid="0"/>
  <tile gid="0"/>
  <tile gid="0"/>
  <tile gid="0"/>
  <tile gid="0"/>
  <tile gid="0"/>
  <tile gid="0"/>
  <tile gid="0"/>
  <tile gid="0"/>
  <tile gid="0"/>
  <tile gid="0"/>
  <tile gid="0"/>
  <tile gid="0"/>
  <tile gid="0"/>
  <tile gid="0"/>
  <tile gid="0"/>
  <tile gid="0"/>
  <tile gid="0"/>
  <tile gid="0"/>
  <tile gid="0"/>
  <tile gid="0"/>
  <tile gid="0"/>
  <tile gid="0"/>
  <tile gid="0"/>
  <tile gid="0"/>
  <tile gid="0"/>
  <tile gid="0"/>
  <tile gid="0"/>
  <tile gid="0"/>
  <tile gid="0"/>
  <tile gid="0"/>
  <tile gid="0"/>
  <tile gid="0"/>
  <tile gid="0"/>
  <tile gid="0"/>
  <tile gid="0"/>
  <tile gid="0"/>
  <tile gid="0"/>
  <tile gid="0"/>
  <tile gid="0"/>
  <tile gid="0"/>
  <tile gid="0"/>
  <tile gid="0"/>
  <tile gid="0"/>
  <tile gid="0"/>
  <tile gid="0"/>
  <tile gid="0"/>
  <tile gid="0"/>
  <tile gid="0"/>
  <tile gid="0"/>
  <tile gid="0"/>
  <tile gid="0"/>
  <tile gid="0"/>
  <tile gid="0"/>
  <tile gid="0"/>
  <tile gid="0"/>
  <tile gid="0"/>
  <tile gid="0"/>
  <tile gid="0"/>
  <tile gid="0"/>
  <tile gid="0"/>
  <tile gid="0"/>
  <tile gid="0"/>
  <tile gid="0"/>
  <tile gid="0"/>
  <tile gid="0"/>
  <tile gid="0"/>
  <tile gid="0"/>
  <tile gid="0"/>
  <tile gid="0"/>
  <tile gid="0"/>
  <tile gid="0"/>
  <tile gid="0"/>
  <tile gid="0"/>
  <tile gid="0"/>
  <tile gid="0"/>
  <tile gid="0"/>
  <tile gid="0"/>
  <tile gid="0"/>
  <tile gid="0"/>
  <tile gid="0"/>
  <tile gid="0"/>
  <tile gid="0"/>
  <tile gid="0"/>
  <tile gid="0"/>
  <tile gid="0"/>
  <tile gid="0"/>
  <tile gid="0"/>
  <tile gid="0"/>
  <tile gid="0"/>
  <tile gid="0"/>
  <tile gid="0"/>
  <tile gid="0"/>
  <tile gid="0"/>
  <tile gid="0"/>
  <tile gid="0"/>
  <tile gid="0"/>
  <tile gid="0"/>
  <tile gid="0"/>
  <tile gid="0"/>
  <tile gid="0"/>
  <tile gid="0"/>
  <tile gid="0"/>
  <tile gid="0"/>
  <tile gid="0"/>
  <tile gid="0"/>
  <tile gid="0"/>
  <tile gid="0"/>
  <tile gid="0"/>
  <tile gid="0"/>
  <tile gid="0"/>
  <tile gid="0"/>
  <tile gid="0"/>
  <tile gid="0"/>
  <tile gid="0"/>
  <tile gid="0"/>
  <tile gid="0"/>
  <tile gid="0"/>
  <tile gid="0"/>
  <tile gid="0"/>
  <tile gid="0"/>
  <tile gid="0"/>
  <tile gid="0"/>
  <tile gid="0"/>
  <tile gid="0"/>
  <tile gid="0"/>
  <tile gid="0"/>
  <tile gid="0"/>
  <tile gid="0"/>
  <tile gid="0"/>
  <tile gid="0"/>
  <tile gid="0"/>
  <tile gid="0"/>
  <tile gid="0"/>
  <tile gid="0"/>
  <tile gid="0"/>
  <tile gid="0"/>
  <tile gid="0"/>
  <tile gid="0"/>
  <tile gid="0"/>
  <tile gid="0"/>
  <tile gid="0"/>
  <tile gid="0"/>
  <tile gid="0"/>
  <tile gid="0"/>
  <tile gid="0"/>
  <tile gid="0"/>
  <tile gid="0"/>
  <tile gid="0"/>
  <tile gid="0"/>
  <tile gid="0"/>
  <tile gid="0"/>
  <tile gid="0"/>
  <tile gid="0"/>
  <tile gid="0"/>
  <tile gid="0"/>
  <tile gid="0"/>
  <tile gid="0"/>
  <tile gid="0"/>
  <tile gid="0"/>
  <tile gid="0"/>
  <tile gid="0"/>
  <tile gid="0"/>
  <tile gid="0"/>
  <tile gid="0"/>
  <tile gid="0"/>
  <tile gid="0"/>
  <tile gid="0"/>
  <tile gid="0"/>
  <tile gid="0"/>
  <tile gid="0"/>
  <tile gid="0"/>
  <tile gid="0"/>
  <tile gid="0"/>
  <tile gid="0"/>
  <tile gid="0"/>
  <tile gid="0"/>
  <tile gid="0"/>
  <tile gid="0"/>
  <tile gid="0"/>
  <tile gid="0"/>
  </data>
 </layer>
 <layer name="Map Change 5" width="32" height="30">
  <properties>
   <property name="ID" value ="5"/>
   <property name="Height" value ="1"/>
   <property name="Width" value ="1"/>
   <property name="X" value ="18"/>
   <property name="Y" value ="10"/>
  </properties>
  <data>
  <tile gid="0"/>
  <tile gid="0"/>
  <tile gid="0"/>
  <tile gid="0"/>
  <tile gid="0"/>
  <tile gid="0"/>
  <tile gid="0"/>
  <tile gid="0"/>
  <tile gid="0"/>
  <tile gid="0"/>
  <tile gid="0"/>
  <tile gid="0"/>
  <tile gid="0"/>
  <tile gid="0"/>
  <tile gid="0"/>
  <tile gid="0"/>
  <tile gid="0"/>
  <tile gid="0"/>
  <tile gid="0"/>
  <tile gid="0"/>
  <tile gid="0"/>
  <tile gid="0"/>
  <tile gid="0"/>
  <tile gid="0"/>
  <tile gid="0"/>
  <tile gid="0"/>
  <tile gid="0"/>
  <tile gid="0"/>
  <tile gid="0"/>
  <tile gid="0"/>
  <tile gid="0"/>
  <tile gid="0"/>
  <tile gid="0"/>
  <tile gid="0"/>
  <tile gid="0"/>
  <tile gid="0"/>
  <tile gid="0"/>
  <tile gid="0"/>
  <tile gid="0"/>
  <tile gid="0"/>
  <tile gid="0"/>
  <tile gid="0"/>
  <tile gid="0"/>
  <tile gid="0"/>
  <tile gid="0"/>
  <tile gid="0"/>
  <tile gid="0"/>
  <tile gid="0"/>
  <tile gid="0"/>
  <tile gid="0"/>
  <tile gid="0"/>
  <tile gid="0"/>
  <tile gid="0"/>
  <tile gid="0"/>
  <tile gid="0"/>
  <tile gid="0"/>
  <tile gid="0"/>
  <tile gid="0"/>
  <tile gid="0"/>
  <tile gid="0"/>
  <tile gid="0"/>
  <tile gid="0"/>
  <tile gid="0"/>
  <tile gid="0"/>
  <tile gid="0"/>
  <tile gid="0"/>
  <tile gid="0"/>
  <tile gid="0"/>
  <tile gid="0"/>
  <tile gid="0"/>
  <tile gid="0"/>
  <tile gid="0"/>
  <tile gid="0"/>
  <tile gid="0"/>
  <tile gid="0"/>
  <tile gid="0"/>
  <tile gid="0"/>
  <tile gid="0"/>
  <tile gid="0"/>
  <tile gid="0"/>
  <tile gid="0"/>
  <tile gid="0"/>
  <tile gid="0"/>
  <tile gid="0"/>
  <tile gid="0"/>
  <tile gid="0"/>
  <tile gid="0"/>
  <tile gid="0"/>
  <tile gid="0"/>
  <tile gid="0"/>
  <tile gid="0"/>
  <tile gid="0"/>
  <tile gid="0"/>
  <tile gid="0"/>
  <tile gid="0"/>
  <tile gid="0"/>
  <tile gid="0"/>
  <tile gid="0"/>
  <tile gid="0"/>
  <tile gid="0"/>
  <tile gid="0"/>
  <tile gid="0"/>
  <tile gid="0"/>
  <tile gid="0"/>
  <tile gid="0"/>
  <tile gid="0"/>
  <tile gid="0"/>
  <tile gid="0"/>
  <tile gid="0"/>
  <tile gid="0"/>
  <tile gid="0"/>
  <tile gid="0"/>
  <tile gid="0"/>
  <tile gid="0"/>
  <tile gid="0"/>
  <tile gid="0"/>
  <tile gid="0"/>
  <tile gid="0"/>
  <tile gid="0"/>
  <tile gid="0"/>
  <tile gid="0"/>
  <tile gid="0"/>
  <tile gid="0"/>
  <tile gid="0"/>
  <tile gid="0"/>
  <tile gid="0"/>
  <tile gid="0"/>
  <tile gid="0"/>
  <tile gid="0"/>
  <tile gid="0"/>
  <tile gid="0"/>
  <tile gid="0"/>
  <tile gid="0"/>
  <tile gid="0"/>
  <tile gid="0"/>
  <tile gid="0"/>
  <tile gid="0"/>
  <tile gid="0"/>
  <tile gid="0"/>
  <tile gid="0"/>
  <tile gid="0"/>
  <tile gid="0"/>
  <tile gid="0"/>
  <tile gid="0"/>
  <tile gid="0"/>
  <tile gid="0"/>
  <tile gid="0"/>
  <tile gid="0"/>
  <tile gid="0"/>
  <tile gid="0"/>
  <tile gid="0"/>
  <tile gid="0"/>
  <tile gid="0"/>
  <tile gid="0"/>
  <tile gid="0"/>
  <tile gid="0"/>
  <tile gid="0"/>
  <tile gid="0"/>
  <tile gid="0"/>
  <tile gid="0"/>
  <tile gid="0"/>
  <tile gid="0"/>
  <tile gid="0"/>
  <tile gid="0"/>
  <tile gid="0"/>
  <tile gid="0"/>
  <tile gid="0"/>
  <tile gid="0"/>
  <tile gid="0"/>
  <tile gid="0"/>
  <tile gid="0"/>
  <tile gid="0"/>
  <tile gid="0"/>
  <tile gid="0"/>
  <tile gid="0"/>
  <tile gid="0"/>
  <tile gid="0"/>
  <tile gid="0"/>
  <tile gid="0"/>
  <tile gid="0"/>
  <tile gid="0"/>
  <tile gid="0"/>
  <tile gid="0"/>
  <tile gid="0"/>
  <tile gid="0"/>
  <tile gid="0"/>
  <tile gid="0"/>
  <tile gid="0"/>
  <tile gid="0"/>
  <tile gid="0"/>
  <tile gid="0"/>
  <tile gid="0"/>
  <tile gid="0"/>
  <tile gid="0"/>
  <tile gid="0"/>
  <tile gid="0"/>
  <tile gid="0"/>
  <tile gid="0"/>
  <tile gid="0"/>
  <tile gid="0"/>
  <tile gid="0"/>
  <tile gid="0"/>
  <tile gid="0"/>
  <tile gid="0"/>
  <tile gid="0"/>
  <tile gid="0"/>
  <tile gid="0"/>
  <tile gid="0"/>
  <tile gid="0"/>
  <tile gid="0"/>
  <tile gid="0"/>
  <tile gid="0"/>
  <tile gid="0"/>
  <tile gid="0"/>
  <tile gid="0"/>
  <tile gid="0"/>
  <tile gid="0"/>
  <tile gid="0"/>
  <tile gid="0"/>
  <tile gid="0"/>
  <tile gid="0"/>
  <tile gid="0"/>
  <tile gid="0"/>
  <tile gid="0"/>
  <tile gid="0"/>
  <tile gid="0"/>
  <tile gid="0"/>
  <tile gid="0"/>
  <tile gid="0"/>
  <tile gid="0"/>
  <tile gid="0"/>
  <tile gid="0"/>
  <tile gid="0"/>
  <tile gid="0"/>
  <tile gid="0"/>
  <tile gid="0"/>
  <tile gid="0"/>
  <tile gid="0"/>
  <tile gid="0"/>
  <tile gid="0"/>
  <tile gid="0"/>
  <tile gid="0"/>
  <tile gid="0"/>
  <tile gid="0"/>
  <tile gid="0"/>
  <tile gid="0"/>
  <tile gid="0"/>
  <tile gid="0"/>
  <tile gid="0"/>
  <tile gid="0"/>
  <tile gid="0"/>
  <tile gid="0"/>
  <tile gid="0"/>
  <tile gid="0"/>
  <tile gid="0"/>
  <tile gid="0"/>
  <tile gid="0"/>
  <tile gid="0"/>
  <tile gid="0"/>
  <tile gid="0"/>
  <tile gid="0"/>
  <tile gid="0"/>
  <tile gid="0"/>
  <tile gid="0"/>
  <tile gid="0"/>
  <tile gid="0"/>
  <tile gid="0"/>
  <tile gid="0"/>
  <tile gid="0"/>
  <tile gid="0"/>
  <tile gid="0"/>
  <tile gid="0"/>
  <tile gid="0"/>
  <tile gid="0"/>
  <tile gid="0"/>
  <tile gid="0"/>
  <tile gid="0"/>
  <tile gid="0"/>
  <tile gid="0"/>
  <tile gid="0"/>
  <tile gid="0"/>
  <tile gid="0"/>
  <tile gid="0"/>
  <tile gid="0"/>
  <tile gid="0"/>
  <tile gid="0"/>
  <tile gid="0"/>
  <tile gid="0"/>
  <tile gid="0"/>
  <tile gid="0"/>
  <tile gid="0"/>
  <tile gid="0"/>
  <tile gid="0"/>
  <tile gid="0"/>
  <tile gid="0"/>
  <tile gid="0"/>
  <tile gid="0"/>
  <tile gid="0"/>
  <tile gid="0"/>
  <tile gid="0"/>
  <tile gid="0"/>
  <tile gid="0"/>
  <tile gid="0"/>
  <tile gid="0"/>
  <tile gid="0"/>
  <tile gid="0"/>
  <tile gid="0"/>
  <tile gid="0"/>
  <tile gid="0"/>
  <tile gid="0"/>
  <tile gid="0"/>
  <tile gid="0"/>
  <tile gid="0"/>
  <tile gid="0"/>
  <tile gid="0"/>
  <tile gid="0"/>
  <tile gid="0"/>
  <tile gid="0"/>
  <tile gid="0"/>
  <tile gid="0"/>
  <tile gid="0"/>
  <tile gid="0"/>
  <tile gid="0"/>
  <tile gid="0"/>
  <tile gid="0"/>
  <tile gid="0"/>
  <tile gid="0"/>
  <tile gid="0"/>
  <tile gid="0"/>
  <tile gid="0"/>
  <tile gid="0"/>
  <tile gid="0"/>
  <tile gid="0"/>
  <tile gid="0"/>
  <tile gid="0"/>
  <tile gid="0"/>
  <tile gid="0"/>
  <tile gid="0"/>
  <tile gid="65"/>
  <tile gid="0"/>
  <tile gid="0"/>
  <tile gid="0"/>
  <tile gid="0"/>
  <tile gid="0"/>
  <tile gid="0"/>
  <tile gid="0"/>
  <tile gid="0"/>
  <tile gid="0"/>
  <tile gid="0"/>
  <tile gid="0"/>
  <tile gid="0"/>
  <tile gid="0"/>
  <tile gid="0"/>
  <tile gid="0"/>
  <tile gid="0"/>
  <tile gid="0"/>
  <tile gid="0"/>
  <tile gid="0"/>
  <tile gid="0"/>
  <tile gid="0"/>
  <tile gid="0"/>
  <tile gid="0"/>
  <tile gid="0"/>
  <tile gid="0"/>
  <tile gid="0"/>
  <tile gid="0"/>
  <tile gid="0"/>
  <tile gid="0"/>
  <tile gid="0"/>
  <tile gid="0"/>
  <tile gid="0"/>
  <tile gid="0"/>
  <tile gid="0"/>
  <tile gid="0"/>
  <tile gid="0"/>
  <tile gid="0"/>
  <tile gid="0"/>
  <tile gid="0"/>
  <tile gid="0"/>
  <tile gid="0"/>
  <tile gid="0"/>
  <tile gid="0"/>
  <tile gid="0"/>
  <tile gid="0"/>
  <tile gid="0"/>
  <tile gid="0"/>
  <tile gid="0"/>
  <tile gid="0"/>
  <tile gid="0"/>
  <tile gid="0"/>
  <tile gid="0"/>
  <tile gid="0"/>
  <tile gid="0"/>
  <tile gid="0"/>
  <tile gid="0"/>
  <tile gid="0"/>
  <tile gid="0"/>
  <tile gid="0"/>
  <tile gid="0"/>
  <tile gid="0"/>
  <tile gid="0"/>
  <tile gid="0"/>
  <tile gid="0"/>
  <tile gid="0"/>
  <tile gid="0"/>
  <tile gid="0"/>
  <tile gid="0"/>
  <tile gid="0"/>
  <tile gid="0"/>
  <tile gid="0"/>
  <tile gid="0"/>
  <tile gid="0"/>
  <tile gid="0"/>
  <tile gid="0"/>
  <tile gid="0"/>
  <tile gid="0"/>
  <tile gid="0"/>
  <tile gid="0"/>
  <tile gid="0"/>
  <tile gid="0"/>
  <tile gid="0"/>
  <tile gid="0"/>
  <tile gid="0"/>
  <tile gid="0"/>
  <tile gid="0"/>
  <tile gid="0"/>
  <tile gid="0"/>
  <tile gid="0"/>
  <tile gid="0"/>
  <tile gid="0"/>
  <tile gid="0"/>
  <tile gid="0"/>
  <tile gid="0"/>
  <tile gid="0"/>
  <tile gid="0"/>
  <tile gid="0"/>
  <tile gid="0"/>
  <tile gid="0"/>
  <tile gid="0"/>
  <tile gid="0"/>
  <tile gid="0"/>
  <tile gid="0"/>
  <tile gid="0"/>
  <tile gid="0"/>
  <tile gid="0"/>
  <tile gid="0"/>
  <tile gid="0"/>
  <tile gid="0"/>
  <tile gid="0"/>
  <tile gid="0"/>
  <tile gid="0"/>
  <tile gid="0"/>
  <tile gid="0"/>
  <tile gid="0"/>
  <tile gid="0"/>
  <tile gid="0"/>
  <tile gid="0"/>
  <tile gid="0"/>
  <tile gid="0"/>
  <tile gid="0"/>
  <tile gid="0"/>
  <tile gid="0"/>
  <tile gid="0"/>
  <tile gid="0"/>
  <tile gid="0"/>
  <tile gid="0"/>
  <tile gid="0"/>
  <tile gid="0"/>
  <tile gid="0"/>
  <tile gid="0"/>
  <tile gid="0"/>
  <tile gid="0"/>
  <tile gid="0"/>
  <tile gid="0"/>
  <tile gid="0"/>
  <tile gid="0"/>
  <tile gid="0"/>
  <tile gid="0"/>
  <tile gid="0"/>
  <tile gid="0"/>
  <tile gid="0"/>
  <tile gid="0"/>
  <tile gid="0"/>
  <tile gid="0"/>
  <tile gid="0"/>
  <tile gid="0"/>
  <tile gid="0"/>
  <tile gid="0"/>
  <tile gid="0"/>
  <tile gid="0"/>
  <tile gid="0"/>
  <tile gid="0"/>
  <tile gid="0"/>
  <tile gid="0"/>
  <tile gid="0"/>
  <tile gid="0"/>
  <tile gid="0"/>
  <tile gid="0"/>
  <tile gid="0"/>
  <tile gid="0"/>
  <tile gid="0"/>
  <tile gid="0"/>
  <tile gid="0"/>
  <tile gid="0"/>
  <tile gid="0"/>
  <tile gid="0"/>
  <tile gid="0"/>
  <tile gid="0"/>
  <tile gid="0"/>
  <tile gid="0"/>
  <tile gid="0"/>
  <tile gid="0"/>
  <tile gid="0"/>
  <tile gid="0"/>
  <tile gid="0"/>
  <tile gid="0"/>
  <tile gid="0"/>
  <tile gid="0"/>
  <tile gid="0"/>
  <tile gid="0"/>
  <tile gid="0"/>
  <tile gid="0"/>
  <tile gid="0"/>
  <tile gid="0"/>
  <tile gid="0"/>
  <tile gid="0"/>
  <tile gid="0"/>
  <tile gid="0"/>
  <tile gid="0"/>
  <tile gid="0"/>
  <tile gid="0"/>
  <tile gid="0"/>
  <tile gid="0"/>
  <tile gid="0"/>
  <tile gid="0"/>
  <tile gid="0"/>
  <tile gid="0"/>
  <tile gid="0"/>
  <tile gid="0"/>
  <tile gid="0"/>
  <tile gid="0"/>
  <tile gid="0"/>
  <tile gid="0"/>
  <tile gid="0"/>
  <tile gid="0"/>
  <tile gid="0"/>
  <tile gid="0"/>
  <tile gid="0"/>
  <tile gid="0"/>
  <tile gid="0"/>
  <tile gid="0"/>
  <tile gid="0"/>
  <tile gid="0"/>
  <tile gid="0"/>
  <tile gid="0"/>
  <tile gid="0"/>
  <tile gid="0"/>
  <tile gid="0"/>
  <tile gid="0"/>
  <tile gid="0"/>
  <tile gid="0"/>
  <tile gid="0"/>
  <tile gid="0"/>
  <tile gid="0"/>
  <tile gid="0"/>
  <tile gid="0"/>
  <tile gid="0"/>
  <tile gid="0"/>
  <tile gid="0"/>
  <tile gid="0"/>
  <tile gid="0"/>
  <tile gid="0"/>
  <tile gid="0"/>
  <tile gid="0"/>
  <tile gid="0"/>
  <tile gid="0"/>
  <tile gid="0"/>
  <tile gid="0"/>
  <tile gid="0"/>
  <tile gid="0"/>
  <tile gid="0"/>
  <tile gid="0"/>
  <tile gid="0"/>
  <tile gid="0"/>
  <tile gid="0"/>
  <tile gid="0"/>
  <tile gid="0"/>
  <tile gid="0"/>
  <tile gid="0"/>
  <tile gid="0"/>
  <tile gid="0"/>
  <tile gid="0"/>
  <tile gid="0"/>
  <tile gid="0"/>
  <tile gid="0"/>
  <tile gid="0"/>
  <tile gid="0"/>
  <tile gid="0"/>
  <tile gid="0"/>
  <tile gid="0"/>
  <tile gid="0"/>
  <tile gid="0"/>
  <tile gid="0"/>
  <tile gid="0"/>
  <tile gid="0"/>
  <tile gid="0"/>
  <tile gid="0"/>
  <tile gid="0"/>
  <tile gid="0"/>
  <tile gid="0"/>
  <tile gid="0"/>
  <tile gid="0"/>
  <tile gid="0"/>
  <tile gid="0"/>
  <tile gid="0"/>
  <tile gid="0"/>
  <tile gid="0"/>
  <tile gid="0"/>
  <tile gid="0"/>
  <tile gid="0"/>
  <tile gid="0"/>
  <tile gid="0"/>
  <tile gid="0"/>
  <tile gid="0"/>
  <tile gid="0"/>
  <tile gid="0"/>
  <tile gid="0"/>
  <tile gid="0"/>
  <tile gid="0"/>
  <tile gid="0"/>
  <tile gid="0"/>
  <tile gid="0"/>
  <tile gid="0"/>
  <tile gid="0"/>
  <tile gid="0"/>
  <tile gid="0"/>
  <tile gid="0"/>
  <tile gid="0"/>
  <tile gid="0"/>
  <tile gid="0"/>
  <tile gid="0"/>
  <tile gid="0"/>
  <tile gid="0"/>
  <tile gid="0"/>
  <tile gid="0"/>
  <tile gid="0"/>
  <tile gid="0"/>
  <tile gid="0"/>
  <tile gid="0"/>
  <tile gid="0"/>
  <tile gid="0"/>
  <tile gid="0"/>
  <tile gid="0"/>
  <tile gid="0"/>
  <tile gid="0"/>
  <tile gid="0"/>
  <tile gid="0"/>
  <tile gid="0"/>
  <tile gid="0"/>
  <tile gid="0"/>
  <tile gid="0"/>
  <tile gid="0"/>
  <tile gid="0"/>
  <tile gid="0"/>
  <tile gid="0"/>
  <tile gid="0"/>
  <tile gid="0"/>
  <tile gid="0"/>
  <tile gid="0"/>
  <tile gid="0"/>
  <tile gid="0"/>
  <tile gid="0"/>
  <tile gid="0"/>
  <tile gid="0"/>
  <tile gid="0"/>
  <tile gid="0"/>
  <tile gid="0"/>
  <tile gid="0"/>
  <tile gid="0"/>
  <tile gid="0"/>
  <tile gid="0"/>
  <tile gid="0"/>
  <tile gid="0"/>
  <tile gid="0"/>
  <tile gid="0"/>
  <tile gid="0"/>
  <tile gid="0"/>
  <tile gid="0"/>
  <tile gid="0"/>
  <tile gid="0"/>
  <tile gid="0"/>
  <tile gid="0"/>
  <tile gid="0"/>
  <tile gid="0"/>
  <tile gid="0"/>
  <tile gid="0"/>
  <tile gid="0"/>
  <tile gid="0"/>
  <tile gid="0"/>
  <tile gid="0"/>
  <tile gid="0"/>
  <tile gid="0"/>
  <tile gid="0"/>
  <tile gid="0"/>
  <tile gid="0"/>
  <tile gid="0"/>
  <tile gid="0"/>
  <tile gid="0"/>
  <tile gid="0"/>
  <tile gid="0"/>
  <tile gid="0"/>
  <tile gid="0"/>
  <tile gid="0"/>
  <tile gid="0"/>
  <tile gid="0"/>
  <tile gid="0"/>
  <tile gid="0"/>
  <tile gid="0"/>
  <tile gid="0"/>
  <tile gid="0"/>
  <tile gid="0"/>
  <tile gid="0"/>
  <tile gid="0"/>
  <tile gid="0"/>
  <tile gid="0"/>
  <tile gid="0"/>
  <tile gid="0"/>
  <tile gid="0"/>
  <tile gid="0"/>
  <tile gid="0"/>
  <tile gid="0"/>
  <tile gid="0"/>
  <tile gid="0"/>
  <tile gid="0"/>
  <tile gid="0"/>
  <tile gid="0"/>
  <tile gid="0"/>
  <tile gid="0"/>
  <tile gid="0"/>
  <tile gid="0"/>
  <tile gid="0"/>
  <tile gid="0"/>
  <tile gid="0"/>
  <tile gid="0"/>
  <tile gid="0"/>
  <tile gid="0"/>
  <tile gid="0"/>
  <tile gid="0"/>
  <tile gid="0"/>
  <tile gid="0"/>
  <tile gid="0"/>
  <tile gid="0"/>
  <tile gid="0"/>
  <tile gid="0"/>
  <tile gid="0"/>
  <tile gid="0"/>
  <tile gid="0"/>
  <tile gid="0"/>
  <tile gid="0"/>
  <tile gid="0"/>
  <tile gid="0"/>
  <tile gid="0"/>
  <tile gid="0"/>
  <tile gid="0"/>
  <tile gid="0"/>
  <tile gid="0"/>
  <tile gid="0"/>
  <tile gid="0"/>
  <tile gid="0"/>
  <tile gid="0"/>
  <tile gid="0"/>
  <tile gid="0"/>
  <tile gid="0"/>
  <tile gid="0"/>
  <tile gid="0"/>
  <tile gid="0"/>
  <tile gid="0"/>
  <tile gid="0"/>
  <tile gid="0"/>
  <tile gid="0"/>
  <tile gid="0"/>
  <tile gid="0"/>
  <tile gid="0"/>
  <tile gid="0"/>
  <tile gid="0"/>
  <tile gid="0"/>
  <tile gid="0"/>
  <tile gid="0"/>
  <tile gid="0"/>
  <tile gid="0"/>
  <tile gid="0"/>
  <tile gid="0"/>
  <tile gid="0"/>
  <tile gid="0"/>
  <tile gid="0"/>
  <tile gid="0"/>
  <tile gid="0"/>
  <tile gid="0"/>
  <tile gid="0"/>
  <tile gid="0"/>
  <tile gid="0"/>
  <tile gid="0"/>
  <tile gid="0"/>
  <tile gid="0"/>
  <tile gid="0"/>
  <tile gid="0"/>
  <tile gid="0"/>
  <tile gid="0"/>
  <tile gid="0"/>
  <tile gid="0"/>
  <tile gid="0"/>
  <tile gid="0"/>
  <tile gid="0"/>
  <tile gid="0"/>
  <tile gid="0"/>
  <tile gid="0"/>
  <tile gid="0"/>
  <tile gid="0"/>
  <tile gid="0"/>
  <tile gid="0"/>
  <tile gid="0"/>
  <tile gid="0"/>
  <tile gid="0"/>
  <tile gid="0"/>
  <tile gid="0"/>
  <tile gid="0"/>
  <tile gid="0"/>
  <tile gid="0"/>
  <tile gid="0"/>
  <tile gid="0"/>
  <tile gid="0"/>
  <tile gid="0"/>
  <tile gid="0"/>
  <tile gid="0"/>
  <tile gid="0"/>
  <tile gid="0"/>
  <tile gid="0"/>
  <tile gid="0"/>
  <tile gid="0"/>
  <tile gid="0"/>
  <tile gid="0"/>
  <tile gid="0"/>
  <tile gid="0"/>
  <tile gid="0"/>
  <tile gid="0"/>
  <tile gid="0"/>
  <tile gid="0"/>
  <tile gid="0"/>
  <tile gid="0"/>
  <tile gid="0"/>
  <tile gid="0"/>
  <tile gid="0"/>
  <tile gid="0"/>
  <tile gid="0"/>
  <tile gid="0"/>
  <tile gid="0"/>
  <tile gid="0"/>
  <tile gid="0"/>
  <tile gid="0"/>
  <tile gid="0"/>
  <tile gid="0"/>
  <tile gid="0"/>
  <tile gid="0"/>
  <tile gid="0"/>
  <tile gid="0"/>
  <tile gid="0"/>
  <tile gid="0"/>
  <tile gid="0"/>
  <tile gid="0"/>
  <tile gid="0"/>
  <tile gid="0"/>
  <tile gid="0"/>
  <tile gid="0"/>
  <tile gid="0"/>
  <tile gid="0"/>
  <tile gid="0"/>
  <tile gid="0"/>
  <tile gid="0"/>
  <tile gid="0"/>
  <tile gid="0"/>
  <tile gid="0"/>
  <tile gid="0"/>
  <tile gid="0"/>
  <tile gid="0"/>
  <tile gid="0"/>
  <tile gid="0"/>
  <tile gid="0"/>
  <tile gid="0"/>
  <tile gid="0"/>
  <tile gid="0"/>
  <tile gid="0"/>
  <tile gid="0"/>
  <tile gid="0"/>
  <tile gid="0"/>
  <tile gid="0"/>
  <tile gid="0"/>
  <tile gid="0"/>
  <tile gid="0"/>
  <tile gid="0"/>
  <tile gid="0"/>
  <tile gid="0"/>
  <tile gid="0"/>
  <tile gid="0"/>
  <tile gid="0"/>
  <tile gid="0"/>
  <tile gid="0"/>
  <tile gid="0"/>
  <tile gid="0"/>
  <tile gid="0"/>
  <tile gid="0"/>
  <tile gid="0"/>
  <tile gid="0"/>
  <tile gid="0"/>
  <tile gid="0"/>
  <tile gid="0"/>
  <tile gid="0"/>
  <tile gid="0"/>
  <tile gid="0"/>
  <tile gid="0"/>
  <tile gid="0"/>
  <tile gid="0"/>
  <tile gid="0"/>
  <tile gid="0"/>
  <tile gid="0"/>
  <tile gid="0"/>
  <tile gid="0"/>
  <tile gid="0"/>
  <tile gid="0"/>
  <tile gid="0"/>
  <tile gid="0"/>
  <tile gid="0"/>
  <tile gid="0"/>
  <tile gid="0"/>
  <tile gid="0"/>
  <tile gid="0"/>
  <tile gid="0"/>
  <tile gid="0"/>
  <tile gid="0"/>
  <tile gid="0"/>
  <tile gid="0"/>
  <tile gid="0"/>
  <tile gid="0"/>
  <tile gid="0"/>
  <tile gid="0"/>
  <tile gid="0"/>
  <tile gid="0"/>
  <tile gid="0"/>
  <tile gid="0"/>
  <tile gid="0"/>
  <tile gid="0"/>
  <tile gid="0"/>
  <tile gid="0"/>
  <tile gid="0"/>
  <tile gid="0"/>
  <tile gid="0"/>
  <tile gid="0"/>
  <tile gid="0"/>
  <tile gid="0"/>
  <tile gid="0"/>
  <tile gid="0"/>
  </data>
 </layer>
 <layer name="Map Change 6" width="32" height="30">
  <properties>
   <property name="ID" value ="6"/>
   <property name="Height" value ="1"/>
   <property name="Width" value ="1"/>
   <property name="X" value ="27"/>
   <property name="Y" value ="20"/>
  </properties>
  <data>
  <tile gid="0"/>
  <tile gid="0"/>
  <tile gid="0"/>
  <tile gid="0"/>
  <tile gid="0"/>
  <tile gid="0"/>
  <tile gid="0"/>
  <tile gid="0"/>
  <tile gid="0"/>
  <tile gid="0"/>
  <tile gid="0"/>
  <tile gid="0"/>
  <tile gid="0"/>
  <tile gid="0"/>
  <tile gid="0"/>
  <tile gid="0"/>
  <tile gid="0"/>
  <tile gid="0"/>
  <tile gid="0"/>
  <tile gid="0"/>
  <tile gid="0"/>
  <tile gid="0"/>
  <tile gid="0"/>
  <tile gid="0"/>
  <tile gid="0"/>
  <tile gid="0"/>
  <tile gid="0"/>
  <tile gid="0"/>
  <tile gid="0"/>
  <tile gid="0"/>
  <tile gid="0"/>
  <tile gid="0"/>
  <tile gid="0"/>
  <tile gid="0"/>
  <tile gid="0"/>
  <tile gid="0"/>
  <tile gid="0"/>
  <tile gid="0"/>
  <tile gid="0"/>
  <tile gid="0"/>
  <tile gid="0"/>
  <tile gid="0"/>
  <tile gid="0"/>
  <tile gid="0"/>
  <tile gid="0"/>
  <tile gid="0"/>
  <tile gid="0"/>
  <tile gid="0"/>
  <tile gid="0"/>
  <tile gid="0"/>
  <tile gid="0"/>
  <tile gid="0"/>
  <tile gid="0"/>
  <tile gid="0"/>
  <tile gid="0"/>
  <tile gid="0"/>
  <tile gid="0"/>
  <tile gid="0"/>
  <tile gid="0"/>
  <tile gid="0"/>
  <tile gid="0"/>
  <tile gid="0"/>
  <tile gid="0"/>
  <tile gid="0"/>
  <tile gid="0"/>
  <tile gid="0"/>
  <tile gid="0"/>
  <tile gid="0"/>
  <tile gid="0"/>
  <tile gid="0"/>
  <tile gid="0"/>
  <tile gid="0"/>
  <tile gid="0"/>
  <tile gid="0"/>
  <tile gid="0"/>
  <tile gid="0"/>
  <tile gid="0"/>
  <tile gid="0"/>
  <tile gid="0"/>
  <tile gid="0"/>
  <tile gid="0"/>
  <tile gid="0"/>
  <tile gid="0"/>
  <tile gid="0"/>
  <tile gid="0"/>
  <tile gid="0"/>
  <tile gid="0"/>
  <tile gid="0"/>
  <tile gid="0"/>
  <tile gid="0"/>
  <tile gid="0"/>
  <tile gid="0"/>
  <tile gid="0"/>
  <tile gid="0"/>
  <tile gid="0"/>
  <tile gid="0"/>
  <tile gid="0"/>
  <tile gid="0"/>
  <tile gid="0"/>
  <tile gid="0"/>
  <tile gid="0"/>
  <tile gid="0"/>
  <tile gid="0"/>
  <tile gid="0"/>
  <tile gid="0"/>
  <tile gid="0"/>
  <tile gid="0"/>
  <tile gid="0"/>
  <tile gid="0"/>
  <tile gid="0"/>
  <tile gid="0"/>
  <tile gid="0"/>
  <tile gid="0"/>
  <tile gid="0"/>
  <tile gid="0"/>
  <tile gid="0"/>
  <tile gid="0"/>
  <tile gid="0"/>
  <tile gid="0"/>
  <tile gid="0"/>
  <tile gid="0"/>
  <tile gid="0"/>
  <tile gid="0"/>
  <tile gid="0"/>
  <tile gid="0"/>
  <tile gid="0"/>
  <tile gid="0"/>
  <tile gid="0"/>
  <tile gid="0"/>
  <tile gid="0"/>
  <tile gid="0"/>
  <tile gid="0"/>
  <tile gid="0"/>
  <tile gid="0"/>
  <tile gid="0"/>
  <tile gid="0"/>
  <tile gid="0"/>
  <tile gid="0"/>
  <tile gid="0"/>
  <tile gid="0"/>
  <tile gid="0"/>
  <tile gid="0"/>
  <tile gid="0"/>
  <tile gid="0"/>
  <tile gid="0"/>
  <tile gid="0"/>
  <tile gid="0"/>
  <tile gid="0"/>
  <tile gid="0"/>
  <tile gid="0"/>
  <tile gid="0"/>
  <tile gid="0"/>
  <tile gid="0"/>
  <tile gid="0"/>
  <tile gid="0"/>
  <tile gid="0"/>
  <tile gid="0"/>
  <tile gid="0"/>
  <tile gid="0"/>
  <tile gid="0"/>
  <tile gid="0"/>
  <tile gid="0"/>
  <tile gid="0"/>
  <tile gid="0"/>
  <tile gid="0"/>
  <tile gid="0"/>
  <tile gid="0"/>
  <tile gid="0"/>
  <tile gid="0"/>
  <tile gid="0"/>
  <tile gid="0"/>
  <tile gid="0"/>
  <tile gid="0"/>
  <tile gid="0"/>
  <tile gid="0"/>
  <tile gid="0"/>
  <tile gid="0"/>
  <tile gid="0"/>
  <tile gid="0"/>
  <tile gid="0"/>
  <tile gid="0"/>
  <tile gid="0"/>
  <tile gid="0"/>
  <tile gid="0"/>
  <tile gid="0"/>
  <tile gid="0"/>
  <tile gid="0"/>
  <tile gid="0"/>
  <tile gid="0"/>
  <tile gid="0"/>
  <tile gid="0"/>
  <tile gid="0"/>
  <tile gid="0"/>
  <tile gid="0"/>
  <tile gid="0"/>
  <tile gid="0"/>
  <tile gid="0"/>
  <tile gid="0"/>
  <tile gid="0"/>
  <tile gid="0"/>
  <tile gid="0"/>
  <tile gid="0"/>
  <tile gid="0"/>
  <tile gid="0"/>
  <tile gid="0"/>
  <tile gid="0"/>
  <tile gid="0"/>
  <tile gid="0"/>
  <tile gid="0"/>
  <tile gid="0"/>
  <tile gid="0"/>
  <tile gid="0"/>
  <tile gid="0"/>
  <tile gid="0"/>
  <tile gid="0"/>
  <tile gid="0"/>
  <tile gid="0"/>
  <tile gid="0"/>
  <tile gid="0"/>
  <tile gid="0"/>
  <tile gid="0"/>
  <tile gid="0"/>
  <tile gid="0"/>
  <tile gid="0"/>
  <tile gid="0"/>
  <tile gid="0"/>
  <tile gid="0"/>
  <tile gid="0"/>
  <tile gid="0"/>
  <tile gid="0"/>
  <tile gid="0"/>
  <tile gid="0"/>
  <tile gid="0"/>
  <tile gid="0"/>
  <tile gid="0"/>
  <tile gid="0"/>
  <tile gid="0"/>
  <tile gid="0"/>
  <tile gid="0"/>
  <tile gid="0"/>
  <tile gid="0"/>
  <tile gid="0"/>
  <tile gid="0"/>
  <tile gid="0"/>
  <tile gid="0"/>
  <tile gid="0"/>
  <tile gid="0"/>
  <tile gid="0"/>
  <tile gid="0"/>
  <tile gid="0"/>
  <tile gid="0"/>
  <tile gid="0"/>
  <tile gid="0"/>
  <tile gid="0"/>
  <tile gid="0"/>
  <tile gid="0"/>
  <tile gid="0"/>
  <tile gid="0"/>
  <tile gid="0"/>
  <tile gid="0"/>
  <tile gid="0"/>
  <tile gid="0"/>
  <tile gid="0"/>
  <tile gid="0"/>
  <tile gid="0"/>
  <tile gid="0"/>
  <tile gid="0"/>
  <tile gid="0"/>
  <tile gid="0"/>
  <tile gid="0"/>
  <tile gid="0"/>
  <tile gid="0"/>
  <tile gid="0"/>
  <tile gid="0"/>
  <tile gid="0"/>
  <tile gid="0"/>
  <tile gid="0"/>
  <tile gid="0"/>
  <tile gid="0"/>
  <tile gid="0"/>
  <tile gid="0"/>
  <tile gid="0"/>
  <tile gid="0"/>
  <tile gid="0"/>
  <tile gid="0"/>
  <tile gid="0"/>
  <tile gid="0"/>
  <tile gid="0"/>
  <tile gid="0"/>
  <tile gid="0"/>
  <tile gid="0"/>
  <tile gid="0"/>
  <tile gid="0"/>
  <tile gid="0"/>
  <tile gid="0"/>
  <tile gid="0"/>
  <tile gid="0"/>
  <tile gid="0"/>
  <tile gid="0"/>
  <tile gid="0"/>
  <tile gid="0"/>
  <tile gid="0"/>
  <tile gid="0"/>
  <tile gid="0"/>
  <tile gid="0"/>
  <tile gid="0"/>
  <tile gid="0"/>
  <tile gid="0"/>
  <tile gid="0"/>
  <tile gid="0"/>
  <tile gid="0"/>
  <tile gid="0"/>
  <tile gid="0"/>
  <tile gid="0"/>
  <tile gid="0"/>
  <tile gid="0"/>
  <tile gid="0"/>
  <tile gid="0"/>
  <tile gid="0"/>
  <tile gid="0"/>
  <tile gid="0"/>
  <tile gid="0"/>
  <tile gid="0"/>
  <tile gid="0"/>
  <tile gid="0"/>
  <tile gid="0"/>
  <tile gid="0"/>
  <tile gid="0"/>
  <tile gid="0"/>
  <tile gid="0"/>
  <tile gid="0"/>
  <tile gid="0"/>
  <tile gid="0"/>
  <tile gid="0"/>
  <tile gid="0"/>
  <tile gid="0"/>
  <tile gid="0"/>
  <tile gid="0"/>
  <tile gid="0"/>
  <tile gid="0"/>
  <tile gid="0"/>
  <tile gid="0"/>
  <tile gid="0"/>
  <tile gid="0"/>
  <tile gid="0"/>
  <tile gid="0"/>
  <tile gid="0"/>
  <tile gid="0"/>
  <tile gid="0"/>
  <tile gid="0"/>
  <tile gid="0"/>
  <tile gid="0"/>
  <tile gid="0"/>
  <tile gid="0"/>
  <tile gid="0"/>
  <tile gid="0"/>
  <tile gid="0"/>
  <tile gid="0"/>
  <tile gid="0"/>
  <tile gid="0"/>
  <tile gid="0"/>
  <tile gid="0"/>
  <tile gid="0"/>
  <tile gid="0"/>
  <tile gid="0"/>
  <tile gid="0"/>
  <tile gid="0"/>
  <tile gid="0"/>
  <tile gid="0"/>
  <tile gid="0"/>
  <tile gid="0"/>
  <tile gid="0"/>
  <tile gid="0"/>
  <tile gid="0"/>
  <tile gid="0"/>
  <tile gid="0"/>
  <tile gid="0"/>
  <tile gid="0"/>
  <tile gid="0"/>
  <tile gid="0"/>
  <tile gid="0"/>
  <tile gid="0"/>
  <tile gid="0"/>
  <tile gid="0"/>
  <tile gid="0"/>
  <tile gid="0"/>
  <tile gid="0"/>
  <tile gid="0"/>
  <tile gid="0"/>
  <tile gid="0"/>
  <tile gid="0"/>
  <tile gid="0"/>
  <tile gid="0"/>
  <tile gid="0"/>
  <tile gid="0"/>
  <tile gid="0"/>
  <tile gid="0"/>
  <tile gid="0"/>
  <tile gid="0"/>
  <tile gid="0"/>
  <tile gid="0"/>
  <tile gid="0"/>
  <tile gid="0"/>
  <tile gid="0"/>
  <tile gid="0"/>
  <tile gid="0"/>
  <tile gid="0"/>
  <tile gid="0"/>
  <tile gid="0"/>
  <tile gid="0"/>
  <tile gid="0"/>
  <tile gid="0"/>
  <tile gid="0"/>
  <tile gid="0"/>
  <tile gid="0"/>
  <tile gid="0"/>
  <tile gid="0"/>
  <tile gid="0"/>
  <tile gid="0"/>
  <tile gid="0"/>
  <tile gid="0"/>
  <tile gid="0"/>
  <tile gid="0"/>
  <tile gid="0"/>
  <tile gid="0"/>
  <tile gid="0"/>
  <tile gid="0"/>
  <tile gid="0"/>
  <tile gid="0"/>
  <tile gid="0"/>
  <tile gid="0"/>
  <tile gid="0"/>
  <tile gid="0"/>
  <tile gid="0"/>
  <tile gid="0"/>
  <tile gid="0"/>
  <tile gid="0"/>
  <tile gid="0"/>
  <tile gid="0"/>
  <tile gid="0"/>
  <tile gid="0"/>
  <tile gid="0"/>
  <tile gid="0"/>
  <tile gid="0"/>
  <tile gid="0"/>
  <tile gid="0"/>
  <tile gid="0"/>
  <tile gid="0"/>
  <tile gid="0"/>
  <tile gid="0"/>
  <tile gid="0"/>
  <tile gid="0"/>
  <tile gid="0"/>
  <tile gid="0"/>
  <tile gid="0"/>
  <tile gid="0"/>
  <tile gid="0"/>
  <tile gid="0"/>
  <tile gid="0"/>
  <tile gid="0"/>
  <tile gid="0"/>
  <tile gid="0"/>
  <tile gid="0"/>
  <tile gid="0"/>
  <tile gid="0"/>
  <tile gid="0"/>
  <tile gid="0"/>
  <tile gid="0"/>
  <tile gid="0"/>
  <tile gid="0"/>
  <tile gid="0"/>
  <tile gid="0"/>
  <tile gid="0"/>
  <tile gid="0"/>
  <tile gid="0"/>
  <tile gid="0"/>
  <tile gid="0"/>
  <tile gid="0"/>
  <tile gid="0"/>
  <tile gid="0"/>
  <tile gid="0"/>
  <tile gid="0"/>
  <tile gid="0"/>
  <tile gid="0"/>
  <tile gid="0"/>
  <tile gid="0"/>
  <tile gid="0"/>
  <tile gid="0"/>
  <tile gid="0"/>
  <tile gid="0"/>
  <tile gid="0"/>
  <tile gid="0"/>
  <tile gid="0"/>
  <tile gid="0"/>
  <tile gid="0"/>
  <tile gid="0"/>
  <tile gid="0"/>
  <tile gid="0"/>
  <tile gid="0"/>
  <tile gid="0"/>
  <tile gid="0"/>
  <tile gid="0"/>
  <tile gid="0"/>
  <tile gid="0"/>
  <tile gid="0"/>
  <tile gid="0"/>
  <tile gid="0"/>
  <tile gid="0"/>
  <tile gid="0"/>
  <tile gid="0"/>
  <tile gid="0"/>
  <tile gid="0"/>
  <tile gid="0"/>
  <tile gid="0"/>
  <tile gid="0"/>
  <tile gid="0"/>
  <tile gid="0"/>
  <tile gid="0"/>
  <tile gid="0"/>
  <tile gid="0"/>
  <tile gid="0"/>
  <tile gid="0"/>
  <tile gid="0"/>
  <tile gid="0"/>
  <tile gid="0"/>
  <tile gid="0"/>
  <tile gid="0"/>
  <tile gid="0"/>
  <tile gid="0"/>
  <tile gid="0"/>
  <tile gid="0"/>
  <tile gid="0"/>
  <tile gid="0"/>
  <tile gid="0"/>
  <tile gid="0"/>
  <tile gid="0"/>
  <tile gid="0"/>
  <tile gid="0"/>
  <tile gid="0"/>
  <tile gid="0"/>
  <tile gid="0"/>
  <tile gid="0"/>
  <tile gid="0"/>
  <tile gid="0"/>
  <tile gid="0"/>
  <tile gid="0"/>
  <tile gid="0"/>
  <tile gid="0"/>
  <tile gid="0"/>
  <tile gid="0"/>
  <tile gid="0"/>
  <tile gid="0"/>
  <tile gid="0"/>
  <tile gid="0"/>
  <tile gid="0"/>
  <tile gid="0"/>
  <tile gid="0"/>
  <tile gid="0"/>
  <tile gid="0"/>
  <tile gid="0"/>
  <tile gid="0"/>
  <tile gid="0"/>
  <tile gid="0"/>
  <tile gid="0"/>
  <tile gid="0"/>
  <tile gid="0"/>
  <tile gid="0"/>
  <tile gid="0"/>
  <tile gid="0"/>
  <tile gid="0"/>
  <tile gid="0"/>
  <tile gid="0"/>
  <tile gid="0"/>
  <tile gid="0"/>
  <tile gid="0"/>
  <tile gid="0"/>
  <tile gid="0"/>
  <tile gid="0"/>
  <tile gid="0"/>
  <tile gid="0"/>
  <tile gid="0"/>
  <tile gid="0"/>
  <tile gid="0"/>
  <tile gid="0"/>
  <tile gid="0"/>
  <tile gid="0"/>
  <tile gid="0"/>
  <tile gid="0"/>
  <tile gid="0"/>
  <tile gid="0"/>
  <tile gid="0"/>
  <tile gid="0"/>
  <tile gid="0"/>
  <tile gid="0"/>
  <tile gid="0"/>
  <tile gid="0"/>
  <tile gid="0"/>
  <tile gid="0"/>
  <tile gid="0"/>
  <tile gid="0"/>
  <tile gid="0"/>
  <tile gid="0"/>
  <tile gid="0"/>
  <tile gid="0"/>
  <tile gid="0"/>
  <tile gid="0"/>
  <tile gid="0"/>
  <tile gid="0"/>
  <tile gid="0"/>
  <tile gid="0"/>
  <tile gid="0"/>
  <tile gid="0"/>
  <tile gid="0"/>
  <tile gid="0"/>
  <tile gid="0"/>
  <tile gid="0"/>
  <tile gid="0"/>
  <tile gid="0"/>
  <tile gid="0"/>
  <tile gid="0"/>
  <tile gid="0"/>
  <tile gid="0"/>
  <tile gid="0"/>
  <tile gid="0"/>
  <tile gid="0"/>
  <tile gid="0"/>
  <tile gid="0"/>
  <tile gid="0"/>
  <tile gid="0"/>
  <tile gid="0"/>
  <tile gid="0"/>
  <tile gid="0"/>
  <tile gid="0"/>
  <tile gid="0"/>
  <tile gid="0"/>
  <tile gid="0"/>
  <tile gid="0"/>
  <tile gid="0"/>
  <tile gid="0"/>
  <tile gid="0"/>
  <tile gid="0"/>
  <tile gid="0"/>
  <tile gid="0"/>
  <tile gid="0"/>
  <tile gid="0"/>
  <tile gid="0"/>
  <tile gid="0"/>
  <tile gid="0"/>
  <tile gid="0"/>
  <tile gid="0"/>
  <tile gid="0"/>
  <tile gid="0"/>
  <tile gid="0"/>
  <tile gid="0"/>
  <tile gid="0"/>
  <tile gid="0"/>
  <tile gid="0"/>
  <tile gid="0"/>
  <tile gid="0"/>
  <tile gid="0"/>
  <tile gid="0"/>
  <tile gid="0"/>
  <tile gid="0"/>
  <tile gid="0"/>
  <tile gid="0"/>
  <tile gid="0"/>
  <tile gid="0"/>
  <tile gid="65"/>
  <tile gid="0"/>
  <tile gid="0"/>
  <tile gid="0"/>
  <tile gid="0"/>
  <tile gid="0"/>
  <tile gid="0"/>
  <tile gid="0"/>
  <tile gid="0"/>
  <tile gid="0"/>
  <tile gid="0"/>
  <tile gid="0"/>
  <tile gid="0"/>
  <tile gid="0"/>
  <tile gid="0"/>
  <tile gid="0"/>
  <tile gid="0"/>
  <tile gid="0"/>
  <tile gid="0"/>
  <tile gid="0"/>
  <tile gid="0"/>
  <tile gid="0"/>
  <tile gid="0"/>
  <tile gid="0"/>
  <tile gid="0"/>
  <tile gid="0"/>
  <tile gid="0"/>
  <tile gid="0"/>
  <tile gid="0"/>
  <tile gid="0"/>
  <tile gid="0"/>
  <tile gid="0"/>
  <tile gid="0"/>
  <tile gid="0"/>
  <tile gid="0"/>
  <tile gid="0"/>
  <tile gid="0"/>
  <tile gid="0"/>
  <tile gid="0"/>
  <tile gid="0"/>
  <tile gid="0"/>
  <tile gid="0"/>
  <tile gid="0"/>
  <tile gid="0"/>
  <tile gid="0"/>
  <tile gid="0"/>
  <tile gid="0"/>
  <tile gid="0"/>
  <tile gid="0"/>
  <tile gid="0"/>
  <tile gid="0"/>
  <tile gid="0"/>
  <tile gid="0"/>
  <tile gid="0"/>
  <tile gid="0"/>
  <tile gid="0"/>
  <tile gid="0"/>
  <tile gid="0"/>
  <tile gid="0"/>
  <tile gid="0"/>
  <tile gid="0"/>
  <tile gid="0"/>
  <tile gid="0"/>
  <tile gid="0"/>
  <tile gid="0"/>
  <tile gid="0"/>
  <tile gid="0"/>
  <tile gid="0"/>
  <tile gid="0"/>
  <tile gid="0"/>
  <tile gid="0"/>
  <tile gid="0"/>
  <tile gid="0"/>
  <tile gid="0"/>
  <tile gid="0"/>
  <tile gid="0"/>
  <tile gid="0"/>
  <tile gid="0"/>
  <tile gid="0"/>
  <tile gid="0"/>
  <tile gid="0"/>
  <tile gid="0"/>
  <tile gid="0"/>
  <tile gid="0"/>
  <tile gid="0"/>
  <tile gid="0"/>
  <tile gid="0"/>
  <tile gid="0"/>
  <tile gid="0"/>
  <tile gid="0"/>
  <tile gid="0"/>
  <tile gid="0"/>
  <tile gid="0"/>
  <tile gid="0"/>
  <tile gid="0"/>
  <tile gid="0"/>
  <tile gid="0"/>
  <tile gid="0"/>
  <tile gid="0"/>
  <tile gid="0"/>
  <tile gid="0"/>
  <tile gid="0"/>
  <tile gid="0"/>
  <tile gid="0"/>
  <tile gid="0"/>
  <tile gid="0"/>
  <tile gid="0"/>
  <tile gid="0"/>
  <tile gid="0"/>
  <tile gid="0"/>
  <tile gid="0"/>
  <tile gid="0"/>
  <tile gid="0"/>
  <tile gid="0"/>
  <tile gid="0"/>
  <tile gid="0"/>
  <tile gid="0"/>
  <tile gid="0"/>
  <tile gid="0"/>
  <tile gid="0"/>
  <tile gid="0"/>
  <tile gid="0"/>
  <tile gid="0"/>
  <tile gid="0"/>
  <tile gid="0"/>
  <tile gid="0"/>
  <tile gid="0"/>
  <tile gid="0"/>
  <tile gid="0"/>
  <tile gid="0"/>
  <tile gid="0"/>
  <tile gid="0"/>
  <tile gid="0"/>
  <tile gid="0"/>
  <tile gid="0"/>
  <tile gid="0"/>
  <tile gid="0"/>
  <tile gid="0"/>
  <tile gid="0"/>
  <tile gid="0"/>
  <tile gid="0"/>
  <tile gid="0"/>
  <tile gid="0"/>
  <tile gid="0"/>
  <tile gid="0"/>
  <tile gid="0"/>
  <tile gid="0"/>
  <tile gid="0"/>
  <tile gid="0"/>
  <tile gid="0"/>
  <tile gid="0"/>
  <tile gid="0"/>
  <tile gid="0"/>
  <tile gid="0"/>
  <tile gid="0"/>
  <tile gid="0"/>
  <tile gid="0"/>
  <tile gid="0"/>
  <tile gid="0"/>
  <tile gid="0"/>
  <tile gid="0"/>
  <tile gid="0"/>
  <tile gid="0"/>
  <tile gid="0"/>
  <tile gid="0"/>
  <tile gid="0"/>
  <tile gid="0"/>
  <tile gid="0"/>
  <tile gid="0"/>
  <tile gid="0"/>
  <tile gid="0"/>
  <tile gid="0"/>
  <tile gid="0"/>
  <tile gid="0"/>
  <tile gid="0"/>
  <tile gid="0"/>
  <tile gid="0"/>
  <tile gid="0"/>
  <tile gid="0"/>
  <tile gid="0"/>
  <tile gid="0"/>
  <tile gid="0"/>
  <tile gid="0"/>
  <tile gid="0"/>
  <tile gid="0"/>
  <tile gid="0"/>
  <tile gid="0"/>
  <tile gid="0"/>
  <tile gid="0"/>
  <tile gid="0"/>
  <tile gid="0"/>
  <tile gid="0"/>
  <tile gid="0"/>
  <tile gid="0"/>
  <tile gid="0"/>
  <tile gid="0"/>
  <tile gid="0"/>
  <tile gid="0"/>
  <tile gid="0"/>
  <tile gid="0"/>
  <tile gid="0"/>
  <tile gid="0"/>
  <tile gid="0"/>
  <tile gid="0"/>
  <tile gid="0"/>
  <tile gid="0"/>
  <tile gid="0"/>
  <tile gid="0"/>
  <tile gid="0"/>
  <tile gid="0"/>
  <tile gid="0"/>
  <tile gid="0"/>
  <tile gid="0"/>
  <tile gid="0"/>
  <tile gid="0"/>
  <tile gid="0"/>
  <tile gid="0"/>
  <tile gid="0"/>
  <tile gid="0"/>
  <tile gid="0"/>
  <tile gid="0"/>
  <tile gid="0"/>
  <tile gid="0"/>
  <tile gid="0"/>
  <tile gid="0"/>
  <tile gid="0"/>
  <tile gid="0"/>
  <tile gid="0"/>
  <tile gid="0"/>
  <tile gid="0"/>
  <tile gid="0"/>
  <tile gid="0"/>
  <tile gid="0"/>
  <tile gid="0"/>
  <tile gid="0"/>
  <tile gid="0"/>
  <tile gid="0"/>
  <tile gid="0"/>
  <tile gid="0"/>
  <tile gid="0"/>
  <tile gid="0"/>
  <tile gid="0"/>
  <tile gid="0"/>
  <tile gid="0"/>
  <tile gid="0"/>
  <tile gid="0"/>
  <tile gid="0"/>
  <tile gid="0"/>
  <tile gid="0"/>
  <tile gid="0"/>
  <tile gid="0"/>
  <tile gid="0"/>
  <tile gid="0"/>
  <tile gid="0"/>
  <tile gid="0"/>
  <tile gid="0"/>
  <tile gid="0"/>
  <tile gid="0"/>
  <tile gid="0"/>
  <tile gid="0"/>
  <tile gid="0"/>
  <tile gid="0"/>
  <tile gid="0"/>
  <tile gid="0"/>
  <tile gid="0"/>
  <tile gid="0"/>
  <tile gid="0"/>
  <tile gid="0"/>
  <tile gid="0"/>
  <tile gid="0"/>
  <tile gid="0"/>
  <tile gid="0"/>
  <tile gid="0"/>
  <tile gid="0"/>
  <tile gid="0"/>
  <tile gid="0"/>
  <tile gid="0"/>
  <tile gid="0"/>
  <tile gid="0"/>
  <tile gid="0"/>
  <tile gid="0"/>
  <tile gid="0"/>
  <tile gid="0"/>
  <tile gid="0"/>
  <tile gid="0"/>
  <tile gid="0"/>
  <tile gid="0"/>
  <tile gid="0"/>
  <tile gid="0"/>
  <tile gid="0"/>
  <tile gid="0"/>
  <tile gid="0"/>
  <tile gid="0"/>
  </data>
 </layer>
</map>
