<?xml version="1.0" encoding="UTF-8"?>
<map version="1.0" orientation="orthogonal" width="32" height="30" tilewidth="16" tileheight="16">
 <tileset firstgid="1" name="0E000F10" tilewidth="16" tileheight="16">
  <image source="0E000F10.png" trans="ffffff"/>
 </tileset>
 <layer name="Tile Layer 1" width="32" height="30">
  <properties>
   <property name="Main" value =""/>
  </properties>
  <data>
  <tile gid="933"/>
  <tile gid="933"/>
  <tile gid="807"/>
  <tile gid="807"/>
  <tile gid="803"/>
  <tile gid="954"/>
  <tile gid="986"/>
  <tile gid="949"/>
  <tile gid="972"/>
  <tile gid="193"/>
  <tile gid="356"/>
  <tile gid="194"/>
  <tile gid="420"/>
  <tile gid="417"/>
  <tile gid="419"/>
  <tile gid="194"/>
  <tile gid="194"/>
  <tile gid="194"/>
  <tile gid="420"/>
  <tile gid="561"/>
  <tile gid="420"/>
  <tile gid="504"/>
  <tile gid="420"/>
  <tile gid="954"/>
  <tile gid="1013"/>
  <tile gid="194"/>
  <tile gid="193"/>
  <tile gid="194"/>
  <tile gid="193"/>
  <tile gid="194"/>
  <tile gid="226"/>
  <tile gid="226"/>
  <tile gid="933"/>
  <tile gid="803"/>
  <tile gid="980"/>
  <tile gid="917"/>
  <tile gid="980"/>
  <tile gid="986"/>
  <tile gid="955"/>
  <tile gid="802"/>
  <tile gid="431"/>
  <tile gid="420"/>
  <tile gid="193"/>
  <tile gid="356"/>
  <tile gid="40"/>
  <tile gid="451"/>
  <tile gid="452"/>
  <tile gid="417"/>
  <tile gid="419"/>
  <tile gid="451"/>
  <tile gid="452"/>
  <tile gid="193"/>
  <tile gid="356"/>
  <tile gid="533"/>
  <tile gid="561"/>
  <tile gid="948"/>
  <tile gid="981"/>
  <tile gid="193"/>
  <tile gid="194"/>
  <tile gid="980"/>
  <tile gid="981"/>
  <tile gid="226"/>
  <tile gid="225"/>
  <tile gid="226"/>
  <tile gid="803"/>
  <tile gid="980"/>
  <tile gid="986"/>
  <tile gid="986"/>
  <tile gid="986"/>
  <tile gid="1016"/>
  <tile gid="949"/>
  <tile gid="809"/>
  <tile gid="876"/>
  <tile gid="193"/>
  <tile gid="7"/>
  <tile gid="79"/>
  <tile gid="73"/>
  <tile gid="483"/>
  <tile gid="484"/>
  <tile gid="225"/>
  <tile gid="225"/>
  <tile gid="483"/>
  <tile gid="484"/>
  <tile gid="420"/>
  <tile gid="225"/>
  <tile gid="420"/>
  <tile gid="193"/>
  <tile gid="194"/>
  <tile gid="948"/>
  <tile gid="981"/>
  <tile gid="980"/>
  <tile gid="1013"/>
  <tile gid="948"/>
  <tile gid="984"/>
  <tile gid="984"/>
  <tile gid="984"/>
  <tile gid="980"/>
  <tile gid="986"/>
  <tile gid="986"/>
  <tile gid="986"/>
  <tile gid="1013"/>
  <tile gid="810"/>
  <tile gid="901"/>
  <tile gid="804"/>
  <tile gid="225"/>
  <tile gid="7"/>
  <tile gid="79"/>
  <tile gid="417"/>
  <tile gid="419"/>
  <tile gid="420"/>
  <tile gid="193"/>
  <tile gid="417"/>
  <tile gid="419"/>
  <tile gid="80"/>
  <tile gid="420"/>
  <tile gid="73"/>
  <tile gid="356"/>
  <tile gid="506"/>
  <tile gid="225"/>
  <tile gid="193"/>
  <tile gid="193"/>
  <tile gid="948"/>
  <tile gid="1013"/>
  <tile gid="194"/>
  <tile gid="193"/>
  <tile gid="954"/>
  <tile gid="986"/>
  <tile gid="1016"/>
  <tile gid="986"/>
  <tile gid="986"/>
  <tile gid="986"/>
  <tile gid="1013"/>
  <tile gid="810"/>
  <tile gid="901"/>
  <tile gid="803"/>
  <tile gid="27"/>
  <tile gid="28"/>
  <tile gid="29"/>
  <tile gid="79"/>
  <tile gid="420"/>
  <tile gid="226"/>
  <tile gid="451"/>
  <tile gid="452"/>
  <tile gid="112"/>
  <tile gid="225"/>
  <tile gid="226"/>
  <tile gid="78"/>
  <tile gid="78"/>
  <tile gid="420"/>
  <tile gid="8"/>
  <tile gid="226"/>
  <tile gid="561"/>
  <tile gid="467"/>
  <tile gid="193"/>
  <tile gid="356"/>
  <tile gid="18"/>
  <tile gid="19"/>
  <tile gid="954"/>
  <tile gid="923"/>
  <tile gid="226"/>
  <tile gid="986"/>
  <tile gid="986"/>
  <tile gid="923"/>
  <tile gid="802"/>
  <tile gid="901"/>
  <tile gid="803"/>
  <tile gid="420"/>
  <tile gid="59"/>
  <tile gid="60"/>
  <tile gid="61"/>
  <tile gid="40"/>
  <tile gid="194"/>
  <tile gid="356"/>
  <tile gid="483"/>
  <tile gid="484"/>
  <tile gid="417"/>
  <tile gid="419"/>
  <tile gid="226"/>
  <tile gid="420"/>
  <tile gid="356"/>
  <tile gid="226"/>
  <tile gid="78"/>
  <tile gid="420"/>
  <tile gid="112"/>
  <tile gid="194"/>
  <tile gid="225"/>
  <tile gid="193"/>
  <tile gid="17"/>
  <tile gid="17"/>
  <tile gid="954"/>
  <tile gid="1013"/>
  <tile gid="36"/>
  <tile gid="986"/>
  <tile gid="986"/>
  <tile gid="955"/>
  <tile gid="869"/>
  <tile gid="899"/>
  <tile gid="420"/>
  <tile gid="356"/>
  <tile gid="91"/>
  <tile gid="92"/>
  <tile gid="93"/>
  <tile gid="194"/>
  <tile gid="420"/>
  <tile gid="802"/>
  <tile gid="899"/>
  <tile gid="812"/>
  <tile gid="995"/>
  <tile gid="812"/>
  <tile gid="899"/>
  <tile gid="804"/>
  <tile gid="420"/>
  <tile gid="20"/>
  <tile gid="420"/>
  <tile gid="106"/>
  <tile gid="8"/>
  <tile gid="77"/>
  <tile gid="226"/>
  <tile gid="193"/>
  <tile gid="194"/>
  <tile gid="980"/>
  <tile gid="923"/>
  <tile gid="67"/>
  <tile gid="129"/>
  <tile gid="948"/>
  <tile gid="986"/>
  <tile gid="923"/>
  <tile gid="869"/>
  <tile gid="931"/>
  <tile gid="804"/>
  <tile gid="193"/>
  <tile gid="451"/>
  <tile gid="452"/>
  <tile gid="417"/>
  <tile gid="419"/>
  <tile gid="802"/>
  <tile gid="962"/>
  <tile gid="901"/>
  <tile gid="964"/>
  <tile gid="962"/>
  <tile gid="995"/>
  <tile gid="808"/>
  <tile gid="98"/>
  <tile gid="99"/>
  <tile gid="972"/>
  <tile gid="356"/>
  <tile gid="79"/>
  <tile gid="74"/>
  <tile gid="40"/>
  <tile gid="194"/>
  <tile gid="225"/>
  <tile gid="980"/>
  <tile gid="986"/>
  <tile gid="1013"/>
  <tile gid="194"/>
  <tile gid="67"/>
  <tile gid="811"/>
  <tile gid="948"/>
  <tile gid="955"/>
  <tile gid="809"/>
  <tile gid="876"/>
  <tile gid="417"/>
  <tile gid="419"/>
  <tile gid="483"/>
  <tile gid="484"/>
  <tile gid="420"/>
  <tile gid="802"/>
  <tile gid="962"/>
  <tile gid="901"/>
  <tile gid="399"/>
  <tile gid="465"/>
  <tile gid="465"/>
  <tile gid="465"/>
  <tile gid="995"/>
  <tile gid="811"/>
  <tile gid="916"/>
  <tile gid="917"/>
  <tile gid="972"/>
  <tile gid="420"/>
  <tile gid="420"/>
  <tile gid="194"/>
  <tile gid="503"/>
  <tile gid="194"/>
  <tile gid="954"/>
  <tile gid="923"/>
  <tile gid="226"/>
  <tile gid="130"/>
  <tile gid="193"/>
  <tile gid="933"/>
  <tile gid="804"/>
  <tile gid="954"/>
  <tile gid="981"/>
  <tile gid="972"/>
  <tile gid="420"/>
  <tile gid="451"/>
  <tile gid="452"/>
  <tile gid="420"/>
  <tile gid="802"/>
  <tile gid="962"/>
  <tile gid="901"/>
  <tile gid="803"/>
  <tile gid="20"/>
  <tile gid="20"/>
  <tile gid="20"/>
  <tile gid="20"/>
  <tile gid="809"/>
  <tile gid="995"/>
  <tile gid="948"/>
  <tile gid="923"/>
  <tile gid="972"/>
  <tile gid="356"/>
  <tile gid="504"/>
  <tile gid="194"/>
  <tile gid="194"/>
  <tile gid="980"/>
  <tile gid="1016"/>
  <tile gid="1013"/>
  <tile gid="129"/>
  <tile gid="226"/>
  <tile gid="225"/>
  <tile gid="808"/>
  <tile gid="193"/>
  <tile gid="606"/>
  <tile gid="608"/>
  <tile gid="20"/>
  <tile gid="420"/>
  <tile gid="483"/>
  <tile gid="484"/>
  <tile gid="802"/>
  <tile gid="962"/>
  <tile gid="901"/>
  <tile gid="803"/>
  <tile gid="225"/>
  <tile gid="173"/>
  <tile gid="173"/>
  <tile gid="173"/>
  <tile gid="173"/>
  <tile gid="194"/>
  <tile gid="869"/>
  <tile gid="431"/>
  <tile gid="952"/>
  <tile gid="98"/>
  <tile gid="99"/>
  <tile gid="420"/>
  <tile gid="194"/>
  <tile gid="226"/>
  <tile gid="952"/>
  <tile gid="129"/>
  <tile gid="130"/>
  <tile gid="226"/>
  <tile gid="194"/>
  <tile gid="290"/>
  <tile gid="803"/>
  <tile gid="193"/>
  <tile gid="954"/>
  <tile gid="923"/>
  <tile gid="972"/>
  <tile gid="417"/>
  <tile gid="419"/>
  <tile gid="802"/>
  <tile gid="962"/>
  <tile gid="962"/>
  <tile gid="808"/>
  <tile gid="420"/>
  <tile gid="194"/>
  <tile gid="80"/>
  <tile gid="73"/>
  <tile gid="73"/>
  <tile gid="41"/>
  <tile gid="226"/>
  <tile gid="809"/>
  <tile gid="876"/>
  <tile gid="952"/>
  <tile gid="972"/>
  <tile gid="503"/>
  <tile gid="495"/>
  <tile gid="194"/>
  <tile gid="225"/>
  <tile gid="952"/>
  <tile gid="193"/>
  <tile gid="290"/>
  <tile gid="226"/>
  <tile gid="129"/>
  <tile gid="225"/>
  <tile gid="193"/>
  <tile gid="225"/>
  <tile gid="948"/>
  <tile gid="986"/>
  <tile gid="981"/>
  <tile gid="802"/>
  <tile gid="962"/>
  <tile gid="962"/>
  <tile gid="962"/>
  <tile gid="901"/>
  <tile gid="808"/>
  <tile gid="916"/>
  <tile gid="917"/>
  <tile gid="226"/>
  <tile gid="39"/>
  <tile gid="79"/>
  <tile gid="105"/>
  <tile gid="495"/>
  <tile gid="467"/>
  <tile gid="972"/>
  <tile gid="952"/>
  <tile gid="972"/>
  <tile gid="225"/>
  <tile gid="226"/>
  <tile gid="194"/>
  <tile gid="193"/>
  <tile gid="952"/>
  <tile gid="129"/>
  <tile gid="130"/>
  <tile gid="194"/>
  <tile gid="225"/>
  <tile gid="226"/>
  <tile gid="506"/>
  <tile gid="194"/>
  <tile gid="226"/>
  <tile gid="954"/>
  <tile gid="923"/>
  <tile gid="869"/>
  <tile gid="962"/>
  <tile gid="962"/>
  <tile gid="901"/>
  <tile gid="807"/>
  <tile gid="803"/>
  <tile gid="948"/>
  <tile gid="949"/>
  <tile gid="7"/>
  <tile gid="73"/>
  <tile gid="79"/>
  <tile gid="40"/>
  <tile gid="193"/>
  <tile gid="193"/>
  <tile gid="972"/>
  <tile gid="948"/>
  <tile gid="982"/>
  <tile gid="982"/>
  <tile gid="600"/>
  <tile gid="982"/>
  <tile gid="982"/>
  <tile gid="949"/>
  <tile gid="193"/>
  <tile gid="194"/>
  <tile gid="226"/>
  <tile gid="504"/>
  <tile gid="467"/>
  <tile gid="193"/>
  <tile gid="193"/>
  <tile gid="194"/>
  <tile gid="954"/>
  <tile gid="923"/>
  <tile gid="809"/>
  <tile gid="465"/>
  <tile gid="876"/>
  <tile gid="803"/>
  <tile gid="503"/>
  <tile gid="495"/>
  <tile gid="468"/>
  <tile gid="495"/>
  <tile gid="106"/>
  <tile gid="79"/>
  <tile gid="9"/>
  <tile gid="504"/>
  <tile gid="533"/>
  <tile gid="467"/>
  <tile gid="193"/>
  <tile gid="194"/>
  <tile gid="193"/>
  <tile gid="420"/>
  <tile gid="193"/>
  <tile gid="194"/>
  <tile gid="194"/>
  <tile gid="130"/>
  <tile gid="193"/>
  <tile gid="194"/>
  <tile gid="225"/>
  <tile gid="290"/>
  <tile gid="225"/>
  <tile gid="193"/>
  <tile gid="194"/>
  <tile gid="226"/>
  <tile gid="606"/>
  <tile gid="608"/>
  <tile gid="194"/>
  <tile gid="356"/>
  <tile gid="193"/>
  <tile gid="77"/>
  <tile gid="77"/>
  <tile gid="226"/>
  <tile gid="194"/>
  <tile gid="193"/>
  <tile gid="106"/>
  <tile gid="9"/>
  <tile gid="193"/>
  <tile gid="226"/>
  <tile gid="226"/>
  <tile gid="503"/>
  <tile gid="561"/>
  <tile gid="193"/>
  <tile gid="193"/>
  <tile gid="417"/>
  <tile gid="419"/>
  <tile gid="226"/>
  <tile gid="193"/>
  <tile gid="80"/>
  <tile gid="8"/>
  <tile gid="77"/>
  <tile gid="75"/>
  <tile gid="76"/>
  <tile gid="77"/>
  <tile gid="193"/>
  <tile gid="194"/>
  <tile gid="226"/>
  <tile gid="948"/>
  <tile gid="923"/>
  <tile gid="420"/>
  <tile gid="495"/>
  <tile gid="467"/>
  <tile gid="420"/>
  <tile gid="74"/>
  <tile gid="8"/>
  <tile gid="77"/>
  <tile gid="7"/>
  <tile gid="79"/>
  <tile gid="73"/>
  <tile gid="73"/>
  <tile gid="420"/>
  <tile gid="75"/>
  <tile gid="76"/>
  <tile gid="226"/>
  <tile gid="226"/>
  <tile gid="451"/>
  <tile gid="452"/>
  <tile gid="356"/>
  <tile gid="80"/>
  <tile gid="8"/>
  <tile gid="194"/>
  <tile gid="10"/>
  <tile gid="79"/>
  <tile gid="79"/>
  <tile gid="74"/>
  <tile gid="105"/>
  <tile gid="193"/>
  <tile gid="20"/>
  <tile gid="226"/>
  <tile gid="980"/>
  <tile gid="949"/>
  <tile gid="193"/>
  <tile gid="193"/>
  <tile gid="193"/>
  <tile gid="417"/>
  <tile gid="419"/>
  <tile gid="356"/>
  <tile gid="21"/>
  <tile gid="22"/>
  <tile gid="23"/>
  <tile gid="420"/>
  <tile gid="79"/>
  <tile gid="417"/>
  <tile gid="419"/>
  <tile gid="417"/>
  <tile gid="419"/>
  <tile gid="420"/>
  <tile gid="483"/>
  <tile gid="484"/>
  <tile gid="225"/>
  <tile gid="42"/>
  <tile gid="105"/>
  <tile gid="194"/>
  <tile gid="226"/>
  <tile gid="40"/>
  <tile gid="78"/>
  <tile gid="226"/>
  <tile gid="226"/>
  <tile gid="193"/>
  <tile gid="20"/>
  <tile gid="980"/>
  <tile gid="949"/>
  <tile gid="226"/>
  <tile gid="225"/>
  <tile gid="20"/>
  <tile gid="193"/>
  <tile gid="194"/>
  <tile gid="194"/>
  <tile gid="420"/>
  <tile gid="85"/>
  <tile gid="86"/>
  <tile gid="87"/>
  <tile gid="193"/>
  <tile gid="106"/>
  <tile gid="40"/>
  <tile gid="106"/>
  <tile gid="79"/>
  <tile gid="112"/>
  <tile gid="193"/>
  <tile gid="193"/>
  <tile gid="42"/>
  <tile gid="73"/>
  <tile gid="79"/>
  <tile gid="40"/>
  <tile gid="193"/>
  <tile gid="194"/>
  <tile gid="226"/>
  <tile gid="225"/>
  <tile gid="226"/>
  <tile gid="194"/>
  <tile gid="193"/>
  <tile gid="980"/>
  <tile gid="923"/>
  <tile gid="194"/>
  <tile gid="503"/>
  <tile gid="495"/>
  <tile gid="173"/>
  <tile gid="193"/>
  <tile gid="417"/>
  <tile gid="419"/>
  <tile gid="225"/>
  <tile gid="226"/>
  <tile gid="296"/>
  <tile gid="193"/>
  <tile gid="80"/>
  <tile gid="9"/>
  <tile gid="225"/>
  <tile gid="78"/>
  <tile gid="39"/>
  <tile gid="73"/>
  <tile gid="8"/>
  <tile gid="7"/>
  <tile gid="79"/>
  <tile gid="79"/>
  <tile gid="105"/>
  <tile gid="193"/>
  <tile gid="193"/>
  <tile gid="194"/>
  <tile gid="504"/>
  <tile gid="533"/>
  <tile gid="467"/>
  <tile gid="226"/>
  <tile gid="193"/>
  <tile gid="954"/>
  <tile gid="923"/>
  <tile gid="417"/>
  <tile gid="419"/>
  <tile gid="193"/>
  <tile gid="7"/>
  <tile gid="420"/>
  <tile gid="8"/>
  <tile gid="194"/>
  <tile gid="225"/>
  <tile gid="7"/>
  <tile gid="112"/>
  <tile gid="130"/>
  <tile gid="225"/>
  <tile gid="226"/>
  <tile gid="130"/>
  <tile gid="226"/>
  <tile gid="129"/>
  <tile gid="417"/>
  <tile gid="419"/>
  <tile gid="79"/>
  <tile gid="79"/>
  <tile gid="74"/>
  <tile gid="40"/>
  <tile gid="193"/>
  <tile gid="503"/>
  <tile gid="495"/>
  <tile gid="467"/>
  <tile gid="226"/>
  <tile gid="226"/>
  <tile gid="760"/>
  <tile gid="759"/>
  <tile gid="954"/>
  <tile gid="923"/>
  <tile gid="193"/>
  <tile gid="194"/>
  <tile gid="417"/>
  <tile gid="419"/>
  <tile gid="420"/>
  <tile gid="10"/>
  <tile gid="73"/>
  <tile gid="73"/>
  <tile gid="79"/>
  <tile gid="8"/>
  <tile gid="226"/>
  <tile gid="503"/>
  <tile gid="495"/>
  <tile gid="467"/>
  <tile gid="258"/>
  <tile gid="420"/>
  <tile gid="356"/>
  <tile gid="106"/>
  <tile gid="79"/>
  <tile gid="105"/>
  <tile gid="194"/>
  <tile gid="226"/>
  <tile gid="504"/>
  <tile gid="494"/>
  <tile gid="193"/>
  <tile gid="194"/>
  <tile gid="760"/>
  <tile gid="859"/>
  <tile gid="853"/>
  <tile gid="853"/>
  <tile gid="915"/>
  <tile gid="915"/>
  <tile gid="225"/>
  <tile gid="226"/>
  <tile gid="470"/>
  <tile gid="534"/>
  <tile gid="194"/>
  <tile gid="193"/>
  <tile gid="107"/>
  <tile gid="108"/>
  <tile gid="39"/>
  <tile gid="74"/>
  <tile gid="112"/>
  <tile gid="194"/>
  <tile gid="258"/>
  <tile gid="225"/>
  <tile gid="193"/>
  <tile gid="194"/>
  <tile gid="194"/>
  <tile gid="39"/>
  <tile gid="79"/>
  <tile gid="20"/>
  <tile gid="226"/>
  <tile gid="533"/>
  <tile gid="495"/>
  <tile gid="467"/>
  <tile gid="194"/>
  <tile gid="760"/>
  <tile gid="853"/>
  <tile gid="853"/>
  <tile gid="853"/>
  <tile gid="856"/>
  <tile gid="853"/>
  <tile gid="793"/>
  <tile gid="225"/>
  <tile gid="534"/>
  <tile gid="505"/>
  <tile gid="20"/>
  <tile gid="226"/>
  <tile gid="225"/>
  <tile gid="193"/>
  <tile gid="194"/>
  <tile gid="471"/>
  <tile gid="561"/>
  <tile gid="225"/>
  <tile gid="258"/>
  <tile gid="226"/>
  <tile gid="130"/>
  <tile gid="129"/>
  <tile gid="226"/>
  <tile gid="258"/>
  <tile gid="80"/>
  <tile gid="9"/>
  <tile gid="226"/>
  <tile gid="495"/>
  <tile gid="467"/>
  <tile gid="193"/>
  <tile gid="225"/>
  <tile gid="760"/>
  <tile gid="853"/>
  <tile gid="853"/>
  <tile gid="853"/>
  <tile gid="854"/>
  <tile gid="885"/>
  <tile gid="853"/>
  <tile gid="793"/>
  <tile gid="193"/>
  <tile gid="194"/>
  <tile gid="20"/>
  <tile gid="226"/>
  <tile gid="503"/>
  <tile gid="20"/>
  <tile gid="194"/>
  <tile gid="20"/>
  <tile gid="561"/>
  <tile gid="467"/>
  <tile gid="226"/>
  <tile gid="130"/>
  <tile gid="226"/>
  <tile gid="503"/>
  <tile gid="558"/>
  <tile gid="560"/>
  <tile gid="467"/>
  <tile gid="193"/>
  <tile gid="225"/>
  <tile gid="503"/>
  <tile gid="495"/>
  <tile gid="225"/>
  <tile gid="225"/>
  <tile gid="760"/>
  <tile gid="853"/>
  <tile gid="853"/>
  <tile gid="853"/>
  <tile gid="854"/>
  <tile gid="885"/>
  <tile gid="885"/>
  <tile gid="856"/>
  <tile gid="853"/>
  <tile gid="759"/>
  <tile gid="193"/>
  <tile gid="194"/>
  <tile gid="225"/>
  <tile gid="470"/>
  <tile gid="495"/>
  <tile gid="467"/>
  <tile gid="226"/>
  <tile gid="226"/>
  <tile gid="225"/>
  <tile gid="760"/>
  <tile gid="759"/>
  <tile gid="226"/>
  <tile gid="225"/>
  <tile gid="130"/>
  <tile gid="129"/>
  <tile gid="193"/>
  <tile gid="760"/>
  <tile gid="759"/>
  <tile gid="226"/>
  <tile gid="225"/>
  <tile gid="226"/>
  <tile gid="760"/>
  <tile gid="853"/>
  <tile gid="853"/>
  <tile gid="853"/>
  <tile gid="854"/>
  <tile gid="885"/>
  <tile gid="885"/>
  <tile gid="885"/>
  <tile gid="885"/>
  <tile gid="856"/>
  <tile gid="853"/>
  <tile gid="759"/>
  <tile gid="193"/>
  <tile gid="193"/>
  <tile gid="194"/>
  <tile gid="193"/>
  <tile gid="193"/>
  <tile gid="225"/>
  <tile gid="193"/>
  <tile gid="760"/>
  <tile gid="853"/>
  <tile gid="853"/>
  <tile gid="825"/>
  <tile gid="826"/>
  <tile gid="825"/>
  <tile gid="826"/>
  <tile gid="825"/>
  <tile gid="853"/>
  <tile gid="795"/>
  <tile gid="225"/>
  <tile gid="226"/>
  <tile gid="760"/>
  <tile gid="853"/>
  <tile gid="853"/>
  <tile gid="853"/>
  <tile gid="854"/>
  <tile gid="885"/>
  <tile gid="885"/>
  <tile gid="885"/>
  <tile gid="885"/>
  <tile gid="885"/>
  <tile gid="885"/>
  <tile gid="856"/>
  <tile gid="853"/>
  <tile gid="825"/>
  <tile gid="826"/>
  <tile gid="825"/>
  <tile gid="826"/>
  <tile gid="825"/>
  <tile gid="826"/>
  <tile gid="826"/>
  <tile gid="853"/>
  <tile gid="853"/>
  <tile gid="853"/>
  <tile gid="853"/>
  <tile gid="853"/>
  <tile gid="853"/>
  <tile gid="853"/>
  <tile gid="853"/>
  <tile gid="853"/>
  <tile gid="853"/>
  <tile gid="825"/>
  <tile gid="826"/>
  <tile gid="853"/>
  <tile gid="853"/>
  <tile gid="853"/>
  <tile gid="854"/>
  <tile gid="885"/>
  <tile gid="885"/>
  <tile gid="885"/>
  <tile gid="885"/>
  <tile gid="885"/>
  <tile gid="885"/>
  <tile gid="885"/>
  <tile gid="885"/>
  <tile gid="853"/>
  <tile gid="853"/>
  <tile gid="853"/>
  <tile gid="853"/>
  <tile gid="853"/>
  <tile gid="853"/>
  <tile gid="853"/>
  <tile gid="853"/>
  <tile gid="853"/>
  <tile gid="854"/>
  <tile gid="885"/>
  <tile gid="885"/>
  <tile gid="856"/>
  <tile gid="854"/>
  <tile gid="885"/>
  <tile gid="885"/>
  <tile gid="856"/>
  <tile gid="853"/>
  <tile gid="853"/>
  <tile gid="853"/>
  <tile gid="853"/>
  <tile gid="853"/>
  <tile gid="853"/>
  <tile gid="885"/>
  <tile gid="885"/>
  <tile gid="885"/>
  <tile gid="885"/>
  <tile gid="885"/>
  <tile gid="885"/>
  <tile gid="885"/>
  <tile gid="885"/>
  <tile gid="885"/>
  <tile gid="885"/>
  <tile gid="856"/>
  <tile gid="853"/>
  <tile gid="853"/>
  <tile gid="853"/>
  <tile gid="853"/>
  <tile gid="853"/>
  <tile gid="854"/>
  <tile gid="885"/>
  <tile gid="885"/>
  <tile gid="885"/>
  <tile gid="885"/>
  <tile gid="885"/>
  <tile gid="885"/>
  <tile gid="885"/>
  <tile gid="885"/>
  <tile gid="885"/>
  <tile gid="856"/>
  <tile gid="853"/>
  <tile gid="853"/>
  <tile gid="853"/>
  <tile gid="853"/>
  <tile gid="853"/>
  <tile gid="853"/>
  <tile gid="885"/>
  <tile gid="885"/>
  <tile gid="885"/>
  <tile gid="885"/>
  </data>
 </layer>
</map>
