<?xml version="1.0" encoding="UTF-8"?>
<map version="1.0" orientation="orthogonal" width="32" height="30" tilewidth="16" tileheight="16">
 <tileset firstgid="1" name="42004344" tilewidth="16" tileheight="16">
  <image source="42004344.png" trans="ffffff"/>
 </tileset>
 <layer name="Tile Layer 1" width="32" height="30">
  <properties>
   <property name="Main" value =""/>
  </properties>
  <data>
  <tile gid="846"/>
  <tile gid="815"/>
  <tile gid="848"/>
  <tile gid="815"/>
  <tile gid="815"/>
  <tile gid="914"/>
  <tile gid="561"/>
  <tile gid="402"/>
  <tile gid="402"/>
  <tile gid="402"/>
  <tile gid="306"/>
  <tile gid="306"/>
  <tile gid="306"/>
  <tile gid="306"/>
  <tile gid="402"/>
  <tile gid="402"/>
  <tile gid="560"/>
  <tile gid="944"/>
  <tile gid="846"/>
  <tile gid="944"/>
  <tile gid="846"/>
  <tile gid="944"/>
  <tile gid="848"/>
  <tile gid="815"/>
  <tile gid="848"/>
  <tile gid="815"/>
  <tile gid="914"/>
  <tile gid="561"/>
  <tile gid="402"/>
  <tile gid="402"/>
  <tile gid="402"/>
  <tile gid="592"/>
  <tile gid="815"/>
  <tile gid="879"/>
  <tile gid="815"/>
  <tile gid="914"/>
  <tile gid="850"/>
  <tile gid="402"/>
  <tile gid="402"/>
  <tile gid="402"/>
  <tile gid="402"/>
  <tile gid="272"/>
  <tile gid="915"/>
  <tile gid="915"/>
  <tile gid="916"/>
  <tile gid="916"/>
  <tile gid="231"/>
  <tile gid="402"/>
  <tile gid="402"/>
  <tile gid="402"/>
  <tile gid="560"/>
  <tile gid="914"/>
  <tile gid="914"/>
  <tile gid="846"/>
  <tile gid="944"/>
  <tile gid="848"/>
  <tile gid="815"/>
  <tile gid="561"/>
  <tile gid="402"/>
  <tile gid="116"/>
  <tile gid="306"/>
  <tile gid="306"/>
  <tile gid="404"/>
  <tile gid="624"/>
  <tile gid="815"/>
  <tile gid="914"/>
  <tile gid="561"/>
  <tile gid="402"/>
  <tile gid="402"/>
  <tile gid="402"/>
  <tile gid="402"/>
  <tile gid="402"/>
  <tile gid="402"/>
  <tile gid="272"/>
  <tile gid="67"/>
  <tile gid="67"/>
  <tile gid="67"/>
  <tile gid="67"/>
  <tile gid="67"/>
  <tile gid="231"/>
  <tile gid="306"/>
  <tile gid="404"/>
  <tile gid="402"/>
  <tile gid="402"/>
  <tile gid="624"/>
  <tile gid="848"/>
  <tile gid="846"/>
  <tile gid="914"/>
  <tile gid="561"/>
  <tile gid="402"/>
  <tile gid="232"/>
  <tile gid="67"/>
  <tile gid="67"/>
  <tile gid="67"/>
  <tile gid="83"/>
  <tile gid="690"/>
  <tile gid="561"/>
  <tile gid="402"/>
  <tile gid="402"/>
  <tile gid="402"/>
  <tile gid="402"/>
  <tile gid="718"/>
  <tile gid="719"/>
  <tile gid="720"/>
  <tile gid="402"/>
  <tile gid="402"/>
  <tile gid="200"/>
  <tile gid="67"/>
  <tile gid="67"/>
  <tile gid="67"/>
  <tile gid="67"/>
  <tile gid="67"/>
  <tile gid="67"/>
  <tile gid="307"/>
  <tile gid="306"/>
  <tile gid="116"/>
  <tile gid="306"/>
  <tile gid="560"/>
  <tile gid="913"/>
  <tile gid="561"/>
  <tile gid="306"/>
  <tile gid="232"/>
  <tile gid="67"/>
  <tile gid="67"/>
  <tile gid="67"/>
  <tile gid="67"/>
  <tile gid="271"/>
  <tile gid="402"/>
  <tile gid="402"/>
  <tile gid="402"/>
  <tile gid="402"/>
  <tile gid="402"/>
  <tile gid="402"/>
  <tile gid="750"/>
  <tile gid="751"/>
  <tile gid="752"/>
  <tile gid="402"/>
  <tile gid="116"/>
  <tile gid="306"/>
  <tile gid="274"/>
  <tile gid="200"/>
  <tile gid="67"/>
  <tile gid="67"/>
  <tile gid="67"/>
  <tile gid="67"/>
  <tile gid="67"/>
  <tile gid="67"/>
  <tile gid="67"/>
  <tile gid="67"/>
  <tile gid="231"/>
  <tile gid="402"/>
  <tile gid="115"/>
  <tile gid="194"/>
  <tile gid="80"/>
  <tile gid="72"/>
  <tile gid="67"/>
  <tile gid="67"/>
  <tile gid="199"/>
  <tile gid="402"/>
  <tile gid="402"/>
  <tile gid="402"/>
  <tile gid="402"/>
  <tile gid="402"/>
  <tile gid="402"/>
  <tile gid="402"/>
  <tile gid="782"/>
  <tile gid="783"/>
  <tile gid="784"/>
  <tile gid="248"/>
  <tile gid="631"/>
  <tile gid="194"/>
  <tile gid="83"/>
  <tile gid="402"/>
  <tile gid="274"/>
  <tile gid="274"/>
  <tile gid="274"/>
  <tile gid="200"/>
  <tile gid="67"/>
  <tile gid="67"/>
  <tile gid="67"/>
  <tile gid="67"/>
  <tile gid="67"/>
  <tile gid="307"/>
  <tile gid="232"/>
  <tile gid="169"/>
  <tile gid="7"/>
  <tile gid="104"/>
  <tile gid="199"/>
  <tile gid="84"/>
  <tile gid="402"/>
  <tile gid="402"/>
  <tile gid="116"/>
  <tile gid="402"/>
  <tile gid="402"/>
  <tile gid="402"/>
  <tile gid="402"/>
  <tile gid="402"/>
  <tile gid="272"/>
  <tile gid="194"/>
  <tile gid="597"/>
  <tile gid="607"/>
  <tile gid="606"/>
  <tile gid="194"/>
  <tile gid="271"/>
  <tile gid="402"/>
  <tile gid="881"/>
  <tile gid="402"/>
  <tile gid="402"/>
  <tile gid="402"/>
  <tile gid="276"/>
  <tile gid="67"/>
  <tile gid="67"/>
  <tile gid="67"/>
  <tile gid="67"/>
  <tile gid="67"/>
  <tile gid="67"/>
  <tile gid="67"/>
  <tile gid="40"/>
  <tile gid="67"/>
  <tile gid="231"/>
  <tile gid="402"/>
  <tile gid="402"/>
  <tile gid="115"/>
  <tile gid="67"/>
  <tile gid="402"/>
  <tile gid="306"/>
  <tile gid="116"/>
  <tile gid="402"/>
  <tile gid="402"/>
  <tile gid="402"/>
  <tile gid="276"/>
  <tile gid="600"/>
  <tile gid="635"/>
  <tile gid="599"/>
  <tile gid="194"/>
  <tile gid="231"/>
  <tile gid="402"/>
  <tile gid="945"/>
  <tile gid="882"/>
  <tile gid="882"/>
  <tile gid="818"/>
  <tile gid="272"/>
  <tile gid="67"/>
  <tile gid="67"/>
  <tile gid="67"/>
  <tile gid="67"/>
  <tile gid="67"/>
  <tile gid="67"/>
  <tile gid="67"/>
  <tile gid="396"/>
  <tile gid="67"/>
  <tile gid="67"/>
  <tile gid="83"/>
  <tile gid="402"/>
  <tile gid="306"/>
  <tile gid="274"/>
  <tile gid="115"/>
  <tile gid="67"/>
  <tile gid="67"/>
  <tile gid="231"/>
  <tile gid="116"/>
  <tile gid="402"/>
  <tile gid="272"/>
  <tile gid="194"/>
  <tile gid="194"/>
  <tile gid="194"/>
  <tile gid="396"/>
  <tile gid="194"/>
  <tile gid="271"/>
  <tile gid="945"/>
  <tile gid="878"/>
  <tile gid="847"/>
  <tile gid="946"/>
  <tile gid="402"/>
  <tile gid="274"/>
  <tile gid="274"/>
  <tile gid="84"/>
  <tile gid="200"/>
  <tile gid="199"/>
  <tile gid="84"/>
  <tile gid="274"/>
  <tile gid="402"/>
  <tile gid="200"/>
  <tile gid="194"/>
  <tile gid="231"/>
  <tile gid="115"/>
  <tile gid="194"/>
  <tile gid="83"/>
  <tile gid="402"/>
  <tile gid="84"/>
  <tile gid="200"/>
  <tile gid="67"/>
  <tile gid="67"/>
  <tile gid="271"/>
  <tile gid="116"/>
  <tile gid="274"/>
  <tile gid="274"/>
  <tile gid="84"/>
  <tile gid="402"/>
  <tile gid="84"/>
  <tile gid="402"/>
  <tile gid="945"/>
  <tile gid="847"/>
  <tile gid="878"/>
  <tile gid="847"/>
  <tile gid="882"/>
  <tile gid="818"/>
  <tile gid="402"/>
  <tile gid="116"/>
  <tile gid="116"/>
  <tile gid="402"/>
  <tile gid="402"/>
  <tile gid="402"/>
  <tile gid="402"/>
  <tile gid="402"/>
  <tile gid="67"/>
  <tile gid="67"/>
  <tile gid="83"/>
  <tile gid="84"/>
  <tile gid="116"/>
  <tile gid="402"/>
  <tile gid="402"/>
  <tile gid="402"/>
  <tile gid="84"/>
  <tile gid="274"/>
  <tile gid="272"/>
  <tile gid="67"/>
  <tile gid="231"/>
  <tile gid="402"/>
  <tile gid="402"/>
  <tile gid="402"/>
  <tile gid="402"/>
  <tile gid="945"/>
  <tile gid="846"/>
  <tile gid="847"/>
  <tile gid="846"/>
  <tile gid="878"/>
  <tile gid="847"/>
  <tile gid="946"/>
  <tile gid="402"/>
  <tile gid="200"/>
  <tile gid="194"/>
  <tile gid="83"/>
  <tile gid="306"/>
  <tile gid="116"/>
  <tile gid="402"/>
  <tile gid="402"/>
  <tile gid="200"/>
  <tile gid="67"/>
  <tile gid="307"/>
  <tile gid="272"/>
  <tile gid="67"/>
  <tile gid="402"/>
  <tile gid="402"/>
  <tile gid="402"/>
  <tile gid="402"/>
  <tile gid="306"/>
  <tile gid="402"/>
  <tile gid="276"/>
  <tile gid="67"/>
  <tile gid="83"/>
  <tile gid="977"/>
  <tile gid="882"/>
  <tile gid="882"/>
  <tile gid="846"/>
  <tile gid="847"/>
  <tile gid="846"/>
  <tile gid="975"/>
  <tile gid="847"/>
  <tile gid="878"/>
  <tile gid="847"/>
  <tile gid="818"/>
  <tile gid="402"/>
  <tile gid="84"/>
  <tile gid="272"/>
  <tile gid="194"/>
  <tile gid="67"/>
  <tile gid="231"/>
  <tile gid="402"/>
  <tile gid="272"/>
  <tile gid="67"/>
  <tile gid="67"/>
  <tile gid="83"/>
  <tile gid="84"/>
  <tile gid="402"/>
  <tile gid="402"/>
  <tile gid="402"/>
  <tile gid="232"/>
  <tile gid="67"/>
  <tile gid="83"/>
  <tile gid="402"/>
  <tile gid="84"/>
  <tile gid="402"/>
  <tile gid="402"/>
  <tile gid="849"/>
  <tile gid="914"/>
  <tile gid="914"/>
  <tile gid="914"/>
  <tile gid="878"/>
  <tile gid="847"/>
  <tile gid="975"/>
  <tile gid="847"/>
  <tile gid="878"/>
  <tile gid="847"/>
  <tile gid="818"/>
  <tile gid="402"/>
  <tile gid="402"/>
  <tile gid="84"/>
  <tile gid="200"/>
  <tile gid="194"/>
  <tile gid="83"/>
  <tile gid="232"/>
  <tile gid="67"/>
  <tile gid="275"/>
  <tile gid="402"/>
  <tile gid="402"/>
  <tile gid="818"/>
  <tile gid="402"/>
  <tile gid="115"/>
  <tile gid="67"/>
  <tile gid="953"/>
  <tile gid="231"/>
  <tile gid="306"/>
  <tile gid="306"/>
  <tile gid="402"/>
  <tile gid="402"/>
  <tile gid="402"/>
  <tile gid="306"/>
  <tile gid="306"/>
  <tile gid="402"/>
  <tile gid="849"/>
  <tile gid="914"/>
  <tile gid="847"/>
  <tile gid="975"/>
  <tile gid="847"/>
  <tile gid="878"/>
  <tile gid="847"/>
  <tile gid="818"/>
  <tile gid="402"/>
  <tile gid="402"/>
  <tile gid="402"/>
  <tile gid="402"/>
  <tile gid="115"/>
  <tile gid="67"/>
  <tile gid="199"/>
  <tile gid="436"/>
  <tile gid="306"/>
  <tile gid="306"/>
  <tile gid="911"/>
  <tile gid="818"/>
  <tile gid="402"/>
  <tile gid="276"/>
  <tile gid="67"/>
  <tile gid="67"/>
  <tile gid="67"/>
  <tile gid="67"/>
  <tile gid="231"/>
  <tile gid="232"/>
  <tile gid="921"/>
  <tile gid="67"/>
  <tile gid="67"/>
  <tile gid="231"/>
  <tile gid="306"/>
  <tile gid="402"/>
  <tile gid="849"/>
  <tile gid="847"/>
  <tile gid="975"/>
  <tile gid="847"/>
  <tile gid="878"/>
  <tile gid="878"/>
  <tile gid="882"/>
  <tile gid="882"/>
  <tile gid="529"/>
  <tile gid="402"/>
  <tile gid="402"/>
  <tile gid="84"/>
  <tile gid="306"/>
  <tile gid="232"/>
  <tile gid="67"/>
  <tile gid="67"/>
  <tile gid="847"/>
  <tile gid="910"/>
  <tile gid="818"/>
  <tile gid="402"/>
  <tile gid="84"/>
  <tile gid="274"/>
  <tile gid="200"/>
  <tile gid="67"/>
  <tile gid="67"/>
  <tile gid="67"/>
  <tile gid="194"/>
  <tile gid="71"/>
  <tile gid="80"/>
  <tile gid="72"/>
  <tile gid="67"/>
  <tile gid="271"/>
  <tile gid="560"/>
  <tile gid="945"/>
  <tile gid="914"/>
  <tile gid="975"/>
  <tile gid="847"/>
  <tile gid="878"/>
  <tile gid="975"/>
  <tile gid="914"/>
  <tile gid="561"/>
  <tile gid="402"/>
  <tile gid="402"/>
  <tile gid="308"/>
  <tile gid="67"/>
  <tile gid="67"/>
  <tile gid="67"/>
  <tile gid="67"/>
  <tile gid="943"/>
  <tile gid="847"/>
  <tile gid="912"/>
  <tile gid="882"/>
  <tile gid="818"/>
  <tile gid="402"/>
  <tile gid="402"/>
  <tile gid="84"/>
  <tile gid="274"/>
  <tile gid="200"/>
  <tile gid="113"/>
  <tile gid="7"/>
  <tile gid="7"/>
  <tile gid="104"/>
  <tile gid="67"/>
  <tile gid="271"/>
  <tile gid="402"/>
  <tile gid="913"/>
  <tile gid="975"/>
  <tile gid="945"/>
  <tile gid="914"/>
  <tile gid="914"/>
  <tile gid="850"/>
  <tile gid="402"/>
  <tile gid="306"/>
  <tile gid="232"/>
  <tile gid="67"/>
  <tile gid="67"/>
  <tile gid="67"/>
  <tile gid="12"/>
  <tile gid="67"/>
  <tile gid="67"/>
  <tile gid="910"/>
  <tile gid="847"/>
  <tile gid="910"/>
  <tile gid="847"/>
  <tile gid="912"/>
  <tile gid="882"/>
  <tile gid="818"/>
  <tile gid="402"/>
  <tile gid="402"/>
  <tile gid="402"/>
  <tile gid="67"/>
  <tile gid="103"/>
  <tile gid="144"/>
  <tile gid="67"/>
  <tile gid="199"/>
  <tile gid="402"/>
  <tile gid="402"/>
  <tile gid="402"/>
  <tile gid="560"/>
  <tile gid="913"/>
  <tile gid="402"/>
  <tile gid="402"/>
  <tile gid="402"/>
  <tile gid="308"/>
  <tile gid="67"/>
  <tile gid="67"/>
  <tile gid="67"/>
  <tile gid="67"/>
  <tile gid="71"/>
  <tile gid="144"/>
  <tile gid="194"/>
  <tile gid="67"/>
  <tile gid="942"/>
  <tile gid="847"/>
  <tile gid="847"/>
  <tile gid="943"/>
  <tile gid="878"/>
  <tile gid="910"/>
  <tile gid="814"/>
  <tile gid="402"/>
  <tile gid="402"/>
  <tile gid="402"/>
  <tile gid="328"/>
  <tile gid="67"/>
  <tile gid="7"/>
  <tile gid="325"/>
  <tile gid="232"/>
  <tile gid="231"/>
  <tile gid="402"/>
  <tile gid="402"/>
  <tile gid="402"/>
  <tile gid="402"/>
  <tile gid="402"/>
  <tile gid="402"/>
  <tile gid="232"/>
  <tile gid="67"/>
  <tile gid="67"/>
  <tile gid="67"/>
  <tile gid="67"/>
  <tile gid="194"/>
  <tile gid="143"/>
  <tile gid="7"/>
  <tile gid="72"/>
  <tile gid="71"/>
  <tile gid="847"/>
  <tile gid="975"/>
  <tile gid="847"/>
  <tile gid="975"/>
  <tile gid="847"/>
  <tile gid="942"/>
  <tile gid="847"/>
  <tile gid="818"/>
  <tile gid="402"/>
  <tile gid="115"/>
  <tile gid="597"/>
  <tile gid="571"/>
  <tile gid="35"/>
  <tile gid="571"/>
  <tile gid="571"/>
  <tile gid="571"/>
  <tile gid="379"/>
  <tile gid="379"/>
  <tile gid="379"/>
  <tile gid="247"/>
  <tile gid="402"/>
  <tile gid="308"/>
  <tile gid="67"/>
  <tile gid="67"/>
  <tile gid="194"/>
  <tile gid="80"/>
  <tile gid="72"/>
  <tile gid="71"/>
  <tile gid="7"/>
  <tile gid="7"/>
  <tile gid="7"/>
  <tile gid="112"/>
  <tile gid="911"/>
  <tile gid="910"/>
  <tile gid="814"/>
  <tile gid="914"/>
  <tile gid="814"/>
  <tile gid="943"/>
  <tile gid="942"/>
  <tile gid="814"/>
  <tile gid="402"/>
  <tile gid="298"/>
  <tile gid="633"/>
  <tile gid="67"/>
  <tile gid="67"/>
  <tile gid="67"/>
  <tile gid="67"/>
  <tile gid="235"/>
  <tile gid="307"/>
  <tile gid="921"/>
  <tile gid="402"/>
  <tile gid="378"/>
  <tile gid="402"/>
  <tile gid="368"/>
  <tile gid="67"/>
  <tile gid="67"/>
  <tile gid="169"/>
  <tile gid="7"/>
  <tile gid="7"/>
  <tile gid="112"/>
  <tile gid="104"/>
  <tile gid="103"/>
  <tile gid="104"/>
  <tile gid="67"/>
  <tile gid="878"/>
  <tile gid="942"/>
  <tile gid="561"/>
  <tile gid="402"/>
  <tile gid="849"/>
  <tile gid="943"/>
  <tile gid="942"/>
  <tile gid="850"/>
  <tile gid="402"/>
  <tile gid="238"/>
  <tile gid="633"/>
  <tile gid="67"/>
  <tile gid="71"/>
  <tile gid="80"/>
  <tile gid="72"/>
  <tile gid="71"/>
  <tile gid="72"/>
  <tile gid="231"/>
  <tile gid="306"/>
  <tile gid="378"/>
  <tile gid="232"/>
  <tile gid="67"/>
  <tile gid="67"/>
  <tile gid="67"/>
  <tile gid="67"/>
  <tile gid="103"/>
  <tile gid="104"/>
  <tile gid="67"/>
  <tile gid="194"/>
  <tile gid="67"/>
  <tile gid="194"/>
  <tile gid="67"/>
  <tile gid="814"/>
  <tile gid="561"/>
  <tile gid="402"/>
  <tile gid="402"/>
  <tile gid="402"/>
  <tile gid="560"/>
  <tile gid="850"/>
  <tile gid="402"/>
  <tile gid="115"/>
  <tile gid="67"/>
  <tile gid="633"/>
  <tile gid="67"/>
  <tile gid="103"/>
  <tile gid="106"/>
  <tile gid="105"/>
  <tile gid="104"/>
  <tile gid="8"/>
  <tile gid="67"/>
  <tile gid="67"/>
  <tile gid="3"/>
  <tile gid="67"/>
  <tile gid="67"/>
  <tile gid="67"/>
  <tile gid="194"/>
  <tile gid="67"/>
  <tile gid="67"/>
  <tile gid="194"/>
  <tile gid="67"/>
  <tile gid="67"/>
  <tile gid="67"/>
  <tile gid="67"/>
  <tile gid="67"/>
  <tile gid="116"/>
  <tile gid="306"/>
  <tile gid="116"/>
  <tile gid="296"/>
  <tile gid="337"/>
  <tile gid="295"/>
  <tile gid="402"/>
  <tile gid="402"/>
  <tile gid="402"/>
  <tile gid="200"/>
  <tile gid="633"/>
  <tile gid="67"/>
  <tile gid="67"/>
  <tile gid="194"/>
  <tile gid="67"/>
  <tile gid="67"/>
  <tile gid="67"/>
  <tile gid="67"/>
  <tile gid="67"/>
  <tile gid="633"/>
  <tile gid="67"/>
  <tile gid="67"/>
  <tile gid="67"/>
  <tile gid="67"/>
  <tile gid="67"/>
  <tile gid="597"/>
  <tile gid="604"/>
  <tile gid="604"/>
  <tile gid="35"/>
  <tile gid="604"/>
  <tile gid="604"/>
  <tile gid="604"/>
  <tile gid="571"/>
  <tile gid="571"/>
  <tile gid="571"/>
  <tile gid="571"/>
  <tile gid="571"/>
  <tile gid="571"/>
  <tile gid="247"/>
  <tile gid="116"/>
  <tile gid="116"/>
  <tile gid="232"/>
  <tile gid="633"/>
  <tile gid="67"/>
  <tile gid="67"/>
  <tile gid="953"/>
  <tile gid="194"/>
  <tile gid="67"/>
  <tile gid="67"/>
  <tile gid="67"/>
  <tile gid="67"/>
  <tile gid="507"/>
  <tile gid="604"/>
  <tile gid="604"/>
  <tile gid="604"/>
  <tile gid="604"/>
  <tile gid="604"/>
  <tile gid="897"/>
  <tile gid="899"/>
  <tile gid="771"/>
  <tile gid="940"/>
  <tile gid="771"/>
  <tile gid="771"/>
  <tile gid="898"/>
  <tile gid="67"/>
  <tile gid="67"/>
  <tile gid="67"/>
  <tile gid="67"/>
  <tile gid="67"/>
  <tile gid="67"/>
  <tile gid="600"/>
  <tile gid="571"/>
  <tile gid="571"/>
  <tile gid="571"/>
  <tile gid="635"/>
  <tile gid="571"/>
  <tile gid="35"/>
  <tile gid="571"/>
  <tile gid="571"/>
  <tile gid="571"/>
  <tile gid="571"/>
  <tile gid="571"/>
  <tile gid="604"/>
  <tile gid="703"/>
  <tile gid="703"/>
  <tile gid="703"/>
  <tile gid="703"/>
  <tile gid="703"/>
  <tile gid="703"/>
  <tile gid="803"/>
  <tile gid="971"/>
  <tile gid="908"/>
  <tile gid="1003"/>
  <tile gid="908"/>
  <tile gid="34"/>
  <tile gid="803"/>
  <tile gid="67"/>
  <tile gid="67"/>
  <tile gid="67"/>
  <tile gid="67"/>
  <tile gid="67"/>
  <tile gid="67"/>
  <tile gid="67"/>
  <tile gid="67"/>
  <tile gid="67"/>
  <tile gid="67"/>
  <tile gid="67"/>
  <tile gid="67"/>
  <tile gid="67"/>
  <tile gid="67"/>
  <tile gid="67"/>
  <tile gid="67"/>
  <tile gid="67"/>
  <tile gid="67"/>
  <tile gid="605"/>
  <tile gid="703"/>
  <tile gid="703"/>
  <tile gid="703"/>
  <tile gid="703"/>
  <tile gid="703"/>
  <tile gid="703"/>
  <tile gid="803"/>
  <tile gid="940"/>
  <tile gid="34"/>
  <tile gid="940"/>
  <tile gid="1003"/>
  <tile gid="1003"/>
  <tile gid="803"/>
  <tile gid="67"/>
  <tile gid="67"/>
  <tile gid="67"/>
  <tile gid="67"/>
  <tile gid="67"/>
  <tile gid="67"/>
  <tile gid="67"/>
  <tile gid="67"/>
  <tile gid="71"/>
  <tile gid="72"/>
  <tile gid="71"/>
  <tile gid="80"/>
  <tile gid="81"/>
  <tile gid="67"/>
  <tile gid="67"/>
  <tile gid="67"/>
  <tile gid="67"/>
  <tile gid="67"/>
  <tile gid="637"/>
  <tile gid="703"/>
  <tile gid="703"/>
  <tile gid="703"/>
  <tile gid="735"/>
  <tile gid="736"/>
  <tile gid="703"/>
  <tile gid="929"/>
  <tile gid="771"/>
  <tile gid="771"/>
  <tile gid="771"/>
  <tile gid="771"/>
  <tile gid="771"/>
  <tile gid="866"/>
  <tile gid="67"/>
  <tile gid="67"/>
  <tile gid="67"/>
  <tile gid="67"/>
  <tile gid="67"/>
  <tile gid="67"/>
  <tile gid="67"/>
  <tile gid="12"/>
  <tile gid="7"/>
  <tile gid="7"/>
  <tile gid="7"/>
  <tile gid="7"/>
  <tile gid="80"/>
  <tile gid="72"/>
  <tile gid="67"/>
  <tile gid="67"/>
  <tile gid="67"/>
  <tile gid="597"/>
  <tile gid="703"/>
  <tile gid="703"/>
  <tile gid="703"/>
  <tile gid="735"/>
  <tile gid="639"/>
  <tile gid="639"/>
  <tile gid="736"/>
  <tile gid="973"/>
  <tile gid="973"/>
  <tile gid="973"/>
  <tile gid="973"/>
  <tile gid="973"/>
  <tile gid="973"/>
  <tile gid="1005"/>
  <tile gid="72"/>
  <tile gid="71"/>
  <tile gid="80"/>
  <tile gid="80"/>
  <tile gid="72"/>
  <tile gid="67"/>
  <tile gid="67"/>
  <tile gid="67"/>
  <tile gid="103"/>
  <tile gid="7"/>
  <tile gid="7"/>
  <tile gid="104"/>
  <tile gid="103"/>
  <tile gid="7"/>
  <tile gid="72"/>
  <tile gid="67"/>
  <tile gid="597"/>
  <tile gid="703"/>
  <tile gid="703"/>
  <tile gid="703"/>
  <tile gid="735"/>
  <tile gid="639"/>
  <tile gid="639"/>
  <tile gid="639"/>
  <tile gid="639"/>
  <tile gid="566"/>
  <tile gid="566"/>
  <tile gid="566"/>
  <tile gid="566"/>
  <tile gid="566"/>
  <tile gid="566"/>
  <tile gid="568"/>
  </data>
 </layer>
</map>
