<?xml version="1.0" encoding="UTF-8"?>
<map version="1.0" orientation="orthogonal" width="32" height="30" tilewidth="16" tileheight="16">
 <tileset firstgid="1" name="0E000F10" tilewidth="16" tileheight="16">
  <image source="0E000F10.png" trans="ffffff"/>
 </tileset>
 <layer name="Tile Layer 1" width="32" height="30">
  <properties>
   <property name="Main" value =""/>
  </properties>
  <data>
  <tile gid="193"/>
  <tile gid="500"/>
  <tile gid="531"/>
  <tile gid="531"/>
  <tile gid="531"/>
  <tile gid="531"/>
  <tile gid="531"/>
  <tile gid="531"/>
  <tile gid="531"/>
  <tile gid="531"/>
  <tile gid="531"/>
  <tile gid="531"/>
  <tile gid="531"/>
  <tile gid="531"/>
  <tile gid="531"/>
  <tile gid="531"/>
  <tile gid="531"/>
  <tile gid="531"/>
  <tile gid="531"/>
  <tile gid="531"/>
  <tile gid="531"/>
  <tile gid="531"/>
  <tile gid="531"/>
  <tile gid="531"/>
  <tile gid="531"/>
  <tile gid="569"/>
  <tile gid="564"/>
  <tile gid="451"/>
  <tile gid="452"/>
  <tile gid="321"/>
  <tile gid="322"/>
  <tile gid="323"/>
  <tile gid="500"/>
  <tile gid="564"/>
  <tile gid="7"/>
  <tile gid="8"/>
  <tile gid="193"/>
  <tile gid="193"/>
  <tile gid="193"/>
  <tile gid="193"/>
  <tile gid="417"/>
  <tile gid="419"/>
  <tile gid="420"/>
  <tile gid="258"/>
  <tile gid="417"/>
  <tile gid="419"/>
  <tile gid="356"/>
  <tile gid="420"/>
  <tile gid="417"/>
  <tile gid="419"/>
  <tile gid="193"/>
  <tile gid="500"/>
  <tile gid="532"/>
  <tile gid="532"/>
  <tile gid="569"/>
  <tile gid="569"/>
  <tile gid="564"/>
  <tile gid="451"/>
  <tile gid="452"/>
  <tile gid="483"/>
  <tile gid="484"/>
  <tile gid="353"/>
  <tile gid="354"/>
  <tile gid="355"/>
  <tile gid="532"/>
  <tile gid="7"/>
  <tile gid="219"/>
  <tile gid="220"/>
  <tile gid="221"/>
  <tile gid="8"/>
  <tile gid="7"/>
  <tile gid="8"/>
  <tile gid="7"/>
  <tile gid="8"/>
  <tile gid="417"/>
  <tile gid="419"/>
  <tile gid="420"/>
  <tile gid="193"/>
  <tile gid="420"/>
  <tile gid="258"/>
  <tile gid="420"/>
  <tile gid="417"/>
  <tile gid="419"/>
  <tile gid="531"/>
  <tile gid="569"/>
  <tile gid="564"/>
  <tile gid="193"/>
  <tile gid="420"/>
  <tile gid="356"/>
  <tile gid="483"/>
  <tile gid="484"/>
  <tile gid="417"/>
  <tile gid="419"/>
  <tile gid="385"/>
  <tile gid="386"/>
  <tile gid="387"/>
  <tile gid="532"/>
  <tile gid="39"/>
  <tile gid="251"/>
  <tile gid="252"/>
  <tile gid="253"/>
  <tile gid="79"/>
  <tile gid="74"/>
  <tile gid="79"/>
  <tile gid="40"/>
  <tile gid="78"/>
  <tile gid="500"/>
  <tile gid="531"/>
  <tile gid="531"/>
  <tile gid="531"/>
  <tile gid="531"/>
  <tile gid="531"/>
  <tile gid="531"/>
  <tile gid="531"/>
  <tile gid="777"/>
  <tile gid="531"/>
  <tile gid="193"/>
  <tile gid="679"/>
  <tile gid="452"/>
  <tile gid="193"/>
  <tile gid="420"/>
  <tile gid="193"/>
  <tile gid="494"/>
  <tile gid="496"/>
  <tile gid="193"/>
  <tile gid="420"/>
  <tile gid="451"/>
  <tile gid="452"/>
  <tile gid="564"/>
  <tile gid="129"/>
  <tile gid="283"/>
  <tile gid="284"/>
  <tile gid="285"/>
  <tile gid="40"/>
  <tile gid="258"/>
  <tile gid="10"/>
  <tile gid="112"/>
  <tile gid="193"/>
  <tile gid="532"/>
  <tile gid="563"/>
  <tile gid="563"/>
  <tile gid="563"/>
  <tile gid="563"/>
  <tile gid="563"/>
  <tile gid="563"/>
  <tile gid="563"/>
  <tile gid="777"/>
  <tile gid="564"/>
  <tile gid="193"/>
  <tile gid="769"/>
  <tile gid="644"/>
  <tile gid="644"/>
  <tile gid="740"/>
  <tile gid="2"/>
  <tile gid="193"/>
  <tile gid="193"/>
  <tile gid="470"/>
  <tile gid="495"/>
  <tile gid="483"/>
  <tile gid="484"/>
  <tile gid="562"/>
  <tile gid="498"/>
  <tile gid="39"/>
  <tile gid="74"/>
  <tile gid="40"/>
  <tile gid="258"/>
  <tile gid="258"/>
  <tile gid="193"/>
  <tile gid="500"/>
  <tile gid="531"/>
  <tile gid="564"/>
  <tile gid="129"/>
  <tile gid="129"/>
  <tile gid="129"/>
  <tile gid="193"/>
  <tile gid="193"/>
  <tile gid="193"/>
  <tile gid="258"/>
  <tile gid="258"/>
  <tile gid="258"/>
  <tile gid="193"/>
  <tile gid="746"/>
  <tile gid="747"/>
  <tile gid="747"/>
  <tile gid="673"/>
  <tile gid="674"/>
  <tile gid="2"/>
  <tile gid="258"/>
  <tile gid="258"/>
  <tile gid="258"/>
  <tile gid="451"/>
  <tile gid="452"/>
  <tile gid="129"/>
  <tile gid="562"/>
  <tile gid="563"/>
  <tile gid="777"/>
  <tile gid="563"/>
  <tile gid="563"/>
  <tile gid="563"/>
  <tile gid="563"/>
  <tile gid="564"/>
  <tile gid="130"/>
  <tile gid="130"/>
  <tile gid="130"/>
  <tile gid="737"/>
  <tile gid="646"/>
  <tile gid="677"/>
  <tile gid="644"/>
  <tile gid="644"/>
  <tile gid="644"/>
  <tile gid="740"/>
  <tile gid="2"/>
  <tile gid="258"/>
  <tile gid="130"/>
  <tile gid="193"/>
  <tile gid="420"/>
  <tile gid="705"/>
  <tile gid="706"/>
  <tile gid="34"/>
  <tile gid="7"/>
  <tile gid="8"/>
  <tile gid="258"/>
  <tile gid="483"/>
  <tile gid="484"/>
  <tile gid="129"/>
  <tile gid="193"/>
  <tile gid="130"/>
  <tile gid="130"/>
  <tile gid="130"/>
  <tile gid="258"/>
  <tile gid="193"/>
  <tile gid="193"/>
  <tile gid="193"/>
  <tile gid="193"/>
  <tile gid="193"/>
  <tile gid="737"/>
  <tile gid="770"/>
  <tile gid="973"/>
  <tile gid="741"/>
  <tile gid="974"/>
  <tile gid="910"/>
  <tile gid="974"/>
  <tile gid="679"/>
  <tile gid="34"/>
  <tile gid="777"/>
  <tile gid="193"/>
  <tile gid="193"/>
  <tile gid="452"/>
  <tile gid="673"/>
  <tile gid="785"/>
  <tile gid="34"/>
  <tile gid="39"/>
  <tile gid="40"/>
  <tile gid="494"/>
  <tile gid="496"/>
  <tile gid="193"/>
  <tile gid="130"/>
  <tile gid="130"/>
  <tile gid="7"/>
  <tile gid="73"/>
  <tile gid="8"/>
  <tile gid="258"/>
  <tile gid="130"/>
  <tile gid="130"/>
  <tile gid="130"/>
  <tile gid="193"/>
  <tile gid="737"/>
  <tile gid="770"/>
  <tile gid="909"/>
  <tile gid="1006"/>
  <tile gid="1006"/>
  <tile gid="1006"/>
  <tile gid="1006"/>
  <tile gid="1006"/>
  <tile gid="769"/>
  <tile gid="644"/>
  <tile gid="851"/>
  <tile gid="644"/>
  <tile gid="708"/>
  <tile gid="642"/>
  <tile gid="674"/>
  <tile gid="817"/>
  <tile gid="66"/>
  <tile gid="80"/>
  <tile gid="8"/>
  <tile gid="258"/>
  <tile gid="193"/>
  <tile gid="193"/>
  <tile gid="130"/>
  <tile gid="193"/>
  <tile gid="39"/>
  <tile gid="420"/>
  <tile gid="79"/>
  <tile gid="8"/>
  <tile gid="77"/>
  <tile gid="193"/>
  <tile gid="130"/>
  <tile gid="737"/>
  <tile gid="770"/>
  <tile gid="973"/>
  <tile gid="776"/>
  <tile gid="941"/>
  <tile gid="1006"/>
  <tile gid="1006"/>
  <tile gid="776"/>
  <tile gid="941"/>
  <tile gid="910"/>
  <tile gid="974"/>
  <tile gid="910"/>
  <tile gid="974"/>
  <tile gid="673"/>
  <tile gid="642"/>
  <tile gid="785"/>
  <tile gid="34"/>
  <tile gid="193"/>
  <tile gid="7"/>
  <tile gid="79"/>
  <tile gid="112"/>
  <tile gid="193"/>
  <tile gid="129"/>
  <tile gid="130"/>
  <tile gid="193"/>
  <tile gid="130"/>
  <tile gid="193"/>
  <tile gid="356"/>
  <tile gid="79"/>
  <tile gid="40"/>
  <tile gid="193"/>
  <tile gid="130"/>
  <tile gid="679"/>
  <tile gid="909"/>
  <tile gid="1006"/>
  <tile gid="1006"/>
  <tile gid="1006"/>
  <tile gid="679"/>
  <tile gid="941"/>
  <tile gid="1006"/>
  <tile gid="1006"/>
  <tile gid="1006"/>
  <tile gid="1006"/>
  <tile gid="737"/>
  <tile gid="646"/>
  <tile gid="644"/>
  <tile gid="708"/>
  <tile gid="706"/>
  <tile gid="34"/>
  <tile gid="193"/>
  <tile gid="106"/>
  <tile gid="79"/>
  <tile gid="8"/>
  <tile gid="193"/>
  <tile gid="129"/>
  <tile gid="420"/>
  <tile gid="130"/>
  <tile gid="356"/>
  <tile gid="129"/>
  <tile gid="129"/>
  <tile gid="106"/>
  <tile gid="8"/>
  <tile gid="193"/>
  <tile gid="130"/>
  <tile gid="673"/>
  <tile gid="707"/>
  <tile gid="770"/>
  <tile gid="941"/>
  <tile gid="769"/>
  <tile gid="644"/>
  <tile gid="677"/>
  <tile gid="646"/>
  <tile gid="772"/>
  <tile gid="851"/>
  <tile gid="771"/>
  <tile gid="738"/>
  <tile gid="33"/>
  <tile gid="33"/>
  <tile gid="769"/>
  <tile gid="708"/>
  <tile gid="674"/>
  <tile gid="193"/>
  <tile gid="106"/>
  <tile gid="79"/>
  <tile gid="40"/>
  <tile gid="129"/>
  <tile gid="129"/>
  <tile gid="451"/>
  <tile gid="452"/>
  <tile gid="13"/>
  <tile gid="193"/>
  <tile gid="13"/>
  <tile gid="39"/>
  <tile gid="105"/>
  <tile gid="193"/>
  <tile gid="130"/>
  <tile gid="785"/>
  <tile gid="679"/>
  <tile gid="909"/>
  <tile gid="776"/>
  <tile gid="776"/>
  <tile gid="909"/>
  <tile gid="679"/>
  <tile gid="909"/>
  <tile gid="910"/>
  <tile gid="910"/>
  <tile gid="910"/>
  <tile gid="679"/>
  <tile gid="973"/>
  <tile gid="910"/>
  <tile gid="974"/>
  <tile gid="673"/>
  <tile gid="706"/>
  <tile gid="2"/>
  <tile gid="10"/>
  <tile gid="79"/>
  <tile gid="41"/>
  <tile gid="193"/>
  <tile gid="193"/>
  <tile gid="483"/>
  <tile gid="484"/>
  <tile gid="17"/>
  <tile gid="193"/>
  <tile gid="18"/>
  <tile gid="420"/>
  <tile gid="10"/>
  <tile gid="112"/>
  <tile gid="129"/>
  <tile gid="817"/>
  <tile gid="769"/>
  <tile gid="740"/>
  <tile gid="941"/>
  <tile gid="776"/>
  <tile gid="776"/>
  <tile gid="679"/>
  <tile gid="941"/>
  <tile gid="942"/>
  <tile gid="942"/>
  <tile gid="942"/>
  <tile gid="679"/>
  <tile gid="1005"/>
  <tile gid="942"/>
  <tile gid="1006"/>
  <tile gid="769"/>
  <tile gid="708"/>
  <tile gid="674"/>
  <tile gid="2"/>
  <tile gid="106"/>
  <tile gid="79"/>
  <tile gid="41"/>
  <tile gid="193"/>
  <tile gid="134"/>
  <tile gid="420"/>
  <tile gid="173"/>
  <tile gid="193"/>
  <tile gid="173"/>
  <tile gid="77"/>
  <tile gid="7"/>
  <tile gid="8"/>
  <tile gid="193"/>
  <tile gid="193"/>
  <tile gid="746"/>
  <tile gid="769"/>
  <tile gid="740"/>
  <tile gid="941"/>
  <tile gid="1006"/>
  <tile gid="769"/>
  <tile gid="738"/>
  <tile gid="941"/>
  <tile gid="737"/>
  <tile gid="646"/>
  <tile gid="772"/>
  <tile gid="941"/>
  <tile gid="942"/>
  <tile gid="1006"/>
  <tile gid="974"/>
  <tile gid="673"/>
  <tile gid="706"/>
  <tile gid="34"/>
  <tile gid="39"/>
  <tile gid="40"/>
  <tile gid="106"/>
  <tile gid="41"/>
  <tile gid="272"/>
  <tile gid="209"/>
  <tile gid="495"/>
  <tile gid="497"/>
  <tile gid="17"/>
  <tile gid="106"/>
  <tile gid="79"/>
  <tile gid="105"/>
  <tile gid="193"/>
  <tile gid="417"/>
  <tile gid="419"/>
  <tile gid="746"/>
  <tile gid="679"/>
  <tile gid="1005"/>
  <tile gid="1006"/>
  <tile gid="1006"/>
  <tile gid="769"/>
  <tile gid="677"/>
  <tile gid="772"/>
  <tile gid="909"/>
  <tile gid="910"/>
  <tile gid="1006"/>
  <tile gid="942"/>
  <tile gid="1006"/>
  <tile gid="1006"/>
  <tile gid="739"/>
  <tile gid="785"/>
  <tile gid="34"/>
  <tile gid="80"/>
  <tile gid="41"/>
  <tile gid="39"/>
  <tile gid="40"/>
  <tile gid="272"/>
  <tile gid="272"/>
  <tile gid="134"/>
  <tile gid="130"/>
  <tile gid="173"/>
  <tile gid="39"/>
  <tile gid="79"/>
  <tile gid="79"/>
  <tile gid="8"/>
  <tile gid="7"/>
  <tile gid="8"/>
  <tile gid="193"/>
  <tile gid="785"/>
  <tile gid="740"/>
  <tile gid="941"/>
  <tile gid="942"/>
  <tile gid="1006"/>
  <tile gid="741"/>
  <tile gid="909"/>
  <tile gid="1006"/>
  <tile gid="942"/>
  <tile gid="1006"/>
  <tile gid="1006"/>
  <tile gid="1006"/>
  <tile gid="942"/>
  <tile gid="709"/>
  <tile gid="817"/>
  <tile gid="34"/>
  <tile gid="7"/>
  <tile gid="79"/>
  <tile gid="41"/>
  <tile gid="193"/>
  <tile gid="862"/>
  <tile gid="768"/>
  <tile gid="272"/>
  <tile gid="537"/>
  <tile gid="558"/>
  <tile gid="560"/>
  <tile gid="356"/>
  <tile gid="79"/>
  <tile gid="79"/>
  <tile gid="74"/>
  <tile gid="40"/>
  <tile gid="258"/>
  <tile gid="817"/>
  <tile gid="679"/>
  <tile gid="1005"/>
  <tile gid="1006"/>
  <tile gid="1006"/>
  <tile gid="1006"/>
  <tile gid="1006"/>
  <tile gid="1006"/>
  <tile gid="1006"/>
  <tile gid="1006"/>
  <tile gid="1006"/>
  <tile gid="1006"/>
  <tile gid="737"/>
  <tile gid="770"/>
  <tile gid="34"/>
  <tile gid="20"/>
  <tile gid="79"/>
  <tile gid="79"/>
  <tile gid="105"/>
  <tile gid="258"/>
  <tile gid="828"/>
  <tile gid="272"/>
  <tile gid="273"/>
  <tile gid="892"/>
  <tile gid="134"/>
  <tile gid="7"/>
  <tile gid="79"/>
  <tile gid="74"/>
  <tile gid="40"/>
  <tile gid="420"/>
  <tile gid="112"/>
  <tile gid="193"/>
  <tile gid="130"/>
  <tile gid="679"/>
  <tile gid="941"/>
  <tile gid="1006"/>
  <tile gid="942"/>
  <tile gid="942"/>
  <tile gid="1006"/>
  <tile gid="1006"/>
  <tile gid="942"/>
  <tile gid="1006"/>
  <tile gid="1006"/>
  <tile gid="737"/>
  <tile gid="770"/>
  <tile gid="748"/>
  <tile gid="66"/>
  <tile gid="193"/>
  <tile gid="106"/>
  <tile gid="79"/>
  <tile gid="105"/>
  <tile gid="129"/>
  <tile gid="860"/>
  <tile gid="272"/>
  <tile gid="272"/>
  <tile gid="272"/>
  <tile gid="166"/>
  <tile gid="109"/>
  <tile gid="79"/>
  <tile gid="8"/>
  <tile gid="193"/>
  <tile gid="133"/>
  <tile gid="134"/>
  <tile gid="193"/>
  <tile gid="193"/>
  <tile gid="679"/>
  <tile gid="1005"/>
  <tile gid="776"/>
  <tile gid="941"/>
  <tile gid="1006"/>
  <tile gid="1006"/>
  <tile gid="1006"/>
  <tile gid="942"/>
  <tile gid="1006"/>
  <tile gid="673"/>
  <tile gid="674"/>
  <tile gid="748"/>
  <tile gid="66"/>
  <tile gid="193"/>
  <tile gid="193"/>
  <tile gid="10"/>
  <tile gid="40"/>
  <tile gid="78"/>
  <tile gid="193"/>
  <tile gid="853"/>
  <tile gid="860"/>
  <tile gid="272"/>
  <tile gid="272"/>
  <tile gid="134"/>
  <tile gid="39"/>
  <tile gid="420"/>
  <tile gid="40"/>
  <tile gid="193"/>
  <tile gid="173"/>
  <tile gid="240"/>
  <tile gid="134"/>
  <tile gid="193"/>
  <tile gid="679"/>
  <tile gid="941"/>
  <tile gid="1006"/>
  <tile gid="1006"/>
  <tile gid="1006"/>
  <tile gid="737"/>
  <tile gid="646"/>
  <tile gid="785"/>
  <tile gid="1005"/>
  <tile gid="785"/>
  <tile gid="785"/>
  <tile gid="34"/>
  <tile gid="193"/>
  <tile gid="193"/>
  <tile gid="193"/>
  <tile gid="42"/>
  <tile gid="73"/>
  <tile gid="8"/>
  <tile gid="193"/>
  <tile gid="853"/>
  <tile gid="853"/>
  <tile gid="860"/>
  <tile gid="272"/>
  <tile gid="206"/>
  <tile gid="193"/>
  <tile gid="193"/>
  <tile gid="356"/>
  <tile gid="193"/>
  <tile gid="133"/>
  <tile gid="143"/>
  <tile gid="166"/>
  <tile gid="193"/>
  <tile gid="785"/>
  <tile gid="738"/>
  <tile gid="941"/>
  <tile gid="776"/>
  <tile gid="941"/>
  <tile gid="679"/>
  <tile gid="744"/>
  <tile gid="817"/>
  <tile gid="777"/>
  <tile gid="817"/>
  <tile gid="785"/>
  <tile gid="785"/>
  <tile gid="2"/>
  <tile gid="193"/>
  <tile gid="7"/>
  <tile gid="79"/>
  <tile gid="79"/>
  <tile gid="40"/>
  <tile gid="193"/>
  <tile gid="853"/>
  <tile gid="853"/>
  <tile gid="828"/>
  <tile gid="272"/>
  <tile gid="272"/>
  <tile gid="209"/>
  <tile gid="258"/>
  <tile gid="193"/>
  <tile gid="193"/>
  <tile gid="165"/>
  <tile gid="272"/>
  <tile gid="202"/>
  <tile gid="193"/>
  <tile gid="817"/>
  <tile gid="771"/>
  <tile gid="644"/>
  <tile gid="644"/>
  <tile gid="644"/>
  <tile gid="785"/>
  <tile gid="34"/>
  <tile gid="66"/>
  <tile gid="777"/>
  <tile gid="66"/>
  <tile gid="817"/>
  <tile gid="817"/>
  <tile gid="66"/>
  <tile gid="258"/>
  <tile gid="10"/>
  <tile gid="79"/>
  <tile gid="40"/>
  <tile gid="130"/>
  <tile gid="130"/>
  <tile gid="856"/>
  <tile gid="853"/>
  <tile gid="860"/>
  <tile gid="272"/>
  <tile gid="272"/>
  <tile gid="272"/>
  <tile gid="143"/>
  <tile gid="134"/>
  <tile gid="258"/>
  <tile gid="258"/>
  <tile gid="240"/>
  <tile gid="209"/>
  <tile gid="193"/>
  <tile gid="193"/>
  <tile gid="746"/>
  <tile gid="747"/>
  <tile gid="747"/>
  <tile gid="747"/>
  <tile gid="817"/>
  <tile gid="66"/>
  <tile gid="208"/>
  <tile gid="134"/>
  <tile gid="193"/>
  <tile gid="193"/>
  <tile gid="193"/>
  <tile gid="193"/>
  <tile gid="420"/>
  <tile gid="193"/>
  <tile gid="10"/>
  <tile gid="41"/>
  <tile gid="258"/>
  <tile gid="193"/>
  <tile gid="885"/>
  <tile gid="853"/>
  <tile gid="853"/>
  <tile gid="862"/>
  <tile gid="860"/>
  <tile gid="864"/>
  <tile gid="272"/>
  <tile gid="272"/>
  <tile gid="209"/>
  <tile gid="420"/>
  <tile gid="201"/>
  <tile gid="272"/>
  <tile gid="143"/>
  <tile gid="134"/>
  <tile gid="258"/>
  <tile gid="193"/>
  <tile gid="130"/>
  <tile gid="193"/>
  <tile gid="193"/>
  <tile gid="201"/>
  <tile gid="272"/>
  <tile gid="272"/>
  <tile gid="209"/>
  <tile gid="193"/>
  <tile gid="193"/>
  <tile gid="193"/>
  <tile gid="193"/>
  <tile gid="420"/>
  <tile gid="42"/>
  <tile gid="40"/>
  <tile gid="193"/>
  <tile gid="258"/>
  <tile gid="885"/>
  <tile gid="885"/>
  <tile gid="856"/>
  <tile gid="853"/>
  <tile gid="853"/>
  <tile gid="853"/>
  <tile gid="860"/>
  <tile gid="864"/>
  <tile gid="272"/>
  <tile gid="202"/>
  <tile gid="193"/>
  <tile gid="240"/>
  <tile gid="892"/>
  <tile gid="166"/>
  <tile gid="258"/>
  <tile gid="258"/>
  <tile gid="133"/>
  <tile gid="143"/>
  <tile gid="134"/>
  <tile gid="133"/>
  <tile gid="272"/>
  <tile gid="272"/>
  <tile gid="272"/>
  <tile gid="143"/>
  <tile gid="209"/>
  <tile gid="7"/>
  <tile gid="8"/>
  <tile gid="7"/>
  <tile gid="9"/>
  <tile gid="193"/>
  <tile gid="193"/>
  <tile gid="451"/>
  <tile gid="885"/>
  <tile gid="885"/>
  <tile gid="885"/>
  <tile gid="885"/>
  <tile gid="856"/>
  <tile gid="853"/>
  <tile gid="853"/>
  <tile gid="828"/>
  <tile gid="272"/>
  <tile gid="134"/>
  <tile gid="193"/>
  <tile gid="193"/>
  <tile gid="240"/>
  <tile gid="134"/>
  <tile gid="356"/>
  <tile gid="193"/>
  <tile gid="205"/>
  <tile gid="272"/>
  <tile gid="175"/>
  <tile gid="272"/>
  <tile gid="272"/>
  <tile gid="175"/>
  <tile gid="166"/>
  <tile gid="240"/>
  <tile gid="166"/>
  <tile gid="10"/>
  <tile gid="40"/>
  <tile gid="78"/>
  <tile gid="193"/>
  <tile gid="193"/>
  <tile gid="193"/>
  <tile gid="483"/>
  <tile gid="885"/>
  <tile gid="885"/>
  <tile gid="885"/>
  <tile gid="885"/>
  <tile gid="885"/>
  <tile gid="856"/>
  <tile gid="853"/>
  <tile gid="860"/>
  <tile gid="272"/>
  <tile gid="272"/>
  <tile gid="209"/>
  <tile gid="258"/>
  <tile gid="133"/>
  <tile gid="272"/>
  <tile gid="134"/>
  <tile gid="208"/>
  <tile gid="272"/>
  <tile gid="241"/>
  <tile gid="193"/>
  <tile gid="165"/>
  <tile gid="241"/>
  <tile gid="470"/>
  <tile gid="495"/>
  <tile gid="497"/>
  <tile gid="193"/>
  <tile gid="193"/>
  <tile gid="193"/>
  <tile gid="193"/>
  <tile gid="193"/>
  <tile gid="321"/>
  <tile gid="322"/>
  <tile gid="323"/>
  <tile gid="885"/>
  <tile gid="885"/>
  <tile gid="885"/>
  <tile gid="885"/>
  <tile gid="885"/>
  <tile gid="885"/>
  <tile gid="856"/>
  <tile gid="853"/>
  <tile gid="860"/>
  <tile gid="272"/>
  <tile gid="272"/>
  <tile gid="143"/>
  <tile gid="272"/>
  <tile gid="273"/>
  <tile gid="272"/>
  <tile gid="175"/>
  <tile gid="166"/>
  <tile gid="193"/>
  <tile gid="193"/>
  <tile gid="193"/>
  <tile gid="495"/>
  <tile gid="497"/>
  <tile gid="193"/>
  <tile gid="193"/>
  <tile gid="193"/>
  <tile gid="193"/>
  <tile gid="193"/>
  <tile gid="193"/>
  <tile gid="420"/>
  <tile gid="353"/>
  <tile gid="354"/>
  <tile gid="355"/>
  <tile gid="885"/>
  <tile gid="885"/>
  <tile gid="885"/>
  <tile gid="885"/>
  <tile gid="885"/>
  <tile gid="885"/>
  <tile gid="885"/>
  <tile gid="856"/>
  <tile gid="853"/>
  <tile gid="860"/>
  <tile gid="864"/>
  <tile gid="864"/>
  <tile gid="272"/>
  <tile gid="272"/>
  <tile gid="166"/>
  <tile gid="193"/>
  <tile gid="193"/>
  <tile gid="193"/>
  <tile gid="193"/>
  <tile gid="193"/>
  <tile gid="193"/>
  <tile gid="495"/>
  <tile gid="497"/>
  <tile gid="193"/>
  <tile gid="193"/>
  <tile gid="193"/>
  <tile gid="420"/>
  <tile gid="451"/>
  <tile gid="452"/>
  <tile gid="385"/>
  <tile gid="386"/>
  <tile gid="387"/>
  </data>
 </layer>
</map>
