<?xml version="1.0" encoding="UTF-8"?>
<map version="1.0" orientation="orthogonal" width="32" height="22" tilewidth="16" tileheight="16">
 <tileset firstgid="1" name="0E00EA10" tilewidth="16" tileheight="16">
  <image source="0E00EA10.png" trans="ffffff"/>
 </tileset>
 <layer name="Tile Layer 1" width="32" height="22">
  <properties>
   <property name="Main" value =""/>
  </properties>
  <data>
  <tile gid="995"/>
  <tile gid="811"/>
  <tile gid="129"/>
  <tile gid="226"/>
  <tile gid="809"/>
  <tile gid="462"/>
  <tile gid="874"/>
  <tile gid="962"/>
  <tile gid="901"/>
  <tile gid="934"/>
  <tile gid="874"/>
  <tile gid="962"/>
  <tile gid="901"/>
  <tile gid="932"/>
  <tile gid="962"/>
  <tile gid="901"/>
  <tile gid="933"/>
  <tile gid="933"/>
  <tile gid="808"/>
  <tile gid="876"/>
  <tile gid="807"/>
  <tile gid="964"/>
  <tile gid="866"/>
  <tile gid="901"/>
  <tile gid="868"/>
  <tile gid="900"/>
  <tile gid="866"/>
  <tile gid="874"/>
  <tile gid="866"/>
  <tile gid="901"/>
  <tile gid="933"/>
  <tile gid="964"/>
  <tile gid="874"/>
  <tile gid="899"/>
  <tile gid="811"/>
  <tile gid="226"/>
  <tile gid="226"/>
  <tile gid="869"/>
  <tile gid="938"/>
  <tile gid="901"/>
  <tile gid="933"/>
  <tile gid="902"/>
  <tile gid="938"/>
  <tile gid="931"/>
  <tile gid="933"/>
  <tile gid="902"/>
  <tile gid="931"/>
  <tile gid="933"/>
  <tile gid="933"/>
  <tile gid="933"/>
  <tile gid="803"/>
  <tile gid="98"/>
  <tile gid="99"/>
  <tile gid="809"/>
  <tile gid="876"/>
  <tile gid="807"/>
  <tile gid="807"/>
  <tile gid="807"/>
  <tile gid="964"/>
  <tile gid="938"/>
  <tile gid="901"/>
  <tile gid="964"/>
  <tile gid="971"/>
  <tile gid="866"/>
  <tile gid="938"/>
  <tile gid="901"/>
  <tile gid="803"/>
  <tile gid="162"/>
  <tile gid="162"/>
  <tile gid="809"/>
  <tile gid="462"/>
  <tile gid="899"/>
  <tile gid="933"/>
  <tile gid="933"/>
  <tile gid="902"/>
  <tile gid="876"/>
  <tile gid="803"/>
  <tile gid="809"/>
  <tile gid="876"/>
  <tile gid="807"/>
  <tile gid="807"/>
  <tile gid="803"/>
  <tile gid="226"/>
  <tile gid="226"/>
  <tile gid="226"/>
  <tile gid="98"/>
  <tile gid="99"/>
  <tile gid="98"/>
  <tile gid="99"/>
  <tile gid="98"/>
  <tile gid="809"/>
  <tile gid="876"/>
  <tile gid="964"/>
  <tile gid="866"/>
  <tile gid="866"/>
  <tile gid="866"/>
  <tile gid="901"/>
  <tile gid="808"/>
  <tile gid="97"/>
  <tile gid="129"/>
  <tile gid="17"/>
  <tile gid="226"/>
  <tile gid="809"/>
  <tile gid="876"/>
  <tile gid="807"/>
  <tile gid="807"/>
  <tile gid="803"/>
  <tile gid="356"/>
  <tile gid="129"/>
  <tile gid="356"/>
  <tile gid="226"/>
  <tile gid="226"/>
  <tile gid="129"/>
  <tile gid="226"/>
  <tile gid="162"/>
  <tile gid="20"/>
  <tile gid="226"/>
  <tile gid="226"/>
  <tile gid="129"/>
  <tile gid="129"/>
  <tile gid="129"/>
  <tile gid="420"/>
  <tile gid="98"/>
  <tile gid="99"/>
  <tile gid="869"/>
  <tile gid="866"/>
  <tile gid="874"/>
  <tile gid="901"/>
  <tile gid="933"/>
  <tile gid="803"/>
  <tile gid="97"/>
  <tile gid="226"/>
  <tile gid="173"/>
  <tile gid="226"/>
  <tile gid="130"/>
  <tile gid="972"/>
  <tile gid="226"/>
  <tile gid="420"/>
  <tile gid="162"/>
  <tile gid="129"/>
  <tile gid="420"/>
  <tile gid="129"/>
  <tile gid="420"/>
  <tile gid="802"/>
  <tile gid="899"/>
  <tile gid="811"/>
  <tile gid="972"/>
  <tile gid="173"/>
  <tile gid="129"/>
  <tile gid="226"/>
  <tile gid="972"/>
  <tile gid="972"/>
  <tile gid="129"/>
  <tile gid="226"/>
  <tile gid="98"/>
  <tile gid="99"/>
  <tile gid="809"/>
  <tile gid="398"/>
  <tile gid="938"/>
  <tile gid="995"/>
  <tile gid="808"/>
  <tile gid="98"/>
  <tile gid="99"/>
  <tile gid="356"/>
  <tile gid="226"/>
  <tile gid="98"/>
  <tile gid="99"/>
  <tile gid="226"/>
  <tile gid="226"/>
  <tile gid="802"/>
  <tile gid="874"/>
  <tile gid="971"/>
  <tile gid="899"/>
  <tile gid="811"/>
  <tile gid="226"/>
  <tile gid="869"/>
  <tile gid="901"/>
  <tile gid="803"/>
  <tile gid="97"/>
  <tile gid="226"/>
  <tile gid="226"/>
  <tile gid="226"/>
  <tile gid="226"/>
  <tile gid="129"/>
  <tile gid="972"/>
  <tile gid="130"/>
  <tile gid="130"/>
  <tile gid="98"/>
  <tile gid="99"/>
  <tile gid="869"/>
  <tile gid="866"/>
  <tile gid="866"/>
  <tile gid="808"/>
  <tile gid="97"/>
  <tile gid="420"/>
  <tile gid="226"/>
  <tile gid="420"/>
  <tile gid="226"/>
  <tile gid="226"/>
  <tile gid="226"/>
  <tile gid="97"/>
  <tile gid="869"/>
  <tile gid="938"/>
  <tile gid="866"/>
  <tile gid="901"/>
  <tile gid="934"/>
  <tile gid="971"/>
  <tile gid="901"/>
  <tile gid="808"/>
  <tile gid="97"/>
  <tile gid="226"/>
  <tile gid="129"/>
  <tile gid="558"/>
  <tile gid="560"/>
  <tile gid="226"/>
  <tile gid="226"/>
  <tile gid="130"/>
  <tile gid="972"/>
  <tile gid="226"/>
  <tile gid="98"/>
  <tile gid="99"/>
  <tile gid="809"/>
  <tile gid="398"/>
  <tile gid="866"/>
  <tile gid="808"/>
  <tile gid="97"/>
  <tile gid="356"/>
  <tile gid="213"/>
  <tile gid="214"/>
  <tile gid="215"/>
  <tile gid="97"/>
  <tile gid="972"/>
  <tile gid="802"/>
  <tile gid="866"/>
  <tile gid="866"/>
  <tile gid="901"/>
  <tile gid="933"/>
  <tile gid="964"/>
  <tile gid="866"/>
  <tile gid="899"/>
  <tile gid="808"/>
  <tile gid="98"/>
  <tile gid="99"/>
  <tile gid="226"/>
  <tile gid="129"/>
  <tile gid="20"/>
  <tile gid="558"/>
  <tile gid="560"/>
  <tile gid="226"/>
  <tile gid="972"/>
  <tile gid="226"/>
  <tile gid="226"/>
  <tile gid="98"/>
  <tile gid="99"/>
  <tile gid="869"/>
  <tile gid="874"/>
  <tile gid="808"/>
  <tile gid="97"/>
  <tile gid="226"/>
  <tile gid="245"/>
  <tile gid="246"/>
  <tile gid="247"/>
  <tile gid="226"/>
  <tile gid="97"/>
  <tile gid="809"/>
  <tile gid="866"/>
  <tile gid="866"/>
  <tile gid="874"/>
  <tile gid="899"/>
  <tile gid="902"/>
  <tile gid="866"/>
  <tile gid="963"/>
  <tile gid="808"/>
  <tile gid="97"/>
  <tile gid="98"/>
  <tile gid="99"/>
  <tile gid="226"/>
  <tile gid="129"/>
  <tile gid="226"/>
  <tile gid="226"/>
  <tile gid="226"/>
  <tile gid="810"/>
  <tile gid="811"/>
  <tile gid="130"/>
  <tile gid="226"/>
  <tile gid="97"/>
  <tile gid="869"/>
  <tile gid="938"/>
  <tile gid="808"/>
  <tile gid="97"/>
  <tile gid="162"/>
  <tile gid="277"/>
  <tile gid="278"/>
  <tile gid="279"/>
  <tile gid="129"/>
  <tile gid="129"/>
  <tile gid="97"/>
  <tile gid="869"/>
  <tile gid="866"/>
  <tile gid="938"/>
  <tile gid="901"/>
  <tile gid="964"/>
  <tile gid="874"/>
  <tile gid="866"/>
  <tile gid="899"/>
  <tile gid="811"/>
  <tile gid="98"/>
  <tile gid="99"/>
  <tile gid="99"/>
  <tile gid="417"/>
  <tile gid="419"/>
  <tile gid="420"/>
  <tile gid="356"/>
  <tile gid="869"/>
  <tile gid="899"/>
  <tile gid="811"/>
  <tile gid="226"/>
  <tile gid="97"/>
  <tile gid="869"/>
  <tile gid="866"/>
  <tile gid="808"/>
  <tile gid="97"/>
  <tile gid="420"/>
  <tile gid="39"/>
  <tile gid="105"/>
  <tile gid="226"/>
  <tile gid="129"/>
  <tile gid="129"/>
  <tile gid="226"/>
  <tile gid="809"/>
  <tile gid="866"/>
  <tile gid="901"/>
  <tile gid="964"/>
  <tile gid="866"/>
  <tile gid="938"/>
  <tile gid="866"/>
  <tile gid="901"/>
  <tile gid="964"/>
  <tile gid="899"/>
  <tile gid="812"/>
  <tile gid="899"/>
  <tile gid="811"/>
  <tile gid="420"/>
  <tile gid="356"/>
  <tile gid="810"/>
  <tile gid="874"/>
  <tile gid="901"/>
  <tile gid="808"/>
  <tile gid="162"/>
  <tile gid="97"/>
  <tile gid="869"/>
  <tile gid="874"/>
  <tile gid="808"/>
  <tile gid="97"/>
  <tile gid="162"/>
  <tile gid="226"/>
  <tile gid="106"/>
  <tile gid="41"/>
  <tile gid="226"/>
  <tile gid="420"/>
  <tile gid="98"/>
  <tile gid="99"/>
  <tile gid="869"/>
  <tile gid="899"/>
  <tile gid="902"/>
  <tile gid="866"/>
  <tile gid="866"/>
  <tile gid="901"/>
  <tile gid="807"/>
  <tile gid="902"/>
  <tile gid="876"/>
  <tile gid="902"/>
  <tile gid="931"/>
  <tile gid="870"/>
  <tile gid="971"/>
  <tile gid="971"/>
  <tile gid="866"/>
  <tile gid="938"/>
  <tile gid="899"/>
  <tile gid="808"/>
  <tile gid="226"/>
  <tile gid="97"/>
  <tile gid="869"/>
  <tile gid="938"/>
  <tile gid="808"/>
  <tile gid="97"/>
  <tile gid="226"/>
  <tile gid="42"/>
  <tile gid="79"/>
  <tile gid="40"/>
  <tile gid="226"/>
  <tile gid="356"/>
  <tile gid="97"/>
  <tile gid="802"/>
  <tile gid="866"/>
  <tile gid="901"/>
  <tile gid="803"/>
  <tile gid="809"/>
  <tile gid="876"/>
  <tile gid="803"/>
  <tile gid="21"/>
  <tile gid="22"/>
  <tile gid="23"/>
  <tile gid="809"/>
  <tile gid="876"/>
  <tile gid="902"/>
  <tile gid="866"/>
  <tile gid="901"/>
  <tile gid="902"/>
  <tile gid="866"/>
  <tile gid="901"/>
  <tile gid="803"/>
  <tile gid="226"/>
  <tile gid="97"/>
  <tile gid="869"/>
  <tile gid="866"/>
  <tile gid="808"/>
  <tile gid="98"/>
  <tile gid="99"/>
  <tile gid="356"/>
  <tile gid="105"/>
  <tile gid="130"/>
  <tile gid="129"/>
  <tile gid="97"/>
  <tile gid="802"/>
  <tile gid="866"/>
  <tile gid="901"/>
  <tile gid="803"/>
  <tile gid="162"/>
  <tile gid="162"/>
  <tile gid="98"/>
  <tile gid="99"/>
  <tile gid="85"/>
  <tile gid="86"/>
  <tile gid="87"/>
  <tile gid="162"/>
  <tile gid="13"/>
  <tile gid="809"/>
  <tile gid="876"/>
  <tile gid="807"/>
  <tile gid="807"/>
  <tile gid="876"/>
  <tile gid="803"/>
  <tile gid="130"/>
  <tile gid="226"/>
  <tile gid="226"/>
  <tile gid="869"/>
  <tile gid="866"/>
  <tile gid="899"/>
  <tile gid="811"/>
  <tile gid="98"/>
  <tile gid="99"/>
  <tile gid="79"/>
  <tile gid="112"/>
  <tile gid="130"/>
  <tile gid="97"/>
  <tile gid="809"/>
  <tile gid="876"/>
  <tile gid="803"/>
  <tile gid="97"/>
  <tile gid="13"/>
  <tile gid="226"/>
  <tile gid="97"/>
  <tile gid="162"/>
  <tile gid="97"/>
  <tile gid="165"/>
  <tile gid="202"/>
  <tile gid="162"/>
  <tile gid="226"/>
  <tile gid="226"/>
  <tile gid="226"/>
  <tile gid="129"/>
  <tile gid="129"/>
  <tile gid="129"/>
  <tile gid="129"/>
  <tile gid="7"/>
  <tile gid="20"/>
  <tile gid="8"/>
  <tile gid="809"/>
  <tile gid="398"/>
  <tile gid="963"/>
  <tile gid="808"/>
  <tile gid="130"/>
  <tile gid="420"/>
  <tile gid="79"/>
  <tile gid="8"/>
  <tile gid="226"/>
  <tile gid="972"/>
  <tile gid="972"/>
  <tile gid="98"/>
  <tile gid="99"/>
  <tile gid="130"/>
  <tile gid="97"/>
  <tile gid="130"/>
  <tile gid="162"/>
  <tile gid="130"/>
  <tile gid="130"/>
  <tile gid="7"/>
  <tile gid="20"/>
  <tile gid="8"/>
  <tile gid="77"/>
  <tile gid="162"/>
  <tile gid="77"/>
  <tile gid="7"/>
  <tile gid="73"/>
  <tile gid="112"/>
  <tile gid="129"/>
  <tile gid="39"/>
  <tile gid="79"/>
  <tile gid="40"/>
  <tile gid="226"/>
  <tile gid="809"/>
  <tile gid="874"/>
  <tile gid="971"/>
  <tile gid="899"/>
  <tile gid="811"/>
  <tile gid="972"/>
  <tile gid="20"/>
  <tile gid="972"/>
  <tile gid="972"/>
  <tile gid="97"/>
  <tile gid="226"/>
  <tile gid="129"/>
  <tile gid="129"/>
  <tile gid="162"/>
  <tile gid="162"/>
  <tile gid="129"/>
  <tile gid="162"/>
  <tile gid="129"/>
  <tile gid="106"/>
  <tile gid="105"/>
  <tile gid="106"/>
  <tile gid="105"/>
  <tile gid="7"/>
  <tile gid="79"/>
  <tile gid="74"/>
  <tile gid="79"/>
  <tile gid="8"/>
  <tile gid="7"/>
  <tile gid="73"/>
  <tile gid="79"/>
  <tile gid="112"/>
  <tile gid="162"/>
  <tile gid="162"/>
  <tile gid="938"/>
  <tile gid="962"/>
  <tile gid="901"/>
  <tile gid="808"/>
  <tile gid="80"/>
  <tile gid="79"/>
  <tile gid="40"/>
  <tile gid="226"/>
  <tile gid="129"/>
  <tile gid="558"/>
  <tile gid="560"/>
  <tile gid="13"/>
  <tile gid="41"/>
  <tile gid="129"/>
  <tile gid="130"/>
  <tile gid="7"/>
  <tile gid="73"/>
  <tile gid="417"/>
  <tile gid="419"/>
  <tile gid="39"/>
  <tile gid="74"/>
  <tile gid="40"/>
  <tile gid="78"/>
  <tile gid="226"/>
  <tile gid="39"/>
  <tile gid="74"/>
  <tile gid="9"/>
  <tile gid="39"/>
  <tile gid="74"/>
  <tile gid="41"/>
  <tile gid="129"/>
  <tile gid="129"/>
  <tile gid="962"/>
  <tile gid="901"/>
  <tile gid="933"/>
  <tile gid="808"/>
  <tile gid="162"/>
  <tile gid="39"/>
  <tile gid="41"/>
  <tile gid="77"/>
  <tile gid="162"/>
  <tile gid="162"/>
  <tile gid="7"/>
  <tile gid="79"/>
  <tile gid="105"/>
  <tile gid="226"/>
  <tile gid="226"/>
  <tile gid="106"/>
  <tile gid="9"/>
  <tile gid="420"/>
  <tile gid="129"/>
  <tile gid="129"/>
  <tile gid="226"/>
  <tile gid="972"/>
  <tile gid="129"/>
  <tile gid="226"/>
  <tile gid="497"/>
  <tile gid="495"/>
  <tile gid="129"/>
  <tile gid="226"/>
  <tile gid="80"/>
  <tile gid="79"/>
  <tile gid="8"/>
  <tile gid="129"/>
  <tile gid="962"/>
  <tile gid="899"/>
  <tile gid="934"/>
  <tile gid="971"/>
  <tile gid="899"/>
  <tile gid="811"/>
  <tile gid="39"/>
  <tile gid="79"/>
  <tile gid="73"/>
  <tile gid="8"/>
  <tile gid="106"/>
  <tile gid="105"/>
  <tile gid="39"/>
  <tile gid="73"/>
  <tile gid="73"/>
  <tile gid="9"/>
  <tile gid="356"/>
  <tile gid="226"/>
  <tile gid="162"/>
  <tile gid="810"/>
  <tile gid="971"/>
  <tile gid="995"/>
  <tile gid="811"/>
  <tile gid="972"/>
  <tile gid="226"/>
  <tile gid="420"/>
  <tile gid="162"/>
  <tile gid="129"/>
  <tile gid="129"/>
  <tile gid="106"/>
  <tile gid="40"/>
  <tile gid="129"/>
  <tile gid="962"/>
  <tile gid="901"/>
  <tile gid="964"/>
  <tile gid="962"/>
  <tile gid="901"/>
  <tile gid="964"/>
  <tile gid="899"/>
  <tile gid="811"/>
  <tile gid="40"/>
  <tile gid="39"/>
  <tile gid="74"/>
  <tile gid="40"/>
  <tile gid="226"/>
  <tile gid="107"/>
  <tile gid="108"/>
  <tile gid="226"/>
  <tile gid="226"/>
  <tile gid="810"/>
  <tile gid="899"/>
  <tile gid="902"/>
  <tile gid="962"/>
  <tile gid="962"/>
  <tile gid="899"/>
  <tile gid="811"/>
  <tile gid="226"/>
  <tile gid="162"/>
  <tile gid="356"/>
  <tile gid="7"/>
  <tile gid="73"/>
  <tile gid="9"/>
  <tile gid="162"/>
  <tile gid="226"/>
  <tile gid="901"/>
  <tile gid="933"/>
  <tile gid="902"/>
  <tile gid="962"/>
  <tile gid="971"/>
  <tile gid="902"/>
  <tile gid="901"/>
  <tile gid="964"/>
  <tile gid="874"/>
  <tile gid="971"/>
  <tile gid="971"/>
  <tile gid="971"/>
  <tile gid="874"/>
  <tile gid="971"/>
  <tile gid="971"/>
  <tile gid="899"/>
  <tile gid="812"/>
  <tile gid="962"/>
  <tile gid="901"/>
  <tile gid="934"/>
  <tile gid="962"/>
  <tile gid="962"/>
  <tile gid="901"/>
  <tile gid="933"/>
  <tile gid="811"/>
  <tile gid="226"/>
  <tile gid="80"/>
  <tile gid="79"/>
  <tile gid="40"/>
  <tile gid="129"/>
  <tile gid="129"/>
  <tile gid="129"/>
  </data>
 </layer>
</map>
