<?xml version="1.0" encoding="UTF-8"?>
<map version="1.0" orientation="orthogonal" width="32" height="25" tilewidth="16" tileheight="16">
 <tileset firstgid="1" name="0E000F10" tilewidth="16" tileheight="16">
  <image source="0E000F10.png" trans="ffffff"/>
 </tileset>
 <layer name="Tile Layer 1" width="32" height="25">
  <properties>
   <property name="Main" value =""/>
  </properties>
  <data>
  <tile gid="420"/>
  <tile gid="356"/>
  <tile gid="420"/>
  <tile gid="321"/>
  <tile gid="322"/>
  <tile gid="323"/>
  <tile gid="417"/>
  <tile gid="419"/>
  <tile gid="417"/>
  <tile gid="419"/>
  <tile gid="321"/>
  <tile gid="322"/>
  <tile gid="323"/>
  <tile gid="451"/>
  <tile gid="452"/>
  <tile gid="420"/>
  <tile gid="420"/>
  <tile gid="420"/>
  <tile gid="420"/>
  <tile gid="420"/>
  <tile gid="321"/>
  <tile gid="322"/>
  <tile gid="323"/>
  <tile gid="417"/>
  <tile gid="419"/>
  <tile gid="420"/>
  <tile gid="922"/>
  <tile gid="955"/>
  <tile gid="226"/>
  <tile gid="39"/>
  <tile gid="74"/>
  <tile gid="79"/>
  <tile gid="451"/>
  <tile gid="452"/>
  <tile gid="356"/>
  <tile gid="353"/>
  <tile gid="354"/>
  <tile gid="355"/>
  <tile gid="417"/>
  <tile gid="419"/>
  <tile gid="417"/>
  <tile gid="419"/>
  <tile gid="353"/>
  <tile gid="354"/>
  <tile gid="355"/>
  <tile gid="483"/>
  <tile gid="484"/>
  <tile gid="451"/>
  <tile gid="452"/>
  <tile gid="451"/>
  <tile gid="452"/>
  <tile gid="420"/>
  <tile gid="353"/>
  <tile gid="354"/>
  <tile gid="355"/>
  <tile gid="451"/>
  <tile gid="452"/>
  <tile gid="420"/>
  <tile gid="922"/>
  <tile gid="955"/>
  <tile gid="226"/>
  <tile gid="226"/>
  <tile gid="226"/>
  <tile gid="39"/>
  <tile gid="483"/>
  <tile gid="484"/>
  <tile gid="420"/>
  <tile gid="385"/>
  <tile gid="386"/>
  <tile gid="387"/>
  <tile gid="420"/>
  <tile gid="417"/>
  <tile gid="419"/>
  <tile gid="420"/>
  <tile gid="385"/>
  <tile gid="386"/>
  <tile gid="387"/>
  <tile gid="417"/>
  <tile gid="419"/>
  <tile gid="483"/>
  <tile gid="484"/>
  <tile gid="483"/>
  <tile gid="484"/>
  <tile gid="420"/>
  <tile gid="385"/>
  <tile gid="386"/>
  <tile gid="387"/>
  <tile gid="483"/>
  <tile gid="484"/>
  <tile gid="420"/>
  <tile gid="922"/>
  <tile gid="955"/>
  <tile gid="226"/>
  <tile gid="226"/>
  <tile gid="226"/>
  <tile gid="226"/>
  <tile gid="420"/>
  <tile gid="356"/>
  <tile gid="420"/>
  <tile gid="500"/>
  <tile gid="531"/>
  <tile gid="531"/>
  <tile gid="531"/>
  <tile gid="531"/>
  <tile gid="531"/>
  <tile gid="531"/>
  <tile gid="531"/>
  <tile gid="531"/>
  <tile gid="531"/>
  <tile gid="531"/>
  <tile gid="531"/>
  <tile gid="531"/>
  <tile gid="531"/>
  <tile gid="531"/>
  <tile gid="531"/>
  <tile gid="531"/>
  <tile gid="531"/>
  <tile gid="531"/>
  <tile gid="531"/>
  <tile gid="531"/>
  <tile gid="531"/>
  <tile gid="531"/>
  <tile gid="922"/>
  <tile gid="955"/>
  <tile gid="7"/>
  <tile gid="73"/>
  <tile gid="8"/>
  <tile gid="226"/>
  <tile gid="451"/>
  <tile gid="452"/>
  <tile gid="356"/>
  <tile gid="531"/>
  <tile gid="460"/>
  <tile gid="426"/>
  <tile gid="426"/>
  <tile gid="330"/>
  <tile gid="426"/>
  <tile gid="426"/>
  <tile gid="330"/>
  <tile gid="426"/>
  <tile gid="426"/>
  <tile gid="426"/>
  <tile gid="330"/>
  <tile gid="330"/>
  <tile gid="426"/>
  <tile gid="426"/>
  <tile gid="426"/>
  <tile gid="330"/>
  <tile gid="426"/>
  <tile gid="426"/>
  <tile gid="426"/>
  <tile gid="426"/>
  <tile gid="426"/>
  <tile gid="638"/>
  <tile gid="639"/>
  <tile gid="640"/>
  <tile gid="79"/>
  <tile gid="79"/>
  <tile gid="105"/>
  <tile gid="226"/>
  <tile gid="483"/>
  <tile gid="484"/>
  <tile gid="420"/>
  <tile gid="531"/>
  <tile gid="457"/>
  <tile gid="455"/>
  <tile gid="455"/>
  <tile gid="455"/>
  <tile gid="490"/>
  <tile gid="490"/>
  <tile gid="490"/>
  <tile gid="490"/>
  <tile gid="490"/>
  <tile gid="394"/>
  <tile gid="490"/>
  <tile gid="490"/>
  <tile gid="394"/>
  <tile gid="394"/>
  <tile gid="490"/>
  <tile gid="490"/>
  <tile gid="490"/>
  <tile gid="490"/>
  <tile gid="394"/>
  <tile gid="394"/>
  <tile gid="490"/>
  <tile gid="702"/>
  <tile gid="703"/>
  <tile gid="704"/>
  <tile gid="79"/>
  <tile gid="79"/>
  <tile gid="79"/>
  <tile gid="8"/>
  <tile gid="321"/>
  <tile gid="322"/>
  <tile gid="323"/>
  <tile gid="531"/>
  <tile gid="457"/>
  <tile gid="455"/>
  <tile gid="455"/>
  <tile gid="395"/>
  <tile gid="495"/>
  <tile gid="495"/>
  <tile gid="495"/>
  <tile gid="495"/>
  <tile gid="495"/>
  <tile gid="495"/>
  <tile gid="495"/>
  <tile gid="495"/>
  <tile gid="495"/>
  <tile gid="495"/>
  <tile gid="495"/>
  <tile gid="495"/>
  <tile gid="495"/>
  <tile gid="495"/>
  <tile gid="495"/>
  <tile gid="495"/>
  <tile gid="495"/>
  <tile gid="495"/>
  <tile gid="922"/>
  <tile gid="955"/>
  <tile gid="39"/>
  <tile gid="79"/>
  <tile gid="79"/>
  <tile gid="79"/>
  <tile gid="353"/>
  <tile gid="354"/>
  <tile gid="355"/>
  <tile gid="531"/>
  <tile gid="457"/>
  <tile gid="455"/>
  <tile gid="395"/>
  <tile gid="471"/>
  <tile gid="321"/>
  <tile gid="322"/>
  <tile gid="323"/>
  <tile gid="451"/>
  <tile gid="452"/>
  <tile gid="7"/>
  <tile gid="20"/>
  <tile gid="321"/>
  <tile gid="322"/>
  <tile gid="323"/>
  <tile gid="420"/>
  <tile gid="417"/>
  <tile gid="419"/>
  <tile gid="420"/>
  <tile gid="420"/>
  <tile gid="321"/>
  <tile gid="322"/>
  <tile gid="323"/>
  <tile gid="922"/>
  <tile gid="955"/>
  <tile gid="226"/>
  <tile gid="39"/>
  <tile gid="74"/>
  <tile gid="79"/>
  <tile gid="385"/>
  <tile gid="386"/>
  <tile gid="387"/>
  <tile gid="531"/>
  <tile gid="457"/>
  <tile gid="459"/>
  <tile gid="470"/>
  <tile gid="420"/>
  <tile gid="353"/>
  <tile gid="354"/>
  <tile gid="355"/>
  <tile gid="483"/>
  <tile gid="484"/>
  <tile gid="13"/>
  <tile gid="40"/>
  <tile gid="353"/>
  <tile gid="354"/>
  <tile gid="355"/>
  <tile gid="356"/>
  <tile gid="21"/>
  <tile gid="22"/>
  <tile gid="23"/>
  <tile gid="356"/>
  <tile gid="353"/>
  <tile gid="354"/>
  <tile gid="355"/>
  <tile gid="922"/>
  <tile gid="955"/>
  <tile gid="226"/>
  <tile gid="77"/>
  <tile gid="7"/>
  <tile gid="40"/>
  <tile gid="531"/>
  <tile gid="531"/>
  <tile gid="531"/>
  <tile gid="564"/>
  <tile gid="457"/>
  <tile gid="459"/>
  <tile gid="226"/>
  <tile gid="503"/>
  <tile gid="385"/>
  <tile gid="386"/>
  <tile gid="387"/>
  <tile gid="356"/>
  <tile gid="420"/>
  <tile gid="356"/>
  <tile gid="420"/>
  <tile gid="385"/>
  <tile gid="386"/>
  <tile gid="387"/>
  <tile gid="420"/>
  <tile gid="85"/>
  <tile gid="86"/>
  <tile gid="87"/>
  <tile gid="420"/>
  <tile gid="385"/>
  <tile gid="386"/>
  <tile gid="387"/>
  <tile gid="922"/>
  <tile gid="955"/>
  <tile gid="80"/>
  <tile gid="79"/>
  <tile gid="79"/>
  <tile gid="112"/>
  <tile gid="426"/>
  <tile gid="333"/>
  <tile gid="420"/>
  <tile gid="460"/>
  <tile gid="455"/>
  <tile gid="459"/>
  <tile gid="420"/>
  <tile gid="226"/>
  <tile gid="503"/>
  <tile gid="559"/>
  <tile gid="559"/>
  <tile gid="559"/>
  <tile gid="559"/>
  <tile gid="559"/>
  <tile gid="559"/>
  <tile gid="559"/>
  <tile gid="559"/>
  <tile gid="559"/>
  <tile gid="559"/>
  <tile gid="559"/>
  <tile gid="777"/>
  <tile gid="559"/>
  <tile gid="559"/>
  <tile gid="559"/>
  <tile gid="559"/>
  <tile gid="560"/>
  <tile gid="922"/>
  <tile gid="955"/>
  <tile gid="77"/>
  <tile gid="39"/>
  <tile gid="105"/>
  <tile gid="226"/>
  <tile gid="362"/>
  <tile gid="455"/>
  <tile gid="426"/>
  <tile gid="120"/>
  <tile gid="121"/>
  <tile gid="122"/>
  <tile gid="426"/>
  <tile gid="426"/>
  <tile gid="426"/>
  <tile gid="426"/>
  <tile gid="426"/>
  <tile gid="426"/>
  <tile gid="426"/>
  <tile gid="426"/>
  <tile gid="426"/>
  <tile gid="426"/>
  <tile gid="426"/>
  <tile gid="426"/>
  <tile gid="330"/>
  <tile gid="330"/>
  <tile gid="426"/>
  <tile gid="426"/>
  <tile gid="426"/>
  <tile gid="426"/>
  <tile gid="426"/>
  <tile gid="606"/>
  <tile gid="607"/>
  <tile gid="608"/>
  <tile gid="79"/>
  <tile gid="73"/>
  <tile gid="79"/>
  <tile gid="8"/>
  <tile gid="455"/>
  <tile gid="362"/>
  <tile gid="455"/>
  <tile gid="152"/>
  <tile gid="153"/>
  <tile gid="154"/>
  <tile gid="455"/>
  <tile gid="455"/>
  <tile gid="455"/>
  <tile gid="455"/>
  <tile gid="362"/>
  <tile gid="362"/>
  <tile gid="362"/>
  <tile gid="455"/>
  <tile gid="455"/>
  <tile gid="362"/>
  <tile gid="455"/>
  <tile gid="362"/>
  <tile gid="455"/>
  <tile gid="455"/>
  <tile gid="362"/>
  <tile gid="455"/>
  <tile gid="455"/>
  <tile gid="362"/>
  <tile gid="455"/>
  <tile gid="429"/>
  <tile gid="922"/>
  <tile gid="955"/>
  <tile gid="78"/>
  <tile gid="39"/>
  <tile gid="79"/>
  <tile gid="79"/>
  <tile gid="455"/>
  <tile gid="455"/>
  <tile gid="490"/>
  <tile gid="184"/>
  <tile gid="185"/>
  <tile gid="186"/>
  <tile gid="490"/>
  <tile gid="490"/>
  <tile gid="490"/>
  <tile gid="490"/>
  <tile gid="490"/>
  <tile gid="490"/>
  <tile gid="490"/>
  <tile gid="394"/>
  <tile gid="394"/>
  <tile gid="490"/>
  <tile gid="490"/>
  <tile gid="490"/>
  <tile gid="490"/>
  <tile gid="490"/>
  <tile gid="490"/>
  <tile gid="490"/>
  <tile gid="490"/>
  <tile gid="490"/>
  <tile gid="490"/>
  <tile gid="606"/>
  <tile gid="607"/>
  <tile gid="608"/>
  <tile gid="73"/>
  <tile gid="73"/>
  <tile gid="79"/>
  <tile gid="79"/>
  <tile gid="394"/>
  <tile gid="429"/>
  <tile gid="420"/>
  <tile gid="457"/>
  <tile gid="455"/>
  <tile gid="363"/>
  <tile gid="420"/>
  <tile gid="226"/>
  <tile gid="495"/>
  <tile gid="495"/>
  <tile gid="495"/>
  <tile gid="495"/>
  <tile gid="495"/>
  <tile gid="495"/>
  <tile gid="495"/>
  <tile gid="495"/>
  <tile gid="495"/>
  <tile gid="495"/>
  <tile gid="495"/>
  <tile gid="495"/>
  <tile gid="495"/>
  <tile gid="495"/>
  <tile gid="495"/>
  <tile gid="495"/>
  <tile gid="495"/>
  <tile gid="495"/>
  <tile gid="922"/>
  <tile gid="955"/>
  <tile gid="78"/>
  <tile gid="39"/>
  <tile gid="79"/>
  <tile gid="40"/>
  <tile gid="495"/>
  <tile gid="495"/>
  <tile gid="495"/>
  <tile gid="489"/>
  <tile gid="455"/>
  <tile gid="459"/>
  <tile gid="226"/>
  <tile gid="501"/>
  <tile gid="417"/>
  <tile gid="419"/>
  <tile gid="321"/>
  <tile gid="322"/>
  <tile gid="323"/>
  <tile gid="420"/>
  <tile gid="420"/>
  <tile gid="356"/>
  <tile gid="420"/>
  <tile gid="321"/>
  <tile gid="322"/>
  <tile gid="323"/>
  <tile gid="417"/>
  <tile gid="419"/>
  <tile gid="417"/>
  <tile gid="419"/>
  <tile gid="451"/>
  <tile gid="452"/>
  <tile gid="922"/>
  <tile gid="955"/>
  <tile gid="226"/>
  <tile gid="80"/>
  <tile gid="79"/>
  <tile gid="8"/>
  <tile gid="321"/>
  <tile gid="322"/>
  <tile gid="323"/>
  <tile gid="469"/>
  <tile gid="457"/>
  <tile gid="459"/>
  <tile gid="470"/>
  <tile gid="417"/>
  <tile gid="419"/>
  <tile gid="420"/>
  <tile gid="353"/>
  <tile gid="354"/>
  <tile gid="355"/>
  <tile gid="13"/>
  <tile gid="79"/>
  <tile gid="17"/>
  <tile gid="356"/>
  <tile gid="353"/>
  <tile gid="354"/>
  <tile gid="355"/>
  <tile gid="417"/>
  <tile gid="419"/>
  <tile gid="417"/>
  <tile gid="419"/>
  <tile gid="483"/>
  <tile gid="484"/>
  <tile gid="922"/>
  <tile gid="955"/>
  <tile gid="226"/>
  <tile gid="7"/>
  <tile gid="79"/>
  <tile gid="105"/>
  <tile gid="353"/>
  <tile gid="354"/>
  <tile gid="355"/>
  <tile gid="469"/>
  <tile gid="457"/>
  <tile gid="455"/>
  <tile gid="333"/>
  <tile gid="503"/>
  <tile gid="420"/>
  <tile gid="356"/>
  <tile gid="385"/>
  <tile gid="386"/>
  <tile gid="387"/>
  <tile gid="39"/>
  <tile gid="420"/>
  <tile gid="356"/>
  <tile gid="420"/>
  <tile gid="385"/>
  <tile gid="386"/>
  <tile gid="387"/>
  <tile gid="420"/>
  <tile gid="417"/>
  <tile gid="419"/>
  <tile gid="417"/>
  <tile gid="419"/>
  <tile gid="420"/>
  <tile gid="922"/>
  <tile gid="955"/>
  <tile gid="80"/>
  <tile gid="79"/>
  <tile gid="105"/>
  <tile gid="39"/>
  <tile gid="385"/>
  <tile gid="386"/>
  <tile gid="387"/>
  <tile gid="469"/>
  <tile gid="457"/>
  <tile gid="455"/>
  <tile gid="455"/>
  <tile gid="333"/>
  <tile gid="503"/>
  <tile gid="558"/>
  <tile gid="559"/>
  <tile gid="559"/>
  <tile gid="559"/>
  <tile gid="777"/>
  <tile gid="559"/>
  <tile gid="559"/>
  <tile gid="559"/>
  <tile gid="559"/>
  <tile gid="559"/>
  <tile gid="559"/>
  <tile gid="559"/>
  <tile gid="559"/>
  <tile gid="559"/>
  <tile gid="559"/>
  <tile gid="559"/>
  <tile gid="560"/>
  <tile gid="922"/>
  <tile gid="955"/>
  <tile gid="7"/>
  <tile gid="79"/>
  <tile gid="79"/>
  <tile gid="8"/>
  <tile gid="420"/>
  <tile gid="451"/>
  <tile gid="452"/>
  <tile gid="469"/>
  <tile gid="457"/>
  <tile gid="362"/>
  <tile gid="455"/>
  <tile gid="455"/>
  <tile gid="426"/>
  <tile gid="330"/>
  <tile gid="330"/>
  <tile gid="330"/>
  <tile gid="426"/>
  <tile gid="426"/>
  <tile gid="426"/>
  <tile gid="426"/>
  <tile gid="426"/>
  <tile gid="330"/>
  <tile gid="426"/>
  <tile gid="330"/>
  <tile gid="330"/>
  <tile gid="426"/>
  <tile gid="426"/>
  <tile gid="426"/>
  <tile gid="426"/>
  <tile gid="638"/>
  <tile gid="639"/>
  <tile gid="640"/>
  <tile gid="79"/>
  <tile gid="79"/>
  <tile gid="79"/>
  <tile gid="40"/>
  <tile gid="356"/>
  <tile gid="483"/>
  <tile gid="484"/>
  <tile gid="469"/>
  <tile gid="393"/>
  <tile gid="490"/>
  <tile gid="490"/>
  <tile gid="490"/>
  <tile gid="394"/>
  <tile gid="490"/>
  <tile gid="490"/>
  <tile gid="490"/>
  <tile gid="490"/>
  <tile gid="394"/>
  <tile gid="490"/>
  <tile gid="490"/>
  <tile gid="490"/>
  <tile gid="490"/>
  <tile gid="490"/>
  <tile gid="490"/>
  <tile gid="490"/>
  <tile gid="394"/>
  <tile gid="394"/>
  <tile gid="394"/>
  <tile gid="490"/>
  <tile gid="702"/>
  <tile gid="703"/>
  <tile gid="704"/>
  <tile gid="79"/>
  <tile gid="74"/>
  <tile gid="79"/>
  <tile gid="112"/>
  <tile gid="420"/>
  <tile gid="417"/>
  <tile gid="419"/>
  <tile gid="502"/>
  <tile gid="495"/>
  <tile gid="495"/>
  <tile gid="495"/>
  <tile gid="495"/>
  <tile gid="495"/>
  <tile gid="495"/>
  <tile gid="495"/>
  <tile gid="495"/>
  <tile gid="495"/>
  <tile gid="495"/>
  <tile gid="495"/>
  <tile gid="495"/>
  <tile gid="495"/>
  <tile gid="495"/>
  <tile gid="495"/>
  <tile gid="495"/>
  <tile gid="495"/>
  <tile gid="495"/>
  <tile gid="495"/>
  <tile gid="495"/>
  <tile gid="495"/>
  <tile gid="495"/>
  <tile gid="922"/>
  <tile gid="955"/>
  <tile gid="78"/>
  <tile gid="162"/>
  <tile gid="39"/>
  <tile gid="8"/>
  <tile gid="417"/>
  <tile gid="419"/>
  <tile gid="420"/>
  <tile gid="451"/>
  <tile gid="452"/>
  <tile gid="321"/>
  <tile gid="322"/>
  <tile gid="323"/>
  <tile gid="417"/>
  <tile gid="419"/>
  <tile gid="451"/>
  <tile gid="452"/>
  <tile gid="417"/>
  <tile gid="419"/>
  <tile gid="417"/>
  <tile gid="419"/>
  <tile gid="321"/>
  <tile gid="322"/>
  <tile gid="323"/>
  <tile gid="451"/>
  <tile gid="452"/>
  <tile gid="420"/>
  <tile gid="356"/>
  <tile gid="420"/>
  <tile gid="417"/>
  <tile gid="419"/>
  <tile gid="922"/>
  <tile gid="955"/>
  <tile gid="162"/>
  <tile gid="162"/>
  <tile gid="80"/>
  <tile gid="105"/>
  <tile gid="420"/>
  <tile gid="417"/>
  <tile gid="419"/>
  <tile gid="483"/>
  <tile gid="484"/>
  <tile gid="353"/>
  <tile gid="354"/>
  <tile gid="355"/>
  <tile gid="451"/>
  <tile gid="452"/>
  <tile gid="483"/>
  <tile gid="484"/>
  <tile gid="417"/>
  <tile gid="419"/>
  <tile gid="417"/>
  <tile gid="419"/>
  <tile gid="353"/>
  <tile gid="354"/>
  <tile gid="355"/>
  <tile gid="483"/>
  <tile gid="484"/>
  <tile gid="451"/>
  <tile gid="452"/>
  <tile gid="417"/>
  <tile gid="419"/>
  <tile gid="420"/>
  <tile gid="922"/>
  <tile gid="955"/>
  <tile gid="162"/>
  <tile gid="7"/>
  <tile gid="73"/>
  <tile gid="79"/>
  <tile gid="356"/>
  <tile gid="420"/>
  <tile gid="356"/>
  <tile gid="420"/>
  <tile gid="356"/>
  <tile gid="385"/>
  <tile gid="386"/>
  <tile gid="387"/>
  <tile gid="483"/>
  <tile gid="484"/>
  <tile gid="420"/>
  <tile gid="356"/>
  <tile gid="420"/>
  <tile gid="417"/>
  <tile gid="419"/>
  <tile gid="420"/>
  <tile gid="385"/>
  <tile gid="386"/>
  <tile gid="387"/>
  <tile gid="420"/>
  <tile gid="420"/>
  <tile gid="483"/>
  <tile gid="484"/>
  <tile gid="420"/>
  <tile gid="356"/>
  <tile gid="420"/>
  <tile gid="922"/>
  <tile gid="955"/>
  <tile gid="7"/>
  <tile gid="79"/>
  <tile gid="79"/>
  <tile gid="79"/>
  </data>
 </layer>
</map>
