<?xml version="1.0" encoding="UTF-8"?>
<map version="1.0" orientation="orthogonal" width="32" height="30" tilewidth="16" tileheight="16">
 <tileset firstgid="1" name="0E000F10" tilewidth="16" tileheight="16">
  <image source="0E000F10.png" trans="ffffff"/>
 </tileset>
 <layer name="Tile Layer 1" width="32" height="30">
  <properties>
   <property name="Main" value =""/>
  </properties>
  <data>
  <tile gid="805"/>
  <tile gid="866"/>
  <tile gid="866"/>
  <tile gid="866"/>
  <tile gid="995"/>
  <tile gid="933"/>
  <tile gid="933"/>
  <tile gid="933"/>
  <tile gid="933"/>
  <tile gid="964"/>
  <tile gid="866"/>
  <tile gid="866"/>
  <tile gid="805"/>
  <tile gid="900"/>
  <tile gid="901"/>
  <tile gid="803"/>
  <tile gid="7"/>
  <tile gid="79"/>
  <tile gid="79"/>
  <tile gid="79"/>
  <tile gid="79"/>
  <tile gid="41"/>
  <tile gid="801"/>
  <tile gid="398"/>
  <tile gid="866"/>
  <tile gid="901"/>
  <tile gid="964"/>
  <tile gid="866"/>
  <tile gid="866"/>
  <tile gid="995"/>
  <tile gid="964"/>
  <tile gid="899"/>
  <tile gid="866"/>
  <tile gid="866"/>
  <tile gid="866"/>
  <tile gid="866"/>
  <tile gid="866"/>
  <tile gid="995"/>
  <tile gid="933"/>
  <tile gid="933"/>
  <tile gid="934"/>
  <tile gid="866"/>
  <tile gid="866"/>
  <tile gid="900"/>
  <tile gid="901"/>
  <tile gid="807"/>
  <tile gid="803"/>
  <tile gid="42"/>
  <tile gid="79"/>
  <tile gid="79"/>
  <tile gid="79"/>
  <tile gid="79"/>
  <tile gid="79"/>
  <tile gid="105"/>
  <tile gid="225"/>
  <tile gid="869"/>
  <tile gid="931"/>
  <tile gid="803"/>
  <tile gid="809"/>
  <tile gid="465"/>
  <tile gid="465"/>
  <tile gid="398"/>
  <tile gid="866"/>
  <tile gid="931"/>
  <tile gid="866"/>
  <tile gid="866"/>
  <tile gid="805"/>
  <tile gid="866"/>
  <tile gid="866"/>
  <tile gid="866"/>
  <tile gid="995"/>
  <tile gid="964"/>
  <tile gid="899"/>
  <tile gid="900"/>
  <tile gid="901"/>
  <tile gid="933"/>
  <tile gid="808"/>
  <tile gid="193"/>
  <tile gid="7"/>
  <tile gid="79"/>
  <tile gid="79"/>
  <tile gid="79"/>
  <tile gid="79"/>
  <tile gid="79"/>
  <tile gid="79"/>
  <tile gid="79"/>
  <tile gid="8"/>
  <tile gid="801"/>
  <tile gid="876"/>
  <tile gid="21"/>
  <tile gid="22"/>
  <tile gid="23"/>
  <tile gid="972"/>
  <tile gid="869"/>
  <tile gid="866"/>
  <tile gid="901"/>
  <tile gid="866"/>
  <tile gid="866"/>
  <tile gid="866"/>
  <tile gid="866"/>
  <tile gid="866"/>
  <tile gid="866"/>
  <tile gid="805"/>
  <tile gid="866"/>
  <tile gid="901"/>
  <tile gid="933"/>
  <tile gid="933"/>
  <tile gid="933"/>
  <tile gid="933"/>
  <tile gid="811"/>
  <tile gid="106"/>
  <tile gid="79"/>
  <tile gid="79"/>
  <tile gid="79"/>
  <tile gid="79"/>
  <tile gid="79"/>
  <tile gid="79"/>
  <tile gid="79"/>
  <tile gid="105"/>
  <tile gid="225"/>
  <tile gid="972"/>
  <tile gid="85"/>
  <tile gid="86"/>
  <tile gid="87"/>
  <tile gid="802"/>
  <tile gid="866"/>
  <tile gid="901"/>
  <tile gid="933"/>
  <tile gid="900"/>
  <tile gid="805"/>
  <tile gid="866"/>
  <tile gid="866"/>
  <tile gid="805"/>
  <tile gid="866"/>
  <tile gid="901"/>
  <tile gid="933"/>
  <tile gid="807"/>
  <tile gid="807"/>
  <tile gid="807"/>
  <tile gid="807"/>
  <tile gid="807"/>
  <tile gid="803"/>
  <tile gid="106"/>
  <tile gid="74"/>
  <tile gid="79"/>
  <tile gid="79"/>
  <tile gid="79"/>
  <tile gid="79"/>
  <tile gid="79"/>
  <tile gid="79"/>
  <tile gid="79"/>
  <tile gid="41"/>
  <tile gid="193"/>
  <tile gid="972"/>
  <tile gid="173"/>
  <tile gid="802"/>
  <tile gid="866"/>
  <tile gid="866"/>
  <tile gid="995"/>
  <tile gid="933"/>
  <tile gid="933"/>
  <tile gid="900"/>
  <tile gid="866"/>
  <tile gid="866"/>
  <tile gid="901"/>
  <tile gid="933"/>
  <tile gid="933"/>
  <tile gid="808"/>
  <tile gid="49"/>
  <tile gid="49"/>
  <tile gid="330"/>
  <tile gid="333"/>
  <tile gid="972"/>
  <tile gid="7"/>
  <tile gid="9"/>
  <tile gid="225"/>
  <tile gid="39"/>
  <tile gid="79"/>
  <tile gid="79"/>
  <tile gid="40"/>
  <tile gid="78"/>
  <tile gid="39"/>
  <tile gid="79"/>
  <tile gid="74"/>
  <tile gid="8"/>
  <tile gid="972"/>
  <tile gid="225"/>
  <tile gid="869"/>
  <tile gid="866"/>
  <tile gid="866"/>
  <tile gid="866"/>
  <tile gid="995"/>
  <tile gid="933"/>
  <tile gid="837"/>
  <tile gid="866"/>
  <tile gid="901"/>
  <tile gid="933"/>
  <tile gid="933"/>
  <tile gid="807"/>
  <tile gid="803"/>
  <tile gid="457"/>
  <tile gid="50"/>
  <tile gid="50"/>
  <tile gid="459"/>
  <tile gid="225"/>
  <tile gid="78"/>
  <tile gid="194"/>
  <tile gid="802"/>
  <tile gid="899"/>
  <tile gid="778"/>
  <tile gid="780"/>
  <tile gid="899"/>
  <tile gid="811"/>
  <tile gid="129"/>
  <tile gid="78"/>
  <tile gid="420"/>
  <tile gid="78"/>
  <tile gid="972"/>
  <tile gid="225"/>
  <tile gid="809"/>
  <tile gid="866"/>
  <tile gid="866"/>
  <tile gid="866"/>
  <tile gid="866"/>
  <tile gid="933"/>
  <tile gid="964"/>
  <tile gid="931"/>
  <tile gid="933"/>
  <tile gid="933"/>
  <tile gid="808"/>
  <tile gid="130"/>
  <tile gid="226"/>
  <tile gid="492"/>
  <tile gid="455"/>
  <tile gid="455"/>
  <tile gid="365"/>
  <tile gid="130"/>
  <tile gid="802"/>
  <tile gid="812"/>
  <tile gid="866"/>
  <tile gid="901"/>
  <tile gid="778"/>
  <tile gid="780"/>
  <tile gid="963"/>
  <tile gid="933"/>
  <tile gid="811"/>
  <tile gid="193"/>
  <tile gid="194"/>
  <tile gid="417"/>
  <tile gid="419"/>
  <tile gid="130"/>
  <tile gid="194"/>
  <tile gid="801"/>
  <tile gid="866"/>
  <tile gid="866"/>
  <tile gid="866"/>
  <tile gid="934"/>
  <tile gid="866"/>
  <tile gid="931"/>
  <tile gid="933"/>
  <tile gid="933"/>
  <tile gid="808"/>
  <tile gid="97"/>
  <tile gid="98"/>
  <tile gid="99"/>
  <tile gid="776"/>
  <tile gid="365"/>
  <tile gid="802"/>
  <tile gid="805"/>
  <tile gid="901"/>
  <tile gid="837"/>
  <tile gid="901"/>
  <tile gid="933"/>
  <tile gid="778"/>
  <tile gid="780"/>
  <tile gid="866"/>
  <tile gid="963"/>
  <tile gid="933"/>
  <tile gid="812"/>
  <tile gid="995"/>
  <tile gid="811"/>
  <tile gid="129"/>
  <tile gid="420"/>
  <tile gid="77"/>
  <tile gid="194"/>
  <tile gid="801"/>
  <tile gid="866"/>
  <tile gid="866"/>
  <tile gid="964"/>
  <tile gid="866"/>
  <tile gid="901"/>
  <tile gid="933"/>
  <tile gid="933"/>
  <tile gid="803"/>
  <tile gid="225"/>
  <tile gid="193"/>
  <tile gid="225"/>
  <tile gid="226"/>
  <tile gid="194"/>
  <tile gid="869"/>
  <tile gid="901"/>
  <tile gid="933"/>
  <tile gid="737"/>
  <tile gid="646"/>
  <tile gid="770"/>
  <tile gid="778"/>
  <tile gid="780"/>
  <tile gid="771"/>
  <tile gid="644"/>
  <tile gid="644"/>
  <tile gid="644"/>
  <tile gid="738"/>
  <tile gid="995"/>
  <tile gid="811"/>
  <tile gid="129"/>
  <tile gid="39"/>
  <tile gid="73"/>
  <tile gid="8"/>
  <tile gid="869"/>
  <tile gid="866"/>
  <tile gid="866"/>
  <tile gid="931"/>
  <tile gid="933"/>
  <tile gid="933"/>
  <tile gid="803"/>
  <tile gid="130"/>
  <tile gid="130"/>
  <tile gid="972"/>
  <tile gid="802"/>
  <tile gid="899"/>
  <tile gid="812"/>
  <tile gid="901"/>
  <tile gid="933"/>
  <tile gid="737"/>
  <tile gid="770"/>
  <tile gid="680"/>
  <tile gid="684"/>
  <tile gid="5"/>
  <tile gid="6"/>
  <tile gid="682"/>
  <tile gid="683"/>
  <tile gid="683"/>
  <tile gid="683"/>
  <tile gid="771"/>
  <tile gid="738"/>
  <tile gid="899"/>
  <tile gid="811"/>
  <tile gid="194"/>
  <tile gid="420"/>
  <tile gid="79"/>
  <tile gid="809"/>
  <tile gid="866"/>
  <tile gid="866"/>
  <tile gid="901"/>
  <tile gid="933"/>
  <tile gid="808"/>
  <tile gid="193"/>
  <tile gid="193"/>
  <tile gid="193"/>
  <tile gid="226"/>
  <tile gid="869"/>
  <tile gid="963"/>
  <tile gid="964"/>
  <tile gid="737"/>
  <tile gid="646"/>
  <tile gid="770"/>
  <tile gid="684"/>
  <tile gid="5"/>
  <tile gid="6"/>
  <tile gid="226"/>
  <tile gid="130"/>
  <tile gid="129"/>
  <tile gid="130"/>
  <tile gid="130"/>
  <tile gid="130"/>
  <tile gid="682"/>
  <tile gid="709"/>
  <tile gid="738"/>
  <tile gid="933"/>
  <tile gid="811"/>
  <tile gid="129"/>
  <tile gid="39"/>
  <tile gid="420"/>
  <tile gid="869"/>
  <tile gid="931"/>
  <tile gid="933"/>
  <tile gid="933"/>
  <tile gid="803"/>
  <tile gid="98"/>
  <tile gid="99"/>
  <tile gid="225"/>
  <tile gid="194"/>
  <tile gid="869"/>
  <tile gid="866"/>
  <tile gid="737"/>
  <tile gid="709"/>
  <tile gid="680"/>
  <tile gid="684"/>
  <tile gid="5"/>
  <tile gid="129"/>
  <tile gid="130"/>
  <tile gid="420"/>
  <tile gid="129"/>
  <tile gid="130"/>
  <tile gid="356"/>
  <tile gid="226"/>
  <tile gid="226"/>
  <tile gid="130"/>
  <tile gid="709"/>
  <tile gid="709"/>
  <tile gid="933"/>
  <tile gid="808"/>
  <tile gid="420"/>
  <tile gid="11"/>
  <tile gid="356"/>
  <tile gid="809"/>
  <tile gid="901"/>
  <tile gid="933"/>
  <tile gid="803"/>
  <tile gid="77"/>
  <tile gid="193"/>
  <tile gid="226"/>
  <tile gid="225"/>
  <tile gid="802"/>
  <tile gid="866"/>
  <tile gid="866"/>
  <tile gid="709"/>
  <tile gid="709"/>
  <tile gid="5"/>
  <tile gid="6"/>
  <tile gid="226"/>
  <tile gid="20"/>
  <tile gid="20"/>
  <tile gid="20"/>
  <tile gid="916"/>
  <tile gid="917"/>
  <tile gid="20"/>
  <tile gid="20"/>
  <tile gid="20"/>
  <tile gid="226"/>
  <tile gid="709"/>
  <tile gid="709"/>
  <tile gid="933"/>
  <tile gid="808"/>
  <tile gid="356"/>
  <tile gid="43"/>
  <tile gid="420"/>
  <tile gid="79"/>
  <tile gid="933"/>
  <tile gid="808"/>
  <tile gid="7"/>
  <tile gid="40"/>
  <tile gid="226"/>
  <tile gid="98"/>
  <tile gid="99"/>
  <tile gid="809"/>
  <tile gid="398"/>
  <tile gid="866"/>
  <tile gid="709"/>
  <tile gid="769"/>
  <tile gid="644"/>
  <tile gid="738"/>
  <tile gid="37"/>
  <tile gid="173"/>
  <tile gid="173"/>
  <tile gid="356"/>
  <tile gid="948"/>
  <tile gid="949"/>
  <tile gid="173"/>
  <tile gid="173"/>
  <tile gid="173"/>
  <tile gid="737"/>
  <tile gid="770"/>
  <tile gid="709"/>
  <tile gid="933"/>
  <tile gid="808"/>
  <tile gid="226"/>
  <tile gid="7"/>
  <tile gid="79"/>
  <tile gid="9"/>
  <tile gid="899"/>
  <tile gid="808"/>
  <tile gid="10"/>
  <tile gid="8"/>
  <tile gid="77"/>
  <tile gid="226"/>
  <tile gid="225"/>
  <tile gid="225"/>
  <tile gid="809"/>
  <tile gid="398"/>
  <tile gid="769"/>
  <tile gid="738"/>
  <tile gid="715"/>
  <tile gid="771"/>
  <tile gid="738"/>
  <tile gid="37"/>
  <tile gid="129"/>
  <tile gid="129"/>
  <tile gid="129"/>
  <tile gid="30"/>
  <tile gid="31"/>
  <tile gid="32"/>
  <tile gid="226"/>
  <tile gid="709"/>
  <tile gid="713"/>
  <tile gid="709"/>
  <tile gid="933"/>
  <tile gid="808"/>
  <tile gid="194"/>
  <tile gid="106"/>
  <tile gid="105"/>
  <tile gid="802"/>
  <tile gid="901"/>
  <tile gid="933"/>
  <tile gid="811"/>
  <tile gid="10"/>
  <tile gid="40"/>
  <tile gid="80"/>
  <tile gid="20"/>
  <tile gid="225"/>
  <tile gid="129"/>
  <tile gid="869"/>
  <tile gid="714"/>
  <tile gid="769"/>
  <tile gid="644"/>
  <tile gid="738"/>
  <tile gid="771"/>
  <tile gid="644"/>
  <tile gid="738"/>
  <tile gid="37"/>
  <tile gid="130"/>
  <tile gid="94"/>
  <tile gid="95"/>
  <tile gid="96"/>
  <tile gid="226"/>
  <tile gid="709"/>
  <tile gid="739"/>
  <tile gid="770"/>
  <tile gid="933"/>
  <tile gid="803"/>
  <tile gid="225"/>
  <tile gid="78"/>
  <tile gid="78"/>
  <tile gid="869"/>
  <tile gid="933"/>
  <tile gid="933"/>
  <tile gid="933"/>
  <tile gid="812"/>
  <tile gid="899"/>
  <tile gid="811"/>
  <tile gid="39"/>
  <tile gid="8"/>
  <tile gid="225"/>
  <tile gid="809"/>
  <tile gid="995"/>
  <tile gid="714"/>
  <tile gid="715"/>
  <tile gid="771"/>
  <tile gid="738"/>
  <tile gid="715"/>
  <tile gid="644"/>
  <tile gid="738"/>
  <tile gid="37"/>
  <tile gid="226"/>
  <tile gid="226"/>
  <tile gid="226"/>
  <tile gid="737"/>
  <tile gid="770"/>
  <tile gid="709"/>
  <tile gid="713"/>
  <tile gid="808"/>
  <tile gid="226"/>
  <tile gid="225"/>
  <tile gid="420"/>
  <tile gid="8"/>
  <tile gid="869"/>
  <tile gid="995"/>
  <tile gid="933"/>
  <tile gid="933"/>
  <tile gid="837"/>
  <tile gid="931"/>
  <tile gid="808"/>
  <tile gid="129"/>
  <tile gid="39"/>
  <tile gid="8"/>
  <tile gid="130"/>
  <tile gid="809"/>
  <tile gid="465"/>
  <tile gid="995"/>
  <tile gid="714"/>
  <tile gid="771"/>
  <tile gid="644"/>
  <tile gid="738"/>
  <tile gid="771"/>
  <tile gid="644"/>
  <tile gid="644"/>
  <tile gid="644"/>
  <tile gid="644"/>
  <tile gid="770"/>
  <tile gid="713"/>
  <tile gid="709"/>
  <tile gid="933"/>
  <tile gid="803"/>
  <tile gid="226"/>
  <tile gid="356"/>
  <tile gid="105"/>
  <tile gid="420"/>
  <tile gid="869"/>
  <tile gid="866"/>
  <tile gid="995"/>
  <tile gid="933"/>
  <tile gid="870"/>
  <tile gid="963"/>
  <tile gid="808"/>
  <tile gid="497"/>
  <tile gid="504"/>
  <tile gid="420"/>
  <tile gid="112"/>
  <tile gid="225"/>
  <tile gid="225"/>
  <tile gid="809"/>
  <tile gid="995"/>
  <tile gid="714"/>
  <tile gid="715"/>
  <tile gid="771"/>
  <tile gid="644"/>
  <tile gid="738"/>
  <tile gid="715"/>
  <tile gid="715"/>
  <tile gid="715"/>
  <tile gid="737"/>
  <tile gid="646"/>
  <tile gid="770"/>
  <tile gid="808"/>
  <tile gid="226"/>
  <tile gid="129"/>
  <tile gid="7"/>
  <tile gid="105"/>
  <tile gid="802"/>
  <tile gid="899"/>
  <tile gid="900"/>
  <tile gid="866"/>
  <tile gid="995"/>
  <tile gid="837"/>
  <tile gid="866"/>
  <tile gid="899"/>
  <tile gid="811"/>
  <tile gid="417"/>
  <tile gid="419"/>
  <tile gid="420"/>
  <tile gid="130"/>
  <tile gid="130"/>
  <tile gid="130"/>
  <tile gid="809"/>
  <tile gid="465"/>
  <tile gid="995"/>
  <tile gid="714"/>
  <tile gid="715"/>
  <tile gid="771"/>
  <tile gid="644"/>
  <tile gid="644"/>
  <tile gid="644"/>
  <tile gid="770"/>
  <tile gid="712"/>
  <tile gid="716"/>
  <tile gid="808"/>
  <tile gid="130"/>
  <tile gid="7"/>
  <tile gid="420"/>
  <tile gid="40"/>
  <tile gid="869"/>
  <tile gid="901"/>
  <tile gid="933"/>
  <tile gid="900"/>
  <tile gid="805"/>
  <tile gid="971"/>
  <tile gid="866"/>
  <tile gid="931"/>
  <tile gid="808"/>
  <tile gid="420"/>
  <tile gid="533"/>
  <tile gid="497"/>
  <tile gid="226"/>
  <tile gid="80"/>
  <tile gid="41"/>
  <tile gid="129"/>
  <tile gid="193"/>
  <tile gid="809"/>
  <tile gid="465"/>
  <tile gid="995"/>
  <tile gid="714"/>
  <tile gid="715"/>
  <tile gid="715"/>
  <tile gid="715"/>
  <tile gid="716"/>
  <tile gid="933"/>
  <tile gid="807"/>
  <tile gid="803"/>
  <tile gid="225"/>
  <tile gid="78"/>
  <tile gid="802"/>
  <tile gid="995"/>
  <tile gid="900"/>
  <tile gid="899"/>
  <tile gid="933"/>
  <tile gid="964"/>
  <tile gid="866"/>
  <tile gid="866"/>
  <tile gid="805"/>
  <tile gid="963"/>
  <tile gid="933"/>
  <tile gid="812"/>
  <tile gid="899"/>
  <tile gid="811"/>
  <tile gid="129"/>
  <tile gid="129"/>
  <tile gid="78"/>
  <tile gid="226"/>
  <tile gid="130"/>
  <tile gid="226"/>
  <tile gid="194"/>
  <tile gid="809"/>
  <tile gid="400"/>
  <tile gid="807"/>
  <tile gid="807"/>
  <tile gid="807"/>
  <tile gid="807"/>
  <tile gid="803"/>
  <tile gid="226"/>
  <tile gid="226"/>
  <tile gid="193"/>
  <tile gid="972"/>
  <tile gid="809"/>
  <tile gid="866"/>
  <tile gid="971"/>
  <tile gid="901"/>
  <tile gid="934"/>
  <tile gid="866"/>
  <tile gid="866"/>
  <tile gid="866"/>
  <tile gid="866"/>
  <tile gid="805"/>
  <tile gid="995"/>
  <tile gid="870"/>
  <tile gid="931"/>
  <tile gid="870"/>
  <tile gid="899"/>
  <tile gid="811"/>
  <tile gid="503"/>
  <tile gid="497"/>
  <tile gid="80"/>
  <tile gid="8"/>
  <tile gid="77"/>
  <tile gid="130"/>
  <tile gid="226"/>
  <tile gid="130"/>
  <tile gid="130"/>
  <tile gid="130"/>
  <tile gid="226"/>
  <tile gid="225"/>
  <tile gid="226"/>
  <tile gid="226"/>
  <tile gid="77"/>
  <tile gid="193"/>
  <tile gid="972"/>
  <tile gid="801"/>
  <tile gid="866"/>
  <tile gid="995"/>
  <tile gid="964"/>
  <tile gid="866"/>
  <tile gid="866"/>
  <tile gid="901"/>
  <tile gid="900"/>
  <tile gid="866"/>
  <tile gid="866"/>
  <tile gid="971"/>
  <tile gid="963"/>
  <tile gid="837"/>
  <tile gid="931"/>
  <tile gid="808"/>
  <tile gid="129"/>
  <tile gid="129"/>
  <tile gid="420"/>
  <tile gid="10"/>
  <tile gid="74"/>
  <tile gid="8"/>
  <tile gid="42"/>
  <tile gid="8"/>
  <tile gid="7"/>
  <tile gid="112"/>
  <tile gid="226"/>
  <tile gid="225"/>
  <tile gid="77"/>
  <tile gid="7"/>
  <tile gid="105"/>
  <tile gid="130"/>
  <tile gid="503"/>
  <tile gid="561"/>
  <tile gid="869"/>
  <tile gid="866"/>
  <tile gid="866"/>
  <tile gid="866"/>
  <tile gid="901"/>
  <tile gid="933"/>
  <tile gid="870"/>
  <tile gid="866"/>
  <tile gid="901"/>
  <tile gid="900"/>
  <tile gid="866"/>
  <tile gid="971"/>
  <tile gid="901"/>
  <tile gid="837"/>
  <tile gid="899"/>
  <tile gid="811"/>
  <tile gid="226"/>
  <tile gid="420"/>
  <tile gid="193"/>
  <tile gid="10"/>
  <tile gid="74"/>
  <tile gid="79"/>
  <tile gid="79"/>
  <tile gid="8"/>
  <tile gid="193"/>
  <tile gid="42"/>
  <tile gid="79"/>
  <tile gid="79"/>
  <tile gid="9"/>
  <tile gid="226"/>
  <tile gid="13"/>
  <tile gid="129"/>
  <tile gid="869"/>
  <tile gid="866"/>
  <tile gid="805"/>
  <tile gid="931"/>
  <tile gid="933"/>
  <tile gid="933"/>
  <tile gid="870"/>
  <tile gid="931"/>
  <tile gid="933"/>
  <tile gid="837"/>
  <tile gid="805"/>
  <tile gid="901"/>
  <tile gid="933"/>
  <tile gid="934"/>
  <tile gid="963"/>
  <tile gid="933"/>
  <tile gid="811"/>
  <tile gid="468"/>
  <tile gid="497"/>
  <tile gid="504"/>
  <tile gid="130"/>
  <tile gid="10"/>
  <tile gid="79"/>
  <tile gid="79"/>
  <tile gid="73"/>
  <tile gid="79"/>
  <tile gid="79"/>
  <tile gid="105"/>
  <tile gid="504"/>
  <tile gid="505"/>
  <tile gid="226"/>
  <tile gid="129"/>
  <tile gid="869"/>
  <tile gid="866"/>
  <tile gid="866"/>
  <tile gid="901"/>
  <tile gid="933"/>
  <tile gid="933"/>
  <tile gid="964"/>
  <tile gid="901"/>
  <tile gid="933"/>
  <tile gid="964"/>
  <tile gid="931"/>
  <tile gid="933"/>
  <tile gid="933"/>
  <tile gid="964"/>
  <tile gid="866"/>
  <tile gid="899"/>
  <tile gid="808"/>
  <tile gid="193"/>
  <tile gid="129"/>
  <tile gid="533"/>
  <tile gid="497"/>
  <tile gid="226"/>
  <tile gid="106"/>
  <tile gid="79"/>
  <tile gid="79"/>
  <tile gid="79"/>
  <tile gid="79"/>
  <tile gid="9"/>
  <tile gid="193"/>
  <tile gid="193"/>
  <tile gid="225"/>
  <tile gid="129"/>
  <tile gid="809"/>
  <tile gid="866"/>
  <tile gid="866"/>
  <tile gid="963"/>
  <tile gid="933"/>
  <tile gid="870"/>
  <tile gid="866"/>
  <tile gid="995"/>
  <tile gid="964"/>
  <tile gid="866"/>
  <tile gid="901"/>
  <tile gid="933"/>
  <tile gid="837"/>
  <tile gid="866"/>
  <tile gid="866"/>
  <tile gid="901"/>
  <tile gid="964"/>
  <tile gid="899"/>
  <tile gid="811"/>
  <tile gid="130"/>
  <tile gid="130"/>
  <tile gid="226"/>
  <tile gid="39"/>
  <tile gid="79"/>
  <tile gid="79"/>
  <tile gid="79"/>
  <tile gid="105"/>
  <tile gid="130"/>
  <tile gid="130"/>
  <tile gid="130"/>
  <tile gid="468"/>
  <tile gid="504"/>
  <tile gid="130"/>
  <tile gid="801"/>
  <tile gid="866"/>
  <tile gid="805"/>
  <tile gid="963"/>
  <tile gid="964"/>
  <tile gid="866"/>
  <tile gid="866"/>
  <tile gid="901"/>
  <tile gid="933"/>
  <tile gid="933"/>
  <tile gid="933"/>
  <tile gid="964"/>
  <tile gid="866"/>
  <tile gid="901"/>
  <tile gid="964"/>
  <tile gid="866"/>
  <tile gid="931"/>
  <tile gid="964"/>
  <tile gid="899"/>
  <tile gid="811"/>
  <tile gid="130"/>
  <tile gid="130"/>
  <tile gid="10"/>
  <tile gid="79"/>
  <tile gid="79"/>
  <tile gid="40"/>
  <tile gid="497"/>
  <tile gid="469"/>
  <tile gid="225"/>
  <tile gid="130"/>
  <tile gid="129"/>
  <tile gid="533"/>
  <tile gid="561"/>
  </data>
 </layer>
</map>
