<?xml version="1.0" encoding="UTF-8"?>
<map version="1.0" orientation="orthogonal" width="32" height="22" tilewidth="16" tileheight="16">
 <tileset firstgid="1" name="0E000F10" tilewidth="16" tileheight="16">
  <image source="0E000F10.png" trans="ffffff"/>
 </tileset>
 <layer name="Tile Layer 1" width="32" height="22">
  <properties>
   <property name="Main" value =""/>
  </properties>
  <data>
  <tile gid="129"/>
  <tile gid="129"/>
  <tile gid="193"/>
  <tile gid="129"/>
  <tile gid="193"/>
  <tile gid="193"/>
  <tile gid="129"/>
  <tile gid="129"/>
  <tile gid="468"/>
  <tile gid="496"/>
  <tile gid="257"/>
  <tile gid="257"/>
  <tile gid="257"/>
  <tile gid="952"/>
  <tile gid="420"/>
  <tile gid="39"/>
  <tile gid="356"/>
  <tile gid="952"/>
  <tile gid="193"/>
  <tile gid="193"/>
  <tile gid="193"/>
  <tile gid="39"/>
  <tile gid="79"/>
  <tile gid="79"/>
  <tile gid="79"/>
  <tile gid="8"/>
  <tile gid="129"/>
  <tile gid="129"/>
  <tile gid="77"/>
  <tile gid="7"/>
  <tile gid="79"/>
  <tile gid="79"/>
  <tile gid="193"/>
  <tile gid="129"/>
  <tile gid="129"/>
  <tile gid="129"/>
  <tile gid="417"/>
  <tile gid="419"/>
  <tile gid="420"/>
  <tile gid="193"/>
  <tile gid="504"/>
  <tile gid="533"/>
  <tile gid="558"/>
  <tile gid="560"/>
  <tile gid="504"/>
  <tile gid="921"/>
  <tile gid="356"/>
  <tile gid="80"/>
  <tile gid="420"/>
  <tile gid="953"/>
  <tile gid="470"/>
  <tile gid="561"/>
  <tile gid="504"/>
  <tile gid="257"/>
  <tile gid="106"/>
  <tile gid="79"/>
  <tile gid="79"/>
  <tile gid="356"/>
  <tile gid="77"/>
  <tile gid="7"/>
  <tile gid="79"/>
  <tile gid="79"/>
  <tile gid="79"/>
  <tile gid="79"/>
  <tile gid="193"/>
  <tile gid="77"/>
  <tile gid="123"/>
  <tile gid="124"/>
  <tile gid="125"/>
  <tile gid="257"/>
  <tile gid="417"/>
  <tile gid="419"/>
  <tile gid="193"/>
  <tile gid="193"/>
  <tile gid="77"/>
  <tile gid="129"/>
  <tile gid="193"/>
  <tile gid="952"/>
  <tile gid="420"/>
  <tile gid="7"/>
  <tile gid="356"/>
  <tile gid="952"/>
  <tile gid="77"/>
  <tile gid="193"/>
  <tile gid="356"/>
  <tile gid="42"/>
  <tile gid="79"/>
  <tile gid="79"/>
  <tile gid="79"/>
  <tile gid="79"/>
  <tile gid="79"/>
  <tile gid="79"/>
  <tile gid="40"/>
  <tile gid="39"/>
  <tile gid="79"/>
  <tile gid="79"/>
  <tile gid="257"/>
  <tile gid="39"/>
  <tile gid="155"/>
  <tile gid="156"/>
  <tile gid="157"/>
  <tile gid="356"/>
  <tile gid="420"/>
  <tile gid="417"/>
  <tile gid="419"/>
  <tile gid="73"/>
  <tile gid="79"/>
  <tile gid="8"/>
  <tile gid="129"/>
  <tile gid="953"/>
  <tile gid="356"/>
  <tile gid="13"/>
  <tile gid="420"/>
  <tile gid="921"/>
  <tile gid="39"/>
  <tile gid="73"/>
  <tile gid="79"/>
  <tile gid="79"/>
  <tile gid="79"/>
  <tile gid="417"/>
  <tile gid="419"/>
  <tile gid="420"/>
  <tile gid="40"/>
  <tile gid="78"/>
  <tile gid="257"/>
  <tile gid="80"/>
  <tile gid="79"/>
  <tile gid="40"/>
  <tile gid="8"/>
  <tile gid="7"/>
  <tile gid="187"/>
  <tile gid="188"/>
  <tile gid="189"/>
  <tile gid="7"/>
  <tile gid="8"/>
  <tile gid="106"/>
  <tile gid="79"/>
  <tile gid="79"/>
  <tile gid="79"/>
  <tile gid="417"/>
  <tile gid="419"/>
  <tile gid="952"/>
  <tile gid="420"/>
  <tile gid="105"/>
  <tile gid="356"/>
  <tile gid="952"/>
  <tile gid="7"/>
  <tile gid="105"/>
  <tile gid="420"/>
  <tile gid="417"/>
  <tile gid="419"/>
  <tile gid="79"/>
  <tile gid="79"/>
  <tile gid="79"/>
  <tile gid="112"/>
  <tile gid="193"/>
  <tile gid="193"/>
  <tile gid="129"/>
  <tile gid="420"/>
  <tile gid="112"/>
  <tile gid="79"/>
  <tile gid="9"/>
  <tile gid="80"/>
  <tile gid="105"/>
  <tile gid="7"/>
  <tile gid="79"/>
  <tile gid="79"/>
  <tile gid="79"/>
  <tile gid="79"/>
  <tile gid="79"/>
  <tile gid="79"/>
  <tile gid="79"/>
  <tile gid="79"/>
  <tile gid="601"/>
  <tile gid="356"/>
  <tile gid="19"/>
  <tile gid="420"/>
  <tile gid="953"/>
  <tile gid="39"/>
  <tile gid="9"/>
  <tile gid="664"/>
  <tile gid="420"/>
  <tile gid="417"/>
  <tile gid="419"/>
  <tile gid="20"/>
  <tile gid="356"/>
  <tile gid="8"/>
  <tile gid="193"/>
  <tile gid="193"/>
  <tile gid="129"/>
  <tile gid="39"/>
  <tile gid="73"/>
  <tile gid="105"/>
  <tile gid="257"/>
  <tile gid="193"/>
  <tile gid="106"/>
  <tile gid="105"/>
  <tile gid="78"/>
  <tile gid="39"/>
  <tile gid="74"/>
  <tile gid="79"/>
  <tile gid="79"/>
  <tile gid="79"/>
  <tile gid="417"/>
  <tile gid="419"/>
  <tile gid="921"/>
  <tile gid="420"/>
  <tile gid="40"/>
  <tile gid="356"/>
  <tile gid="921"/>
  <tile gid="257"/>
  <tile gid="193"/>
  <tile gid="796"/>
  <tile gid="859"/>
  <tile gid="757"/>
  <tile gid="417"/>
  <tile gid="419"/>
  <tile gid="420"/>
  <tile gid="420"/>
  <tile gid="664"/>
  <tile gid="257"/>
  <tile gid="257"/>
  <tile gid="42"/>
  <tile gid="79"/>
  <tile gid="105"/>
  <tile gid="257"/>
  <tile gid="42"/>
  <tile gid="79"/>
  <tile gid="40"/>
  <tile gid="193"/>
  <tile gid="257"/>
  <tile gid="257"/>
  <tile gid="78"/>
  <tile gid="39"/>
  <tile gid="21"/>
  <tile gid="22"/>
  <tile gid="23"/>
  <tile gid="953"/>
  <tile gid="356"/>
  <tile gid="112"/>
  <tile gid="420"/>
  <tile gid="952"/>
  <tile gid="257"/>
  <tile gid="696"/>
  <tile gid="853"/>
  <tile gid="853"/>
  <tile gid="853"/>
  <tile gid="825"/>
  <tile gid="826"/>
  <tile gid="825"/>
  <tile gid="825"/>
  <tile gid="853"/>
  <tile gid="757"/>
  <tile gid="257"/>
  <tile gid="39"/>
  <tile gid="40"/>
  <tile gid="79"/>
  <tile gid="8"/>
  <tile gid="106"/>
  <tile gid="79"/>
  <tile gid="112"/>
  <tile gid="7"/>
  <tile gid="8"/>
  <tile gid="257"/>
  <tile gid="257"/>
  <tile gid="80"/>
  <tile gid="85"/>
  <tile gid="86"/>
  <tile gid="87"/>
  <tile gid="921"/>
  <tile gid="420"/>
  <tile gid="193"/>
  <tile gid="356"/>
  <tile gid="921"/>
  <tile gid="162"/>
  <tile gid="162"/>
  <tile gid="794"/>
  <tile gid="854"/>
  <tile gid="885"/>
  <tile gid="885"/>
  <tile gid="885"/>
  <tile gid="885"/>
  <tile gid="856"/>
  <tile gid="853"/>
  <tile gid="853"/>
  <tile gid="695"/>
  <tile gid="257"/>
  <tile gid="257"/>
  <tile gid="78"/>
  <tile gid="417"/>
  <tile gid="419"/>
  <tile gid="105"/>
  <tile gid="7"/>
  <tile gid="79"/>
  <tile gid="105"/>
  <tile gid="496"/>
  <tile gid="494"/>
  <tile gid="496"/>
  <tile gid="257"/>
  <tile gid="295"/>
  <tile gid="193"/>
  <tile gid="922"/>
  <tile gid="982"/>
  <tile gid="982"/>
  <tile gid="982"/>
  <tile gid="987"/>
  <tile gid="635"/>
  <tile gid="637"/>
  <tile gid="853"/>
  <tile gid="885"/>
  <tile gid="885"/>
  <tile gid="885"/>
  <tile gid="885"/>
  <tile gid="885"/>
  <tile gid="885"/>
  <tile gid="856"/>
  <tile gid="795"/>
  <tile gid="193"/>
  <tile gid="417"/>
  <tile gid="419"/>
  <tile gid="193"/>
  <tile gid="39"/>
  <tile gid="420"/>
  <tile gid="356"/>
  <tile gid="79"/>
  <tile gid="79"/>
  <tile gid="420"/>
  <tile gid="470"/>
  <tile gid="534"/>
  <tile gid="503"/>
  <tile gid="80"/>
  <tile gid="8"/>
  <tile gid="77"/>
  <tile gid="920"/>
  <tile gid="420"/>
  <tile gid="257"/>
  <tile gid="356"/>
  <tile gid="922"/>
  <tile gid="699"/>
  <tile gid="701"/>
  <tile gid="853"/>
  <tile gid="886"/>
  <tile gid="885"/>
  <tile gid="885"/>
  <tile gid="885"/>
  <tile gid="885"/>
  <tile gid="885"/>
  <tile gid="888"/>
  <tile gid="795"/>
  <tile gid="193"/>
  <tile gid="420"/>
  <tile gid="356"/>
  <tile gid="558"/>
  <tile gid="560"/>
  <tile gid="39"/>
  <tile gid="79"/>
  <tile gid="79"/>
  <tile gid="79"/>
  <tile gid="79"/>
  <tile gid="8"/>
  <tile gid="162"/>
  <tile gid="162"/>
  <tile gid="7"/>
  <tile gid="79"/>
  <tile gid="105"/>
  <tile gid="952"/>
  <tile gid="356"/>
  <tile gid="257"/>
  <tile gid="420"/>
  <tile gid="952"/>
  <tile gid="162"/>
  <tile gid="162"/>
  <tile gid="796"/>
  <tile gid="853"/>
  <tile gid="886"/>
  <tile gid="885"/>
  <tile gid="885"/>
  <tile gid="885"/>
  <tile gid="888"/>
  <tile gid="853"/>
  <tile gid="853"/>
  <tile gid="695"/>
  <tile gid="193"/>
  <tile gid="420"/>
  <tile gid="129"/>
  <tile gid="162"/>
  <tile gid="193"/>
  <tile gid="420"/>
  <tile gid="105"/>
  <tile gid="356"/>
  <tile gid="39"/>
  <tile gid="40"/>
  <tile gid="257"/>
  <tile gid="257"/>
  <tile gid="356"/>
  <tile gid="78"/>
  <tile gid="78"/>
  <tile gid="922"/>
  <tile gid="982"/>
  <tile gid="982"/>
  <tile gid="982"/>
  <tile gid="949"/>
  <tile gid="7"/>
  <tile gid="41"/>
  <tile gid="726"/>
  <tile gid="889"/>
  <tile gid="891"/>
  <tile gid="853"/>
  <tile gid="827"/>
  <tile gid="889"/>
  <tile gid="890"/>
  <tile gid="891"/>
  <tile gid="795"/>
  <tile gid="193"/>
  <tile gid="470"/>
  <tile gid="534"/>
  <tile gid="162"/>
  <tile gid="193"/>
  <tile gid="193"/>
  <tile gid="39"/>
  <tile gid="40"/>
  <tile gid="193"/>
  <tile gid="193"/>
  <tile gid="193"/>
  <tile gid="193"/>
  <tile gid="193"/>
  <tile gid="420"/>
  <tile gid="257"/>
  <tile gid="193"/>
  <tile gid="952"/>
  <tile gid="13"/>
  <tile gid="513"/>
  <tile gid="515"/>
  <tile gid="162"/>
  <tile gid="106"/>
  <tile gid="105"/>
  <tile gid="193"/>
  <tile gid="504"/>
  <tile gid="494"/>
  <tile gid="663"/>
  <tile gid="13"/>
  <tile gid="193"/>
  <tile gid="420"/>
  <tile gid="516"/>
  <tile gid="663"/>
  <tile gid="193"/>
  <tile gid="193"/>
  <tile gid="561"/>
  <tile gid="982"/>
  <tile gid="982"/>
  <tile gid="983"/>
  <tile gid="982"/>
  <tile gid="602"/>
  <tile gid="982"/>
  <tile gid="982"/>
  <tile gid="983"/>
  <tile gid="983"/>
  <tile gid="982"/>
  <tile gid="982"/>
  <tile gid="982"/>
  <tile gid="983"/>
  <tile gid="949"/>
  <tile gid="356"/>
  <tile gid="516"/>
  <tile gid="257"/>
  <tile gid="42"/>
  <tile gid="79"/>
  <tile gid="79"/>
  <tile gid="420"/>
  <tile gid="129"/>
  <tile gid="534"/>
  <tile gid="503"/>
  <tile gid="173"/>
  <tile gid="257"/>
  <tile gid="513"/>
  <tile gid="515"/>
  <tile gid="193"/>
  <tile gid="496"/>
  <tile gid="494"/>
  <tile gid="193"/>
  <tile gid="504"/>
  <tile gid="496"/>
  <tile gid="193"/>
  <tile gid="193"/>
  <tile gid="193"/>
  <tile gid="193"/>
  <tile gid="193"/>
  <tile gid="129"/>
  <tile gid="129"/>
  <tile gid="129"/>
  <tile gid="129"/>
  <tile gid="129"/>
  <tile gid="129"/>
  <tile gid="420"/>
  <tile gid="129"/>
  <tile gid="129"/>
  <tile gid="129"/>
  <tile gid="39"/>
  <tile gid="79"/>
  <tile gid="79"/>
  <tile gid="79"/>
  <tile gid="112"/>
  <tile gid="193"/>
  <tile gid="471"/>
  <tile gid="470"/>
  <tile gid="561"/>
  <tile gid="534"/>
  <tile gid="193"/>
  <tile gid="534"/>
  <tile gid="503"/>
  <tile gid="162"/>
  <tile gid="193"/>
  <tile gid="162"/>
  <tile gid="193"/>
  <tile gid="77"/>
  <tile gid="7"/>
  <tile gid="21"/>
  <tile gid="22"/>
  <tile gid="23"/>
  <tile gid="77"/>
  <tile gid="20"/>
  <tile gid="534"/>
  <tile gid="503"/>
  <tile gid="257"/>
  <tile gid="257"/>
  <tile gid="257"/>
  <tile gid="257"/>
  <tile gid="257"/>
  <tile gid="162"/>
  <tile gid="420"/>
  <tile gid="106"/>
  <tile gid="356"/>
  <tile gid="79"/>
  <tile gid="73"/>
  <tile gid="112"/>
  <tile gid="20"/>
  <tile gid="129"/>
  <tile gid="7"/>
  <tile gid="41"/>
  <tile gid="257"/>
  <tile gid="77"/>
  <tile gid="471"/>
  <tile gid="496"/>
  <tile gid="494"/>
  <tile gid="8"/>
  <tile gid="76"/>
  <tile gid="106"/>
  <tile gid="105"/>
  <tile gid="85"/>
  <tile gid="86"/>
  <tile gid="87"/>
  <tile gid="105"/>
  <tile gid="173"/>
  <tile gid="257"/>
  <tile gid="471"/>
  <tile gid="257"/>
  <tile gid="257"/>
  <tile gid="42"/>
  <tile gid="8"/>
  <tile gid="77"/>
  <tile gid="257"/>
  <tile gid="77"/>
  <tile gid="106"/>
  <tile gid="79"/>
  <tile gid="79"/>
  <tile gid="105"/>
  <tile gid="77"/>
  <tile gid="173"/>
  <tile gid="129"/>
  <tile gid="39"/>
  <tile gid="79"/>
  <tile gid="73"/>
  <tile gid="105"/>
  <tile gid="257"/>
  <tile gid="193"/>
  <tile gid="162"/>
  <tile gid="79"/>
  <tile gid="79"/>
  <tile gid="79"/>
  <tile gid="79"/>
  <tile gid="8"/>
  <tile gid="173"/>
  <tile gid="42"/>
  <tile gid="420"/>
  <tile gid="8"/>
  <tile gid="504"/>
  <tile gid="494"/>
  <tile gid="496"/>
  <tile gid="7"/>
  <tile gid="13"/>
  <tile gid="79"/>
  <tile gid="74"/>
  <tile gid="73"/>
  <tile gid="79"/>
  <tile gid="79"/>
  <tile gid="79"/>
  <tile gid="79"/>
  <tile gid="420"/>
  <tile gid="74"/>
  <tile gid="8"/>
  <tile gid="7"/>
  <tile gid="73"/>
  <tile gid="79"/>
  <tile gid="79"/>
  <tile gid="79"/>
  <tile gid="41"/>
  <tile gid="257"/>
  <tile gid="420"/>
  <tile gid="79"/>
  <tile gid="40"/>
  <tile gid="39"/>
  <tile gid="74"/>
  <tile gid="74"/>
  <tile gid="79"/>
  <tile gid="79"/>
  <tile gid="79"/>
  <tile gid="105"/>
  <tile gid="77"/>
  <tile gid="193"/>
  <tile gid="257"/>
  <tile gid="39"/>
  <tile gid="40"/>
  <tile gid="78"/>
  <tile gid="7"/>
  <tile gid="17"/>
  <tile gid="79"/>
  <tile gid="79"/>
  <tile gid="79"/>
  <tile gid="105"/>
  <tile gid="78"/>
  <tile gid="193"/>
  <tile gid="356"/>
  <tile gid="79"/>
  <tile gid="420"/>
  <tile gid="79"/>
  <tile gid="79"/>
  <tile gid="79"/>
  <tile gid="74"/>
  <tile gid="8"/>
  <tile gid="356"/>
  <tile gid="9"/>
  <tile gid="193"/>
  <tile gid="162"/>
  <tile gid="470"/>
  <tile gid="561"/>
  <tile gid="107"/>
  <tile gid="108"/>
  <tile gid="78"/>
  <tile gid="39"/>
  <tile gid="74"/>
  <tile gid="8"/>
  <tile gid="193"/>
  <tile gid="80"/>
  <tile gid="8"/>
  <tile gid="7"/>
  <tile gid="79"/>
  <tile gid="79"/>
  <tile gid="79"/>
  <tile gid="79"/>
  <tile gid="79"/>
  <tile gid="79"/>
  <tile gid="112"/>
  <tile gid="504"/>
  <tile gid="505"/>
  <tile gid="10"/>
  <tile gid="74"/>
  <tile gid="79"/>
  <tile gid="79"/>
  <tile gid="105"/>
  <tile gid="193"/>
  <tile gid="78"/>
  <tile gid="420"/>
  <tile gid="470"/>
  <tile gid="561"/>
  <tile gid="504"/>
  <tile gid="193"/>
  <tile gid="193"/>
  <tile gid="193"/>
  <tile gid="193"/>
  <tile gid="356"/>
  <tile gid="162"/>
  <tile gid="420"/>
  <tile gid="10"/>
  <tile gid="73"/>
  <tile gid="73"/>
  <tile gid="79"/>
  <tile gid="79"/>
  <tile gid="79"/>
  <tile gid="79"/>
  <tile gid="79"/>
  <tile gid="79"/>
  <tile gid="79"/>
  <tile gid="9"/>
  <tile gid="257"/>
  <tile gid="193"/>
  <tile gid="501"/>
  <tile gid="420"/>
  <tile gid="257"/>
  <tile gid="78"/>
  <tile gid="39"/>
  <tile gid="79"/>
  <tile gid="112"/>
  <tile gid="129"/>
  <tile gid="193"/>
  </data>
 </layer>
</map>
