<?xml version="1.0" encoding="UTF-8"?>
<map version="1.0" orientation="orthogonal" width="16" height="30" tilewidth="16" tileheight="16">
 <tileset firstgid="1" name="79007A7B" tilewidth="16" tileheight="16">
  <image source="79007A7B.png" trans="ffffff"/>
 </tileset>
 <layer name="Tile Layer 1" width="16" height="30">
  <properties>
   <property name="Main" value =""/>
  </properties>
  <data>
  <tile gid="259"/>
  <tile gid="259"/>
  <tile gid="386"/>
  <tile gid="194"/>
  <tile gid="134"/>
  <tile gid="385"/>
  <tile gid="259"/>
  <tile gid="259"/>
  <tile gid="37"/>
  <tile gid="259"/>
  <tile gid="386"/>
  <tile gid="67"/>
  <tile gid="195"/>
  <tile gid="385"/>
  <tile gid="259"/>
  <tile gid="259"/>
  <tile gid="450"/>
  <tile gid="450"/>
  <tile gid="450"/>
  <tile gid="135"/>
  <tile gid="164"/>
  <tile gid="164"/>
  <tile gid="41"/>
  <tile gid="41"/>
  <tile gid="35"/>
  <tile gid="41"/>
  <tile gid="41"/>
  <tile gid="69"/>
  <tile gid="167"/>
  <tile gid="450"/>
  <tile gid="450"/>
  <tile gid="450"/>
  <tile gid="291"/>
  <tile gid="481"/>
  <tile gid="482"/>
  <tile gid="135"/>
  <tile gid="164"/>
  <tile gid="164"/>
  <tile gid="457"/>
  <tile gid="457"/>
  <tile gid="142"/>
  <tile gid="457"/>
  <tile gid="457"/>
  <tile gid="142"/>
  <tile gid="167"/>
  <tile gid="482"/>
  <tile gid="482"/>
  <tile gid="291"/>
  <tile gid="291"/>
  <tile gid="481"/>
  <tile gid="482"/>
  <tile gid="226"/>
  <tile gid="166"/>
  <tile gid="166"/>
  <tile gid="166"/>
  <tile gid="166"/>
  <tile gid="166"/>
  <tile gid="166"/>
  <tile gid="166"/>
  <tile gid="166"/>
  <tile gid="227"/>
  <tile gid="482"/>
  <tile gid="482"/>
  <tile gid="291"/>
  <tile gid="291"/>
  <tile gid="481"/>
  <tile gid="833"/>
  <tile gid="834"/>
  <tile gid="834"/>
  <tile gid="834"/>
  <tile gid="834"/>
  <tile gid="834"/>
  <tile gid="834"/>
  <tile gid="834"/>
  <tile gid="834"/>
  <tile gid="834"/>
  <tile gid="836"/>
  <tile gid="837"/>
  <tile gid="481"/>
  <tile gid="291"/>
  <tile gid="291"/>
  <tile gid="481"/>
  <tile gid="929"/>
  <tile gid="930"/>
  <tile gid="931"/>
  <tile gid="931"/>
  <tile gid="931"/>
  <tile gid="931"/>
  <tile gid="931"/>
  <tile gid="931"/>
  <tile gid="931"/>
  <tile gid="931"/>
  <tile gid="932"/>
  <tile gid="933"/>
  <tile gid="481"/>
  <tile gid="291"/>
  <tile gid="355"/>
  <tile gid="481"/>
  <tile gid="355"/>
  <tile gid="272"/>
  <tile gid="385"/>
  <tile gid="259"/>
  <tile gid="259"/>
  <tile gid="259"/>
  <tile gid="259"/>
  <tile gid="259"/>
  <tile gid="259"/>
  <tile gid="386"/>
  <tile gid="272"/>
  <tile gid="355"/>
  <tile gid="481"/>
  <tile gid="355"/>
  <tile gid="450"/>
  <tile gid="482"/>
  <tile gid="450"/>
  <tile gid="450"/>
  <tile gid="450"/>
  <tile gid="450"/>
  <tile gid="135"/>
  <tile gid="164"/>
  <tile gid="164"/>
  <tile gid="167"/>
  <tile gid="450"/>
  <tile gid="450"/>
  <tile gid="450"/>
  <tile gid="450"/>
  <tile gid="482"/>
  <tile gid="450"/>
  <tile gid="833"/>
  <tile gid="834"/>
  <tile gid="834"/>
  <tile gid="834"/>
  <tile gid="834"/>
  <tile gid="834"/>
  <tile gid="837"/>
  <tile gid="69"/>
  <tile gid="164"/>
  <tile gid="833"/>
  <tile gid="834"/>
  <tile gid="834"/>
  <tile gid="834"/>
  <tile gid="834"/>
  <tile gid="834"/>
  <tile gid="837"/>
  <tile gid="929"/>
  <tile gid="930"/>
  <tile gid="931"/>
  <tile gid="931"/>
  <tile gid="931"/>
  <tile gid="931"/>
  <tile gid="933"/>
  <tile gid="69"/>
  <tile gid="164"/>
  <tile gid="929"/>
  <tile gid="930"/>
  <tile gid="931"/>
  <tile gid="931"/>
  <tile gid="931"/>
  <tile gid="931"/>
  <tile gid="933"/>
  <tile gid="385"/>
  <tile gid="259"/>
  <tile gid="386"/>
  <tile gid="272"/>
  <tile gid="385"/>
  <tile gid="259"/>
  <tile gid="386"/>
  <tile gid="69"/>
  <tile gid="164"/>
  <tile gid="385"/>
  <tile gid="259"/>
  <tile gid="386"/>
  <tile gid="272"/>
  <tile gid="385"/>
  <tile gid="259"/>
  <tile gid="386"/>
  <tile gid="450"/>
  <tile gid="450"/>
  <tile gid="450"/>
  <tile gid="450"/>
  <tile gid="450"/>
  <tile gid="450"/>
  <tile gid="135"/>
  <tile gid="164"/>
  <tile gid="164"/>
  <tile gid="167"/>
  <tile gid="450"/>
  <tile gid="450"/>
  <tile gid="450"/>
  <tile gid="450"/>
  <tile gid="450"/>
  <tile gid="450"/>
  <tile gid="833"/>
  <tile gid="834"/>
  <tile gid="834"/>
  <tile gid="834"/>
  <tile gid="834"/>
  <tile gid="834"/>
  <tile gid="837"/>
  <tile gid="69"/>
  <tile gid="164"/>
  <tile gid="833"/>
  <tile gid="834"/>
  <tile gid="834"/>
  <tile gid="834"/>
  <tile gid="834"/>
  <tile gid="834"/>
  <tile gid="837"/>
  <tile gid="929"/>
  <tile gid="930"/>
  <tile gid="931"/>
  <tile gid="931"/>
  <tile gid="931"/>
  <tile gid="931"/>
  <tile gid="933"/>
  <tile gid="69"/>
  <tile gid="164"/>
  <tile gid="929"/>
  <tile gid="930"/>
  <tile gid="931"/>
  <tile gid="931"/>
  <tile gid="931"/>
  <tile gid="931"/>
  <tile gid="933"/>
  <tile gid="385"/>
  <tile gid="259"/>
  <tile gid="386"/>
  <tile gid="272"/>
  <tile gid="385"/>
  <tile gid="259"/>
  <tile gid="386"/>
  <tile gid="69"/>
  <tile gid="164"/>
  <tile gid="385"/>
  <tile gid="259"/>
  <tile gid="386"/>
  <tile gid="272"/>
  <tile gid="385"/>
  <tile gid="259"/>
  <tile gid="386"/>
  <tile gid="450"/>
  <tile gid="450"/>
  <tile gid="450"/>
  <tile gid="450"/>
  <tile gid="450"/>
  <tile gid="450"/>
  <tile gid="135"/>
  <tile gid="164"/>
  <tile gid="164"/>
  <tile gid="167"/>
  <tile gid="450"/>
  <tile gid="450"/>
  <tile gid="450"/>
  <tile gid="450"/>
  <tile gid="450"/>
  <tile gid="450"/>
  <tile gid="833"/>
  <tile gid="834"/>
  <tile gid="834"/>
  <tile gid="834"/>
  <tile gid="834"/>
  <tile gid="834"/>
  <tile gid="837"/>
  <tile gid="69"/>
  <tile gid="164"/>
  <tile gid="833"/>
  <tile gid="834"/>
  <tile gid="834"/>
  <tile gid="834"/>
  <tile gid="834"/>
  <tile gid="834"/>
  <tile gid="837"/>
  <tile gid="929"/>
  <tile gid="930"/>
  <tile gid="931"/>
  <tile gid="931"/>
  <tile gid="931"/>
  <tile gid="931"/>
  <tile gid="933"/>
  <tile gid="69"/>
  <tile gid="164"/>
  <tile gid="929"/>
  <tile gid="930"/>
  <tile gid="931"/>
  <tile gid="931"/>
  <tile gid="931"/>
  <tile gid="931"/>
  <tile gid="933"/>
  <tile gid="385"/>
  <tile gid="259"/>
  <tile gid="386"/>
  <tile gid="272"/>
  <tile gid="385"/>
  <tile gid="259"/>
  <tile gid="386"/>
  <tile gid="69"/>
  <tile gid="164"/>
  <tile gid="385"/>
  <tile gid="259"/>
  <tile gid="386"/>
  <tile gid="272"/>
  <tile gid="385"/>
  <tile gid="259"/>
  <tile gid="386"/>
  <tile gid="450"/>
  <tile gid="450"/>
  <tile gid="450"/>
  <tile gid="450"/>
  <tile gid="450"/>
  <tile gid="450"/>
  <tile gid="135"/>
  <tile gid="164"/>
  <tile gid="164"/>
  <tile gid="167"/>
  <tile gid="450"/>
  <tile gid="450"/>
  <tile gid="450"/>
  <tile gid="450"/>
  <tile gid="450"/>
  <tile gid="450"/>
  <tile gid="833"/>
  <tile gid="834"/>
  <tile gid="834"/>
  <tile gid="834"/>
  <tile gid="834"/>
  <tile gid="834"/>
  <tile gid="837"/>
  <tile gid="69"/>
  <tile gid="164"/>
  <tile gid="833"/>
  <tile gid="834"/>
  <tile gid="834"/>
  <tile gid="834"/>
  <tile gid="834"/>
  <tile gid="834"/>
  <tile gid="837"/>
  <tile gid="929"/>
  <tile gid="930"/>
  <tile gid="931"/>
  <tile gid="931"/>
  <tile gid="931"/>
  <tile gid="931"/>
  <tile gid="933"/>
  <tile gid="69"/>
  <tile gid="164"/>
  <tile gid="929"/>
  <tile gid="930"/>
  <tile gid="931"/>
  <tile gid="931"/>
  <tile gid="931"/>
  <tile gid="931"/>
  <tile gid="933"/>
  <tile gid="385"/>
  <tile gid="259"/>
  <tile gid="386"/>
  <tile gid="272"/>
  <tile gid="385"/>
  <tile gid="259"/>
  <tile gid="386"/>
  <tile gid="69"/>
  <tile gid="164"/>
  <tile gid="385"/>
  <tile gid="259"/>
  <tile gid="386"/>
  <tile gid="272"/>
  <tile gid="385"/>
  <tile gid="259"/>
  <tile gid="386"/>
  <tile gid="450"/>
  <tile gid="450"/>
  <tile gid="450"/>
  <tile gid="450"/>
  <tile gid="450"/>
  <tile gid="450"/>
  <tile gid="135"/>
  <tile gid="164"/>
  <tile gid="164"/>
  <tile gid="167"/>
  <tile gid="450"/>
  <tile gid="450"/>
  <tile gid="450"/>
  <tile gid="450"/>
  <tile gid="450"/>
  <tile gid="450"/>
  <tile gid="482"/>
  <tile gid="482"/>
  <tile gid="482"/>
  <tile gid="482"/>
  <tile gid="482"/>
  <tile gid="482"/>
  <tile gid="41"/>
  <tile gid="69"/>
  <tile gid="164"/>
  <tile gid="41"/>
  <tile gid="481"/>
  <tile gid="482"/>
  <tile gid="482"/>
  <tile gid="482"/>
  <tile gid="482"/>
  <tile gid="482"/>
  <tile gid="482"/>
  <tile gid="104"/>
  <tile gid="481"/>
  <tile gid="482"/>
  <tile gid="482"/>
  <tile gid="482"/>
  <tile gid="453"/>
  <tile gid="204"/>
  <tile gid="166"/>
  <tile gid="454"/>
  <tile gid="452"/>
  <tile gid="482"/>
  <tile gid="482"/>
  <tile gid="482"/>
  <tile gid="104"/>
  <tile gid="481"/>
  <tile gid="110"/>
  <tile gid="42"/>
  <tile gid="110"/>
  <tile gid="169"/>
  <tile gid="170"/>
  <tile gid="170"/>
  <tile gid="170"/>
  <tile gid="170"/>
  <tile gid="170"/>
  <tile gid="170"/>
  <tile gid="170"/>
  <tile gid="170"/>
  <tile gid="171"/>
  <tile gid="110"/>
  <tile gid="42"/>
  <tile gid="110"/>
  <tile gid="106"/>
  <tile gid="74"/>
  <tile gid="106"/>
  <tile gid="365"/>
  <tile gid="408"/>
  <tile gid="408"/>
  <tile gid="408"/>
  <tile gid="408"/>
  <tile gid="408"/>
  <tile gid="408"/>
  <tile gid="408"/>
  <tile gid="408"/>
  <tile gid="408"/>
  <tile gid="106"/>
  <tile gid="74"/>
  <tile gid="106"/>
  <tile gid="408"/>
  <tile gid="106"/>
  <tile gid="434"/>
  <tile gid="408"/>
  <tile gid="789"/>
  <tile gid="726"/>
  <tile gid="726"/>
  <tile gid="726"/>
  <tile gid="852"/>
  <tile gid="789"/>
  <tile gid="790"/>
  <tile gid="789"/>
  <tile gid="790"/>
  <tile gid="408"/>
  <tile gid="106"/>
  <tile gid="408"/>
  <tile gid="408"/>
  <tile gid="408"/>
  <tile gid="408"/>
  <tile gid="851"/>
  <tile gid="784"/>
  <tile gid="784"/>
  <tile gid="784"/>
  <tile gid="784"/>
  <tile gid="784"/>
  <tile gid="784"/>
  <tile gid="784"/>
  <tile gid="784"/>
  <tile gid="884"/>
  <tile gid="408"/>
  <tile gid="408"/>
  <tile gid="408"/>
  </data>
 </layer>
</map>
