<?xml version="1.0" encoding="UTF-8"?>
<map version="1.0" orientation="orthogonal" width="32" height="23" tilewidth="16" tileheight="16">
 <tileset firstgid="1" name="0E00EA10" tilewidth="16" tileheight="16">
  <image source="0E00EA10.png" trans="ffffff"/>
 </tileset>
 <layer name="Tile Layer 1" width="32" height="23">
  <properties>
   <property name="Main" value =""/>
  </properties>
  <data>
  <tile gid="193"/>
  <tile gid="193"/>
  <tile gid="193"/>
  <tile gid="193"/>
  <tile gid="193"/>
  <tile gid="193"/>
  <tile gid="193"/>
  <tile gid="193"/>
  <tile gid="193"/>
  <tile gid="193"/>
  <tile gid="193"/>
  <tile gid="193"/>
  <tile gid="193"/>
  <tile gid="193"/>
  <tile gid="193"/>
  <tile gid="193"/>
  <tile gid="193"/>
  <tile gid="193"/>
  <tile gid="193"/>
  <tile gid="193"/>
  <tile gid="193"/>
  <tile gid="193"/>
  <tile gid="193"/>
  <tile gid="193"/>
  <tile gid="193"/>
  <tile gid="193"/>
  <tile gid="193"/>
  <tile gid="193"/>
  <tile gid="193"/>
  <tile gid="193"/>
  <tile gid="193"/>
  <tile gid="193"/>
  <tile gid="193"/>
  <tile gid="193"/>
  <tile gid="737"/>
  <tile gid="646"/>
  <tile gid="644"/>
  <tile gid="644"/>
  <tile gid="644"/>
  <tile gid="644"/>
  <tile gid="644"/>
  <tile gid="677"/>
  <tile gid="646"/>
  <tile gid="644"/>
  <tile gid="644"/>
  <tile gid="644"/>
  <tile gid="644"/>
  <tile gid="644"/>
  <tile gid="644"/>
  <tile gid="644"/>
  <tile gid="677"/>
  <tile gid="646"/>
  <tile gid="644"/>
  <tile gid="644"/>
  <tile gid="644"/>
  <tile gid="644"/>
  <tile gid="644"/>
  <tile gid="644"/>
  <tile gid="644"/>
  <tile gid="644"/>
  <tile gid="644"/>
  <tile gid="738"/>
  <tile gid="37"/>
  <tile gid="193"/>
  <tile gid="193"/>
  <tile gid="193"/>
  <tile gid="709"/>
  <tile gid="224"/>
  <tile gid="479"/>
  <tile gid="479"/>
  <tile gid="479"/>
  <tile gid="479"/>
  <tile gid="479"/>
  <tile gid="741"/>
  <tile gid="351"/>
  <tile gid="479"/>
  <tile gid="479"/>
  <tile gid="479"/>
  <tile gid="479"/>
  <tile gid="479"/>
  <tile gid="479"/>
  <tile gid="33"/>
  <tile gid="709"/>
  <tile gid="744"/>
  <tile gid="747"/>
  <tile gid="747"/>
  <tile gid="747"/>
  <tile gid="747"/>
  <tile gid="747"/>
  <tile gid="747"/>
  <tile gid="747"/>
  <tile gid="747"/>
  <tile gid="747"/>
  <tile gid="709"/>
  <tile gid="37"/>
  <tile gid="193"/>
  <tile gid="193"/>
  <tile gid="193"/>
  <tile gid="709"/>
  <tile gid="320"/>
  <tile gid="509"/>
  <tile gid="509"/>
  <tile gid="509"/>
  <tile gid="509"/>
  <tile gid="509"/>
  <tile gid="223"/>
  <tile gid="509"/>
  <tile gid="509"/>
  <tile gid="509"/>
  <tile gid="509"/>
  <tile gid="509"/>
  <tile gid="509"/>
  <tile gid="509"/>
  <tile gid="319"/>
  <tile gid="709"/>
  <tile gid="34"/>
  <tile gid="6"/>
  <tile gid="6"/>
  <tile gid="6"/>
  <tile gid="6"/>
  <tile gid="6"/>
  <tile gid="6"/>
  <tile gid="6"/>
  <tile gid="6"/>
  <tile gid="6"/>
  <tile gid="769"/>
  <tile gid="644"/>
  <tile gid="644"/>
  <tile gid="193"/>
  <tile gid="193"/>
  <tile gid="709"/>
  <tile gid="320"/>
  <tile gid="509"/>
  <tile gid="575"/>
  <tile gid="737"/>
  <tile gid="646"/>
  <tile gid="644"/>
  <tile gid="738"/>
  <tile gid="574"/>
  <tile gid="509"/>
  <tile gid="509"/>
  <tile gid="575"/>
  <tile gid="737"/>
  <tile gid="646"/>
  <tile gid="772"/>
  <tile gid="286"/>
  <tile gid="741"/>
  <tile gid="34"/>
  <tile gid="460"/>
  <tile gid="426"/>
  <tile gid="426"/>
  <tile gid="426"/>
  <tile gid="397"/>
  <tile gid="396"/>
  <tile gid="397"/>
  <tile gid="420"/>
  <tile gid="193"/>
  <tile gid="746"/>
  <tile gid="747"/>
  <tile gid="747"/>
  <tile gid="193"/>
  <tile gid="193"/>
  <tile gid="709"/>
  <tile gid="320"/>
  <tile gid="509"/>
  <tile gid="512"/>
  <tile gid="741"/>
  <tile gid="912"/>
  <tile gid="33"/>
  <tile gid="709"/>
  <tile gid="320"/>
  <tile gid="509"/>
  <tile gid="509"/>
  <tile gid="512"/>
  <tile gid="709"/>
  <tile gid="744"/>
  <tile gid="748"/>
  <tile gid="777"/>
  <tile gid="652"/>
  <tile gid="66"/>
  <tile gid="457"/>
  <tile gid="455"/>
  <tile gid="362"/>
  <tile gid="455"/>
  <tile gid="455"/>
  <tile gid="455"/>
  <tile gid="429"/>
  <tile gid="193"/>
  <tile gid="193"/>
  <tile gid="6"/>
  <tile gid="6"/>
  <tile gid="6"/>
  <tile gid="737"/>
  <tile gid="646"/>
  <tile gid="770"/>
  <tile gid="320"/>
  <tile gid="509"/>
  <tile gid="543"/>
  <tile gid="479"/>
  <tile gid="479"/>
  <tile gid="541"/>
  <tile gid="709"/>
  <tile gid="320"/>
  <tile gid="509"/>
  <tile gid="509"/>
  <tile gid="512"/>
  <tile gid="769"/>
  <tile gid="738"/>
  <tile gid="37"/>
  <tile gid="777"/>
  <tile gid="66"/>
  <tile gid="193"/>
  <tile gid="428"/>
  <tile gid="455"/>
  <tile gid="455"/>
  <tile gid="455"/>
  <tile gid="455"/>
  <tile gid="362"/>
  <tile gid="461"/>
  <tile gid="420"/>
  <tile gid="193"/>
  <tile gid="737"/>
  <tile gid="646"/>
  <tile gid="644"/>
  <tile gid="709"/>
  <tile gid="224"/>
  <tile gid="479"/>
  <tile gid="542"/>
  <tile gid="509"/>
  <tile gid="509"/>
  <tile gid="509"/>
  <tile gid="509"/>
  <tile gid="512"/>
  <tile gid="709"/>
  <tile gid="352"/>
  <tile gid="511"/>
  <tile gid="511"/>
  <tile gid="573"/>
  <tile gid="913"/>
  <tile gid="709"/>
  <tile gid="37"/>
  <tile gid="420"/>
  <tile gid="417"/>
  <tile gid="419"/>
  <tile gid="396"/>
  <tile gid="362"/>
  <tile gid="455"/>
  <tile gid="362"/>
  <tile gid="455"/>
  <tile gid="362"/>
  <tile gid="429"/>
  <tile gid="193"/>
  <tile gid="193"/>
  <tile gid="709"/>
  <tile gid="744"/>
  <tile gid="747"/>
  <tile gid="709"/>
  <tile gid="320"/>
  <tile gid="509"/>
  <tile gid="509"/>
  <tile gid="509"/>
  <tile gid="509"/>
  <tile gid="509"/>
  <tile gid="509"/>
  <tile gid="512"/>
  <tile gid="769"/>
  <tile gid="644"/>
  <tile gid="770"/>
  <tile gid="944"/>
  <tile gid="769"/>
  <tile gid="644"/>
  <tile gid="644"/>
  <tile gid="644"/>
  <tile gid="644"/>
  <tile gid="644"/>
  <tile gid="644"/>
  <tile gid="644"/>
  <tile gid="644"/>
  <tile gid="677"/>
  <tile gid="646"/>
  <tile gid="644"/>
  <tile gid="644"/>
  <tile gid="644"/>
  <tile gid="644"/>
  <tile gid="644"/>
  <tile gid="644"/>
  <tile gid="644"/>
  <tile gid="738"/>
  <tile gid="709"/>
  <tile gid="320"/>
  <tile gid="509"/>
  <tile gid="509"/>
  <tile gid="509"/>
  <tile gid="509"/>
  <tile gid="509"/>
  <tile gid="509"/>
  <tile gid="543"/>
  <tile gid="479"/>
  <tile gid="33"/>
  <tile gid="351"/>
  <tile gid="479"/>
  <tile gid="479"/>
  <tile gid="479"/>
  <tile gid="479"/>
  <tile gid="479"/>
  <tile gid="479"/>
  <tile gid="479"/>
  <tile gid="479"/>
  <tile gid="479"/>
  <tile gid="33"/>
  <tile gid="709"/>
  <tile gid="973"/>
  <tile gid="974"/>
  <tile gid="974"/>
  <tile gid="974"/>
  <tile gid="974"/>
  <tile gid="974"/>
  <tile gid="974"/>
  <tile gid="974"/>
  <tile gid="709"/>
  <tile gid="709"/>
  <tile gid="320"/>
  <tile gid="509"/>
  <tile gid="709"/>
  <tile gid="254"/>
  <tile gid="709"/>
  <tile gid="254"/>
  <tile gid="509"/>
  <tile gid="509"/>
  <tile gid="509"/>
  <tile gid="223"/>
  <tile gid="509"/>
  <tile gid="509"/>
  <tile gid="509"/>
  <tile gid="509"/>
  <tile gid="509"/>
  <tile gid="509"/>
  <tile gid="509"/>
  <tile gid="509"/>
  <tile gid="509"/>
  <tile gid="509"/>
  <tile gid="319"/>
  <tile gid="709"/>
  <tile gid="1005"/>
  <tile gid="942"/>
  <tile gid="1006"/>
  <tile gid="942"/>
  <tile gid="1006"/>
  <tile gid="942"/>
  <tile gid="1006"/>
  <tile gid="942"/>
  <tile gid="709"/>
  <tile gid="709"/>
  <tile gid="320"/>
  <tile gid="509"/>
  <tile gid="709"/>
  <tile gid="254"/>
  <tile gid="709"/>
  <tile gid="254"/>
  <tile gid="575"/>
  <tile gid="673"/>
  <tile gid="642"/>
  <tile gid="642"/>
  <tile gid="642"/>
  <tile gid="642"/>
  <tile gid="642"/>
  <tile gid="642"/>
  <tile gid="674"/>
  <tile gid="383"/>
  <tile gid="574"/>
  <tile gid="509"/>
  <tile gid="509"/>
  <tile gid="509"/>
  <tile gid="512"/>
  <tile gid="709"/>
  <tile gid="1005"/>
  <tile gid="1006"/>
  <tile gid="942"/>
  <tile gid="1006"/>
  <tile gid="942"/>
  <tile gid="1006"/>
  <tile gid="942"/>
  <tile gid="1006"/>
  <tile gid="709"/>
  <tile gid="709"/>
  <tile gid="320"/>
  <tile gid="509"/>
  <tile gid="709"/>
  <tile gid="33"/>
  <tile gid="709"/>
  <tile gid="254"/>
  <tile gid="512"/>
  <tile gid="673"/>
  <tile gid="707"/>
  <tile gid="646"/>
  <tile gid="776"/>
  <tile gid="820"/>
  <tile gid="776"/>
  <tile gid="643"/>
  <tile gid="708"/>
  <tile gid="674"/>
  <tile gid="320"/>
  <tile gid="509"/>
  <tile gid="509"/>
  <tile gid="509"/>
  <tile gid="512"/>
  <tile gid="709"/>
  <tile gid="1005"/>
  <tile gid="942"/>
  <tile gid="1006"/>
  <tile gid="942"/>
  <tile gid="1006"/>
  <tile gid="942"/>
  <tile gid="1006"/>
  <tile gid="942"/>
  <tile gid="709"/>
  <tile gid="709"/>
  <tile gid="320"/>
  <tile gid="509"/>
  <tile gid="709"/>
  <tile gid="222"/>
  <tile gid="709"/>
  <tile gid="254"/>
  <tile gid="512"/>
  <tile gid="673"/>
  <tile gid="674"/>
  <tile gid="785"/>
  <tile gid="776"/>
  <tile gid="852"/>
  <tile gid="776"/>
  <tile gid="785"/>
  <tile gid="673"/>
  <tile gid="674"/>
  <tile gid="320"/>
  <tile gid="509"/>
  <tile gid="776"/>
  <tile gid="776"/>
  <tile gid="350"/>
  <tile gid="769"/>
  <tile gid="644"/>
  <tile gid="770"/>
  <tile gid="850"/>
  <tile gid="769"/>
  <tile gid="644"/>
  <tile gid="644"/>
  <tile gid="677"/>
  <tile gid="646"/>
  <tile gid="770"/>
  <tile gid="709"/>
  <tile gid="320"/>
  <tile gid="509"/>
  <tile gid="741"/>
  <tile gid="254"/>
  <tile gid="741"/>
  <tile gid="254"/>
  <tile gid="512"/>
  <tile gid="673"/>
  <tile gid="674"/>
  <tile gid="817"/>
  <tile gid="778"/>
  <tile gid="779"/>
  <tile gid="780"/>
  <tile gid="817"/>
  <tile gid="673"/>
  <tile gid="674"/>
  <tile gid="320"/>
  <tile gid="509"/>
  <tile gid="223"/>
  <tile gid="223"/>
  <tile gid="543"/>
  <tile gid="479"/>
  <tile gid="479"/>
  <tile gid="479"/>
  <tile gid="479"/>
  <tile gid="479"/>
  <tile gid="479"/>
  <tile gid="541"/>
  <tile gid="709"/>
  <tile gid="744"/>
  <tile gid="748"/>
  <tile gid="709"/>
  <tile gid="320"/>
  <tile gid="509"/>
  <tile gid="223"/>
  <tile gid="509"/>
  <tile gid="223"/>
  <tile gid="509"/>
  <tile gid="512"/>
  <tile gid="673"/>
  <tile gid="674"/>
  <tile gid="224"/>
  <tile gid="479"/>
  <tile gid="510"/>
  <tile gid="479"/>
  <tile gid="541"/>
  <tile gid="673"/>
  <tile gid="674"/>
  <tile gid="320"/>
  <tile gid="509"/>
  <tile gid="509"/>
  <tile gid="509"/>
  <tile gid="509"/>
  <tile gid="509"/>
  <tile gid="509"/>
  <tile gid="509"/>
  <tile gid="509"/>
  <tile gid="509"/>
  <tile gid="509"/>
  <tile gid="512"/>
  <tile gid="709"/>
  <tile gid="34"/>
  <tile gid="193"/>
  <tile gid="709"/>
  <tile gid="320"/>
  <tile gid="509"/>
  <tile gid="509"/>
  <tile gid="509"/>
  <tile gid="509"/>
  <tile gid="509"/>
  <tile gid="512"/>
  <tile gid="673"/>
  <tile gid="674"/>
  <tile gid="320"/>
  <tile gid="509"/>
  <tile gid="571"/>
  <tile gid="509"/>
  <tile gid="512"/>
  <tile gid="673"/>
  <tile gid="674"/>
  <tile gid="320"/>
  <tile gid="509"/>
  <tile gid="509"/>
  <tile gid="509"/>
  <tile gid="509"/>
  <tile gid="509"/>
  <tile gid="509"/>
  <tile gid="509"/>
  <tile gid="509"/>
  <tile gid="509"/>
  <tile gid="509"/>
  <tile gid="512"/>
  <tile gid="709"/>
  <tile gid="34"/>
  <tile gid="193"/>
  <tile gid="709"/>
  <tile gid="320"/>
  <tile gid="509"/>
  <tile gid="509"/>
  <tile gid="509"/>
  <tile gid="509"/>
  <tile gid="509"/>
  <tile gid="512"/>
  <tile gid="769"/>
  <tile gid="770"/>
  <tile gid="320"/>
  <tile gid="509"/>
  <tile gid="509"/>
  <tile gid="509"/>
  <tile gid="512"/>
  <tile gid="737"/>
  <tile gid="646"/>
  <tile gid="644"/>
  <tile gid="644"/>
  <tile gid="644"/>
  <tile gid="644"/>
  <tile gid="770"/>
  <tile gid="383"/>
  <tile gid="511"/>
  <tile gid="769"/>
  <tile gid="644"/>
  <tile gid="644"/>
  <tile gid="644"/>
  <tile gid="644"/>
  <tile gid="770"/>
  <tile gid="34"/>
  <tile gid="193"/>
  <tile gid="709"/>
  <tile gid="320"/>
  <tile gid="509"/>
  <tile gid="509"/>
  <tile gid="509"/>
  <tile gid="509"/>
  <tile gid="509"/>
  <tile gid="543"/>
  <tile gid="479"/>
  <tile gid="479"/>
  <tile gid="542"/>
  <tile gid="509"/>
  <tile gid="509"/>
  <tile gid="509"/>
  <tile gid="512"/>
  <tile gid="709"/>
  <tile gid="744"/>
  <tile gid="747"/>
  <tile gid="747"/>
  <tile gid="747"/>
  <tile gid="747"/>
  <tile gid="748"/>
  <tile gid="778"/>
  <tile gid="780"/>
  <tile gid="746"/>
  <tile gid="747"/>
  <tile gid="747"/>
  <tile gid="747"/>
  <tile gid="747"/>
  <tile gid="748"/>
  <tile gid="66"/>
  <tile gid="7"/>
  <tile gid="709"/>
  <tile gid="320"/>
  <tile gid="509"/>
  <tile gid="509"/>
  <tile gid="509"/>
  <tile gid="509"/>
  <tile gid="509"/>
  <tile gid="509"/>
  <tile gid="509"/>
  <tile gid="509"/>
  <tile gid="509"/>
  <tile gid="509"/>
  <tile gid="509"/>
  <tile gid="509"/>
  <tile gid="512"/>
  <tile gid="709"/>
  <tile gid="34"/>
  <tile gid="6"/>
  <tile gid="6"/>
  <tile gid="6"/>
  <tile gid="6"/>
  <tile gid="6"/>
  <tile gid="778"/>
  <tile gid="780"/>
  <tile gid="66"/>
  <tile gid="6"/>
  <tile gid="6"/>
  <tile gid="6"/>
  <tile gid="6"/>
  <tile gid="7"/>
  <tile gid="81"/>
  <tile gid="111"/>
  <tile gid="769"/>
  <tile gid="644"/>
  <tile gid="644"/>
  <tile gid="644"/>
  <tile gid="644"/>
  <tile gid="644"/>
  <tile gid="644"/>
  <tile gid="644"/>
  <tile gid="644"/>
  <tile gid="644"/>
  <tile gid="644"/>
  <tile gid="644"/>
  <tile gid="644"/>
  <tile gid="644"/>
  <tile gid="644"/>
  <tile gid="770"/>
  <tile gid="34"/>
  <tile gid="7"/>
  <tile gid="17"/>
  <tile gid="226"/>
  <tile gid="226"/>
  <tile gid="164"/>
  <tile gid="39"/>
  <tile gid="111"/>
  <tile gid="8"/>
  <tile gid="77"/>
  <tile gid="417"/>
  <tile gid="419"/>
  <tile gid="7"/>
  <tile gid="420"/>
  <tile gid="111"/>
  <tile gid="111"/>
  <tile gid="746"/>
  <tile gid="747"/>
  <tile gid="747"/>
  <tile gid="747"/>
  <tile gid="747"/>
  <tile gid="747"/>
  <tile gid="747"/>
  <tile gid="747"/>
  <tile gid="747"/>
  <tile gid="747"/>
  <tile gid="747"/>
  <tile gid="747"/>
  <tile gid="747"/>
  <tile gid="747"/>
  <tile gid="747"/>
  <tile gid="748"/>
  <tile gid="66"/>
  <tile gid="109"/>
  <tile gid="111"/>
  <tile gid="420"/>
  <tile gid="226"/>
  <tile gid="77"/>
  <tile gid="7"/>
  <tile gid="111"/>
  <tile gid="111"/>
  <tile gid="420"/>
  <tile gid="111"/>
  <tile gid="111"/>
  <tile gid="420"/>
  <tile gid="74"/>
  <tile gid="40"/>
  <tile gid="39"/>
  <tile gid="6"/>
  <tile gid="6"/>
  <tile gid="6"/>
  <tile gid="6"/>
  <tile gid="6"/>
  <tile gid="6"/>
  <tile gid="6"/>
  <tile gid="6"/>
  <tile gid="6"/>
  <tile gid="6"/>
  <tile gid="6"/>
  <tile gid="6"/>
  <tile gid="6"/>
  <tile gid="6"/>
  <tile gid="6"/>
  <tile gid="6"/>
  <tile gid="7"/>
  <tile gid="111"/>
  <tile gid="111"/>
  <tile gid="8"/>
  <tile gid="7"/>
  <tile gid="111"/>
  <tile gid="111"/>
  <tile gid="111"/>
  <tile gid="111"/>
  <tile gid="111"/>
  <tile gid="111"/>
  <tile gid="40"/>
  <tile gid="226"/>
  <tile gid="226"/>
  <tile gid="77"/>
  <tile gid="7"/>
  </data>
 </layer>
</map>
