<?xml version="1.0" encoding="UTF-8"?>
<map version="1.0" orientation="orthogonal" width="32" height="32" tilewidth="16" tileheight="16">
 <tileset firstgid="1" name="0E000F10" tilewidth="16" tileheight="16">
  <image source="0E000F10.png" trans="ffffff"/>
 </tileset>
 <layer name="Tile Layer 1" width="32" height="32">
  <properties>
   <property name="Main" value =""/>
  </properties>
  <data>
  <tile gid="853"/>
  <tile gid="853"/>
  <tile gid="725"/>
  <tile gid="225"/>
  <tile gid="39"/>
  <tile gid="74"/>
  <tile gid="40"/>
  <tile gid="107"/>
  <tile gid="108"/>
  <tile gid="39"/>
  <tile gid="74"/>
  <tile gid="40"/>
  <tile gid="225"/>
  <tile gid="726"/>
  <tile gid="853"/>
  <tile gid="725"/>
  <tile gid="663"/>
  <tile gid="726"/>
  <tile gid="853"/>
  <tile gid="695"/>
  <tile gid="193"/>
  <tile gid="10"/>
  <tile gid="79"/>
  <tile gid="41"/>
  <tile gid="663"/>
  <tile gid="663"/>
  <tile gid="663"/>
  <tile gid="663"/>
  <tile gid="726"/>
  <tile gid="885"/>
  <tile gid="885"/>
  <tile gid="885"/>
  <tile gid="853"/>
  <tile gid="853"/>
  <tile gid="695"/>
  <tile gid="225"/>
  <tile gid="203"/>
  <tile gid="204"/>
  <tile gid="133"/>
  <tile gid="134"/>
  <tile gid="203"/>
  <tile gid="204"/>
  <tile gid="142"/>
  <tile gid="225"/>
  <tile gid="226"/>
  <tile gid="760"/>
  <tile gid="725"/>
  <tile gid="225"/>
  <tile gid="225"/>
  <tile gid="225"/>
  <tile gid="726"/>
  <tile gid="759"/>
  <tile gid="193"/>
  <tile gid="194"/>
  <tile gid="106"/>
  <tile gid="79"/>
  <tile gid="8"/>
  <tile gid="226"/>
  <tile gid="226"/>
  <tile gid="226"/>
  <tile gid="194"/>
  <tile gid="726"/>
  <tile gid="885"/>
  <tile gid="885"/>
  <tile gid="856"/>
  <tile gid="795"/>
  <tile gid="226"/>
  <tile gid="201"/>
  <tile gid="52"/>
  <tile gid="272"/>
  <tile gid="52"/>
  <tile gid="272"/>
  <tile gid="52"/>
  <tile gid="272"/>
  <tile gid="52"/>
  <tile gid="202"/>
  <tile gid="760"/>
  <tile gid="853"/>
  <tile gid="759"/>
  <tile gid="194"/>
  <tile gid="13"/>
  <tile gid="226"/>
  <tile gid="193"/>
  <tile gid="726"/>
  <tile gid="759"/>
  <tile gid="194"/>
  <tile gid="39"/>
  <tile gid="74"/>
  <tile gid="79"/>
  <tile gid="73"/>
  <tile gid="73"/>
  <tile gid="41"/>
  <tile gid="226"/>
  <tile gid="193"/>
  <tile gid="663"/>
  <tile gid="663"/>
  <tile gid="885"/>
  <tile gid="853"/>
  <tile gid="761"/>
  <tile gid="664"/>
  <tile gid="173"/>
  <tile gid="165"/>
  <tile gid="166"/>
  <tile gid="174"/>
  <tile gid="165"/>
  <tile gid="166"/>
  <tile gid="173"/>
  <tile gid="696"/>
  <tile gid="853"/>
  <tile gid="853"/>
  <tile gid="853"/>
  <tile gid="759"/>
  <tile gid="173"/>
  <tile gid="226"/>
  <tile gid="193"/>
  <tile gid="606"/>
  <tile gid="607"/>
  <tile gid="608"/>
  <tile gid="194"/>
  <tile gid="225"/>
  <tile gid="10"/>
  <tile gid="74"/>
  <tile gid="79"/>
  <tile gid="105"/>
  <tile gid="470"/>
  <tile gid="495"/>
  <tile gid="504"/>
  <tile gid="226"/>
  <tile gid="885"/>
  <tile gid="856"/>
  <tile gid="853"/>
  <tile gid="853"/>
  <tile gid="761"/>
  <tile gid="664"/>
  <tile gid="664"/>
  <tile gid="634"/>
  <tile gid="760"/>
  <tile gid="761"/>
  <tile gid="634"/>
  <tile gid="760"/>
  <tile gid="725"/>
  <tile gid="726"/>
  <tile gid="853"/>
  <tile gid="853"/>
  <tile gid="759"/>
  <tile gid="193"/>
  <tile gid="194"/>
  <tile gid="760"/>
  <tile gid="853"/>
  <tile gid="725"/>
  <tile gid="470"/>
  <tile gid="495"/>
  <tile gid="504"/>
  <tile gid="193"/>
  <tile gid="106"/>
  <tile gid="79"/>
  <tile gid="8"/>
  <tile gid="193"/>
  <tile gid="194"/>
  <tile gid="225"/>
  <tile gid="885"/>
  <tile gid="885"/>
  <tile gid="856"/>
  <tile gid="853"/>
  <tile gid="853"/>
  <tile gid="853"/>
  <tile gid="853"/>
  <tile gid="698"/>
  <tile gid="725"/>
  <tile gid="728"/>
  <tile gid="698"/>
  <tile gid="725"/>
  <tile gid="193"/>
  <tile gid="193"/>
  <tile gid="726"/>
  <tile gid="729"/>
  <tile gid="728"/>
  <tile gid="695"/>
  <tile gid="194"/>
  <tile gid="796"/>
  <tile gid="853"/>
  <tile gid="695"/>
  <tile gid="193"/>
  <tile gid="356"/>
  <tile gid="495"/>
  <tile gid="495"/>
  <tile gid="420"/>
  <tile gid="79"/>
  <tile gid="356"/>
  <tile gid="73"/>
  <tile gid="41"/>
  <tile gid="193"/>
  <tile gid="885"/>
  <tile gid="885"/>
  <tile gid="888"/>
  <tile gid="853"/>
  <tile gid="853"/>
  <tile gid="727"/>
  <tile gid="663"/>
  <tile gid="226"/>
  <tile gid="226"/>
  <tile gid="193"/>
  <tile gid="225"/>
  <tile gid="193"/>
  <tile gid="194"/>
  <tile gid="193"/>
  <tile gid="193"/>
  <tile gid="193"/>
  <tile gid="194"/>
  <tile gid="226"/>
  <tile gid="226"/>
  <tile gid="794"/>
  <tile gid="853"/>
  <tile gid="695"/>
  <tile gid="420"/>
  <tile gid="226"/>
  <tile gid="193"/>
  <tile gid="356"/>
  <tile gid="225"/>
  <tile gid="420"/>
  <tile gid="74"/>
  <tile gid="79"/>
  <tile gid="79"/>
  <tile gid="8"/>
  <tile gid="885"/>
  <tile gid="888"/>
  <tile gid="853"/>
  <tile gid="853"/>
  <tile gid="725"/>
  <tile gid="194"/>
  <tile gid="7"/>
  <tile gid="112"/>
  <tile gid="420"/>
  <tile gid="225"/>
  <tile gid="225"/>
  <tile gid="193"/>
  <tile gid="194"/>
  <tile gid="193"/>
  <tile gid="193"/>
  <tile gid="762"/>
  <tile gid="761"/>
  <tile gid="193"/>
  <tile gid="760"/>
  <tile gid="853"/>
  <tile gid="853"/>
  <tile gid="759"/>
  <tile gid="194"/>
  <tile gid="495"/>
  <tile gid="495"/>
  <tile gid="193"/>
  <tile gid="664"/>
  <tile gid="226"/>
  <tile gid="225"/>
  <tile gid="106"/>
  <tile gid="79"/>
  <tile gid="105"/>
  <tile gid="888"/>
  <tile gid="853"/>
  <tile gid="725"/>
  <tile gid="663"/>
  <tile gid="226"/>
  <tile gid="420"/>
  <tile gid="105"/>
  <tile gid="193"/>
  <tile gid="21"/>
  <tile gid="22"/>
  <tile gid="23"/>
  <tile gid="21"/>
  <tile gid="22"/>
  <tile gid="23"/>
  <tile gid="762"/>
  <tile gid="853"/>
  <tile gid="853"/>
  <tile gid="761"/>
  <tile gid="796"/>
  <tile gid="853"/>
  <tile gid="725"/>
  <tile gid="726"/>
  <tile gid="759"/>
  <tile gid="664"/>
  <tile gid="664"/>
  <tile gid="760"/>
  <tile gid="853"/>
  <tile gid="759"/>
  <tile gid="225"/>
  <tile gid="10"/>
  <tile gid="79"/>
  <tile gid="420"/>
  <tile gid="853"/>
  <tile gid="725"/>
  <tile gid="194"/>
  <tile gid="226"/>
  <tile gid="42"/>
  <tile gid="79"/>
  <tile gid="79"/>
  <tile gid="41"/>
  <tile gid="85"/>
  <tile gid="86"/>
  <tile gid="87"/>
  <tile gid="85"/>
  <tile gid="86"/>
  <tile gid="87"/>
  <tile gid="728"/>
  <tile gid="853"/>
  <tile gid="853"/>
  <tile gid="853"/>
  <tile gid="853"/>
  <tile gid="727"/>
  <tile gid="193"/>
  <tile gid="193"/>
  <tile gid="728"/>
  <tile gid="853"/>
  <tile gid="853"/>
  <tile gid="853"/>
  <tile gid="853"/>
  <tile gid="853"/>
  <tile gid="759"/>
  <tile gid="226"/>
  <tile gid="39"/>
  <tile gid="112"/>
  <tile gid="853"/>
  <tile gid="695"/>
  <tile gid="194"/>
  <tile gid="356"/>
  <tile gid="79"/>
  <tile gid="9"/>
  <tile gid="39"/>
  <tile gid="74"/>
  <tile gid="112"/>
  <tile gid="296"/>
  <tile gid="420"/>
  <tile gid="194"/>
  <tile gid="295"/>
  <tile gid="194"/>
  <tile gid="696"/>
  <tile gid="853"/>
  <tile gid="725"/>
  <tile gid="663"/>
  <tile gid="663"/>
  <tile gid="193"/>
  <tile gid="503"/>
  <tile gid="495"/>
  <tile gid="226"/>
  <tile gid="726"/>
  <tile gid="853"/>
  <tile gid="853"/>
  <tile gid="853"/>
  <tile gid="853"/>
  <tile gid="725"/>
  <tile gid="226"/>
  <tile gid="420"/>
  <tile gid="225"/>
  <tile gid="853"/>
  <tile gid="695"/>
  <tile gid="226"/>
  <tile gid="80"/>
  <tile gid="40"/>
  <tile gid="225"/>
  <tile gid="226"/>
  <tile gid="506"/>
  <tile gid="503"/>
  <tile gid="495"/>
  <tile gid="534"/>
  <tile gid="503"/>
  <tile gid="495"/>
  <tile gid="194"/>
  <tile gid="760"/>
  <tile gid="853"/>
  <tile gid="759"/>
  <tile gid="193"/>
  <tile gid="225"/>
  <tile gid="126"/>
  <tile gid="127"/>
  <tile gid="128"/>
  <tile gid="193"/>
  <tile gid="194"/>
  <tile gid="728"/>
  <tile gid="853"/>
  <tile gid="853"/>
  <tile gid="725"/>
  <tile gid="225"/>
  <tile gid="226"/>
  <tile gid="225"/>
  <tile gid="420"/>
  <tile gid="853"/>
  <tile gid="695"/>
  <tile gid="225"/>
  <tile gid="420"/>
  <tile gid="226"/>
  <tile gid="758"/>
  <tile gid="757"/>
  <tile gid="194"/>
  <tile gid="226"/>
  <tile gid="356"/>
  <tile gid="194"/>
  <tile gid="758"/>
  <tile gid="859"/>
  <tile gid="757"/>
  <tile gid="796"/>
  <tile gid="853"/>
  <tile gid="853"/>
  <tile gid="759"/>
  <tile gid="193"/>
  <tile gid="158"/>
  <tile gid="159"/>
  <tile gid="160"/>
  <tile gid="193"/>
  <tile gid="194"/>
  <tile gid="760"/>
  <tile gid="725"/>
  <tile gid="663"/>
  <tile gid="503"/>
  <tile gid="495"/>
  <tile gid="226"/>
  <tile gid="420"/>
  <tile gid="193"/>
  <tile gid="795"/>
  <tile gid="193"/>
  <tile gid="225"/>
  <tile gid="226"/>
  <tile gid="194"/>
  <tile gid="663"/>
  <tile gid="726"/>
  <tile gid="757"/>
  <tile gid="664"/>
  <tile gid="664"/>
  <tile gid="758"/>
  <tile gid="853"/>
  <tile gid="853"/>
  <tile gid="853"/>
  <tile gid="853"/>
  <tile gid="853"/>
  <tile gid="853"/>
  <tile gid="725"/>
  <tile gid="193"/>
  <tile gid="190"/>
  <tile gid="191"/>
  <tile gid="192"/>
  <tile gid="193"/>
  <tile gid="194"/>
  <tile gid="726"/>
  <tile gid="759"/>
  <tile gid="194"/>
  <tile gid="193"/>
  <tile gid="226"/>
  <tile gid="194"/>
  <tile gid="495"/>
  <tile gid="504"/>
  <tile gid="856"/>
  <tile gid="761"/>
  <tile gid="226"/>
  <tile gid="225"/>
  <tile gid="226"/>
  <tile gid="194"/>
  <tile gid="758"/>
  <tile gid="853"/>
  <tile gid="853"/>
  <tile gid="853"/>
  <tile gid="725"/>
  <tile gid="663"/>
  <tile gid="663"/>
  <tile gid="663"/>
  <tile gid="728"/>
  <tile gid="853"/>
  <tile gid="853"/>
  <tile gid="757"/>
  <tile gid="225"/>
  <tile gid="7"/>
  <tile gid="40"/>
  <tile gid="503"/>
  <tile gid="495"/>
  <tile gid="193"/>
  <tile gid="193"/>
  <tile gid="726"/>
  <tile gid="759"/>
  <tile gid="225"/>
  <tile gid="226"/>
  <tile gid="194"/>
  <tile gid="664"/>
  <tile gid="664"/>
  <tile gid="885"/>
  <tile gid="853"/>
  <tile gid="695"/>
  <tile gid="226"/>
  <tile gid="420"/>
  <tile gid="760"/>
  <tile gid="853"/>
  <tile gid="725"/>
  <tile gid="663"/>
  <tile gid="663"/>
  <tile gid="193"/>
  <tile gid="194"/>
  <tile gid="226"/>
  <tile gid="193"/>
  <tile gid="760"/>
  <tile gid="853"/>
  <tile gid="853"/>
  <tile gid="725"/>
  <tile gid="225"/>
  <tile gid="106"/>
  <tile gid="8"/>
  <tile gid="356"/>
  <tile gid="193"/>
  <tile gid="225"/>
  <tile gid="225"/>
  <tile gid="760"/>
  <tile gid="853"/>
  <tile gid="759"/>
  <tile gid="20"/>
  <tile gid="760"/>
  <tile gid="853"/>
  <tile gid="853"/>
  <tile gid="885"/>
  <tile gid="853"/>
  <tile gid="695"/>
  <tile gid="356"/>
  <tile gid="760"/>
  <tile gid="853"/>
  <tile gid="853"/>
  <tile gid="695"/>
  <tile gid="193"/>
  <tile gid="13"/>
  <tile gid="225"/>
  <tile gid="13"/>
  <tile gid="13"/>
  <tile gid="193"/>
  <tile gid="796"/>
  <tile gid="853"/>
  <tile gid="725"/>
  <tile gid="194"/>
  <tile gid="194"/>
  <tile gid="106"/>
  <tile gid="79"/>
  <tile gid="112"/>
  <tile gid="194"/>
  <tile gid="193"/>
  <tile gid="760"/>
  <tile gid="853"/>
  <tile gid="853"/>
  <tile gid="853"/>
  <tile gid="666"/>
  <tile gid="853"/>
  <tile gid="853"/>
  <tile gid="853"/>
  <tile gid="888"/>
  <tile gid="727"/>
  <tile gid="193"/>
  <tile gid="225"/>
  <tile gid="726"/>
  <tile gid="853"/>
  <tile gid="725"/>
  <tile gid="225"/>
  <tile gid="225"/>
  <tile gid="516"/>
  <tile gid="194"/>
  <tile gid="19"/>
  <tile gid="173"/>
  <tile gid="516"/>
  <tile gid="726"/>
  <tile gid="853"/>
  <tile gid="759"/>
  <tile gid="226"/>
  <tile gid="226"/>
  <tile gid="39"/>
  <tile gid="79"/>
  <tile gid="8"/>
  <tile gid="194"/>
  <tile gid="194"/>
  <tile gid="796"/>
  <tile gid="853"/>
  <tile gid="739"/>
  <tile gid="772"/>
  <tile gid="851"/>
  <tile gid="771"/>
  <tile gid="740"/>
  <tile gid="853"/>
  <tile gid="729"/>
  <tile gid="226"/>
  <tile gid="420"/>
  <tile gid="193"/>
  <tile gid="194"/>
  <tile gid="726"/>
  <tile gid="759"/>
  <tile gid="225"/>
  <tile gid="503"/>
  <tile gid="561"/>
  <tile gid="226"/>
  <tile gid="173"/>
  <tile gid="13"/>
  <tile gid="13"/>
  <tile gid="194"/>
  <tile gid="726"/>
  <tile gid="853"/>
  <tile gid="759"/>
  <tile gid="226"/>
  <tile gid="225"/>
  <tile gid="20"/>
  <tile gid="20"/>
  <tile gid="193"/>
  <tile gid="760"/>
  <tile gid="853"/>
  <tile gid="853"/>
  <tile gid="679"/>
  <tile gid="909"/>
  <tile gid="910"/>
  <tile gid="910"/>
  <tile gid="679"/>
  <tile gid="796"/>
  <tile gid="225"/>
  <tile gid="226"/>
  <tile gid="193"/>
  <tile gid="77"/>
  <tile gid="226"/>
  <tile gid="194"/>
  <tile gid="726"/>
  <tile gid="759"/>
  <tile gid="226"/>
  <tile gid="17"/>
  <tile gid="193"/>
  <tile gid="18"/>
  <tile gid="13"/>
  <tile gid="173"/>
  <tile gid="226"/>
  <tile gid="194"/>
  <tile gid="796"/>
  <tile gid="853"/>
  <tile gid="695"/>
  <tile gid="226"/>
  <tile gid="173"/>
  <tile gid="173"/>
  <tile gid="194"/>
  <tile gid="796"/>
  <tile gid="853"/>
  <tile gid="739"/>
  <tile gid="772"/>
  <tile gid="941"/>
  <tile gid="942"/>
  <tile gid="739"/>
  <tile gid="772"/>
  <tile gid="794"/>
  <tile gid="225"/>
  <tile gid="7"/>
  <tile gid="73"/>
  <tile gid="79"/>
  <tile gid="8"/>
  <tile gid="226"/>
  <tile gid="760"/>
  <tile gid="725"/>
  <tile gid="194"/>
  <tile gid="17"/>
  <tile gid="193"/>
  <tile gid="18"/>
  <tile gid="513"/>
  <tile gid="515"/>
  <tile gid="225"/>
  <tile gid="226"/>
  <tile gid="794"/>
  <tile gid="795"/>
  <tile gid="194"/>
  <tile gid="194"/>
  <tile gid="194"/>
  <tile gid="225"/>
  <tile gid="193"/>
  <tile gid="794"/>
  <tile gid="853"/>
  <tile gid="679"/>
  <tile gid="909"/>
  <tile gid="1006"/>
  <tile gid="942"/>
  <tile gid="679"/>
  <tile gid="716"/>
  <tile gid="794"/>
  <tile gid="225"/>
  <tile gid="106"/>
  <tile gid="105"/>
  <tile gid="78"/>
  <tile gid="39"/>
  <tile gid="760"/>
  <tile gid="853"/>
  <tile gid="757"/>
  <tile gid="226"/>
  <tile gid="7"/>
  <tile gid="112"/>
  <tile gid="516"/>
  <tile gid="194"/>
  <tile gid="516"/>
  <tile gid="193"/>
  <tile gid="760"/>
  <tile gid="853"/>
  <tile gid="853"/>
  <tile gid="759"/>
  <tile gid="664"/>
  <tile gid="634"/>
  <tile gid="664"/>
  <tile gid="760"/>
  <tile gid="853"/>
  <tile gid="853"/>
  <tile gid="679"/>
  <tile gid="941"/>
  <tile gid="942"/>
  <tile gid="942"/>
  <tile gid="679"/>
  <tile gid="826"/>
  <tile gid="853"/>
  <tile gid="225"/>
  <tile gid="10"/>
  <tile gid="79"/>
  <tile gid="41"/>
  <tile gid="193"/>
  <tile gid="796"/>
  <tile gid="853"/>
  <tile gid="853"/>
  <tile gid="695"/>
  <tile gid="106"/>
  <tile gid="8"/>
  <tile gid="495"/>
  <tile gid="467"/>
  <tile gid="193"/>
  <tile gid="760"/>
  <tile gid="853"/>
  <tile gid="853"/>
  <tile gid="853"/>
  <tile gid="853"/>
  <tile gid="853"/>
  <tile gid="698"/>
  <tile gid="853"/>
  <tile gid="853"/>
  <tile gid="853"/>
  <tile gid="795"/>
  <tile gid="679"/>
  <tile gid="941"/>
  <tile gid="942"/>
  <tile gid="942"/>
  <tile gid="679"/>
  <tile gid="853"/>
  <tile gid="853"/>
  <tile gid="761"/>
  <tile gid="226"/>
  <tile gid="39"/>
  <tile gid="79"/>
  <tile gid="112"/>
  <tile gid="794"/>
  <tile gid="853"/>
  <tile gid="795"/>
  <tile gid="194"/>
  <tile gid="39"/>
  <tile gid="105"/>
  <tile gid="194"/>
  <tile gid="226"/>
  <tile gid="760"/>
  <tile gid="853"/>
  <tile gid="853"/>
  <tile gid="853"/>
  <tile gid="853"/>
  <tile gid="853"/>
  <tile gid="725"/>
  <tile gid="225"/>
  <tile gid="663"/>
  <tile gid="726"/>
  <tile gid="853"/>
  <tile gid="793"/>
  <tile gid="679"/>
  <tile gid="941"/>
  <tile gid="942"/>
  <tile gid="942"/>
  <tile gid="679"/>
  <tile gid="796"/>
  <tile gid="853"/>
  <tile gid="853"/>
  <tile gid="695"/>
  <tile gid="194"/>
  <tile gid="10"/>
  <tile gid="8"/>
  <tile gid="726"/>
  <tile gid="853"/>
  <tile gid="853"/>
  <tile gid="759"/>
  <tile gid="664"/>
  <tile gid="634"/>
  <tile gid="664"/>
  <tile gid="760"/>
  <tile gid="853"/>
  <tile gid="853"/>
  <tile gid="853"/>
  <tile gid="725"/>
  <tile gid="726"/>
  <tile gid="725"/>
  <tile gid="225"/>
  <tile gid="226"/>
  <tile gid="226"/>
  <tile gid="226"/>
  <tile gid="726"/>
  <tile gid="793"/>
  <tile gid="771"/>
  <tile gid="772"/>
  <tile gid="851"/>
  <tile gid="771"/>
  <tile gid="772"/>
  <tile gid="794"/>
  <tile gid="853"/>
  <tile gid="853"/>
  <tile gid="761"/>
  <tile gid="193"/>
  <tile gid="225"/>
  <tile gid="106"/>
  <tile gid="41"/>
  <tile gid="726"/>
  <tile gid="853"/>
  <tile gid="853"/>
  <tile gid="853"/>
  <tile gid="698"/>
  <tile gid="853"/>
  <tile gid="853"/>
  <tile gid="853"/>
  <tile gid="853"/>
  <tile gid="725"/>
  <tile gid="194"/>
  <tile gid="194"/>
  <tile gid="193"/>
  <tile gid="194"/>
  <tile gid="194"/>
  <tile gid="193"/>
  <tile gid="193"/>
  <tile gid="420"/>
  <tile gid="726"/>
  <tile gid="714"/>
  <tile gid="716"/>
  <tile gid="666"/>
  <tile gid="714"/>
  <tile gid="716"/>
  <tile gid="794"/>
  <tile gid="853"/>
  <tile gid="853"/>
  <tile gid="853"/>
  <tile gid="761"/>
  <tile gid="226"/>
  <tile gid="39"/>
  <tile gid="105"/>
  <tile gid="193"/>
  <tile gid="663"/>
  <tile gid="663"/>
  <tile gid="663"/>
  <tile gid="193"/>
  <tile gid="663"/>
  <tile gid="726"/>
  <tile gid="853"/>
  <tile gid="725"/>
  <tile gid="193"/>
  <tile gid="417"/>
  <tile gid="419"/>
  <tile gid="194"/>
  <tile gid="7"/>
  <tile gid="8"/>
  <tile gid="77"/>
  <tile gid="225"/>
  <tile gid="20"/>
  <tile gid="356"/>
  <tile gid="726"/>
  <tile gid="826"/>
  <tile gid="698"/>
  <tile gid="825"/>
  <tile gid="826"/>
  <tile gid="853"/>
  <tile gid="853"/>
  <tile gid="853"/>
  <tile gid="853"/>
  <tile gid="853"/>
  <tile gid="761"/>
  <tile gid="193"/>
  <tile gid="78"/>
  <tile gid="194"/>
  <tile gid="7"/>
  <tile gid="112"/>
  <tile gid="7"/>
  <tile gid="8"/>
  <tile gid="225"/>
  <tile gid="226"/>
  <tile gid="726"/>
  <tile gid="759"/>
  <tile gid="225"/>
  <tile gid="356"/>
  <tile gid="420"/>
  <tile gid="194"/>
  <tile gid="106"/>
  <tile gid="79"/>
  <tile gid="79"/>
  <tile gid="8"/>
  <tile gid="356"/>
  <tile gid="194"/>
  <tile gid="225"/>
  <tile gid="663"/>
  <tile gid="226"/>
  <tile gid="728"/>
  <tile gid="853"/>
  <tile gid="853"/>
  <tile gid="853"/>
  <tile gid="856"/>
  <tile gid="853"/>
  <tile gid="853"/>
  <tile gid="853"/>
  <tile gid="761"/>
  <tile gid="356"/>
  <tile gid="7"/>
  <tile gid="79"/>
  <tile gid="73"/>
  <tile gid="79"/>
  <tile gid="79"/>
  <tile gid="8"/>
  <tile gid="194"/>
  <tile gid="606"/>
  <tile gid="608"/>
  <tile gid="193"/>
  <tile gid="194"/>
  <tile gid="194"/>
  <tile gid="42"/>
  <tile gid="79"/>
  <tile gid="9"/>
  <tile gid="106"/>
  <tile gid="79"/>
  <tile gid="112"/>
  <tile gid="194"/>
  <tile gid="420"/>
  <tile gid="225"/>
  <tile gid="226"/>
  <tile gid="760"/>
  <tile gid="853"/>
  <tile gid="854"/>
  <tile gid="854"/>
  <tile gid="885"/>
  <tile gid="853"/>
  <tile gid="853"/>
  <tile gid="853"/>
  <tile gid="729"/>
  <tile gid="226"/>
  <tile gid="39"/>
  <tile gid="417"/>
  <tile gid="419"/>
  <tile gid="356"/>
  <tile gid="78"/>
  <tile gid="420"/>
  <tile gid="112"/>
  <tile gid="728"/>
  <tile gid="759"/>
  <tile gid="194"/>
  <tile gid="226"/>
  <tile gid="80"/>
  <tile gid="74"/>
  <tile gid="40"/>
  <tile gid="194"/>
  <tile gid="107"/>
  <tile gid="108"/>
  <tile gid="194"/>
  <tile gid="226"/>
  <tile gid="226"/>
  <tile gid="194"/>
  <tile gid="760"/>
  <tile gid="853"/>
  <tile gid="854"/>
  <tile gid="854"/>
  <tile gid="885"/>
  <tile gid="885"/>
  <tile gid="856"/>
  <tile gid="853"/>
  <tile gid="795"/>
  <tile gid="194"/>
  <tile gid="194"/>
  <tile gid="420"/>
  <tile gid="356"/>
  <tile gid="420"/>
  <tile gid="420"/>
  <tile gid="194"/>
  <tile gid="356"/>
  <tile gid="226"/>
  <tile gid="760"/>
  <tile gid="853"/>
  <tile gid="759"/>
  <tile gid="226"/>
  <tile gid="226"/>
  <tile gid="506"/>
  <tile gid="503"/>
  <tile gid="495"/>
  <tile gid="225"/>
  <tile gid="226"/>
  <tile gid="226"/>
  <tile gid="226"/>
  <tile gid="193"/>
  <tile gid="760"/>
  <tile gid="853"/>
  <tile gid="853"/>
  <tile gid="854"/>
  <tile gid="885"/>
  <tile gid="885"/>
  <tile gid="885"/>
  <tile gid="885"/>
  <tile gid="856"/>
  <tile gid="853"/>
  <tile gid="757"/>
  <tile gid="226"/>
  <tile gid="417"/>
  <tile gid="419"/>
  <tile gid="77"/>
  <tile gid="356"/>
  <tile gid="77"/>
  <tile gid="193"/>
  <tile gid="760"/>
  <tile gid="853"/>
  <tile gid="853"/>
  <tile gid="853"/>
  <tile gid="759"/>
  <tile gid="194"/>
  <tile gid="193"/>
  <tile gid="194"/>
  <tile gid="226"/>
  <tile gid="194"/>
  <tile gid="194"/>
  <tile gid="226"/>
  <tile gid="193"/>
  <tile gid="760"/>
  <tile gid="853"/>
  <tile gid="853"/>
  <tile gid="854"/>
  <tile gid="885"/>
  <tile gid="885"/>
  <tile gid="885"/>
  </data>
 </layer>
 <layer name="Map Change 0" width="32" height="32">
  <properties>
   <property name="ID" value ="0"/>
   <property name="Height" value ="2"/>
   <property name="Width" value ="3"/>
   <property name="X" value ="8"/>
   <property name="Y" value ="8"/>
  </properties>
  <data>
  <tile gid="0"/>
  <tile gid="0"/>
  <tile gid="0"/>
  <tile gid="0"/>
  <tile gid="0"/>
  <tile gid="0"/>
  <tile gid="0"/>
  <tile gid="0"/>
  <tile gid="0"/>
  <tile gid="0"/>
  <tile gid="0"/>
  <tile gid="0"/>
  <tile gid="0"/>
  <tile gid="0"/>
  <tile gid="0"/>
  <tile gid="0"/>
  <tile gid="0"/>
  <tile gid="0"/>
  <tile gid="0"/>
  <tile gid="0"/>
  <tile gid="0"/>
  <tile gid="0"/>
  <tile gid="0"/>
  <tile gid="0"/>
  <tile gid="0"/>
  <tile gid="0"/>
  <tile gid="0"/>
  <tile gid="0"/>
  <tile gid="0"/>
  <tile gid="0"/>
  <tile gid="0"/>
  <tile gid="0"/>
  <tile gid="0"/>
  <tile gid="0"/>
  <tile gid="0"/>
  <tile gid="0"/>
  <tile gid="0"/>
  <tile gid="0"/>
  <tile gid="0"/>
  <tile gid="0"/>
  <tile gid="0"/>
  <tile gid="0"/>
  <tile gid="0"/>
  <tile gid="0"/>
  <tile gid="0"/>
  <tile gid="0"/>
  <tile gid="0"/>
  <tile gid="0"/>
  <tile gid="0"/>
  <tile gid="0"/>
  <tile gid="0"/>
  <tile gid="0"/>
  <tile gid="0"/>
  <tile gid="0"/>
  <tile gid="0"/>
  <tile gid="0"/>
  <tile gid="0"/>
  <tile gid="0"/>
  <tile gid="0"/>
  <tile gid="0"/>
  <tile gid="0"/>
  <tile gid="0"/>
  <tile gid="0"/>
  <tile gid="0"/>
  <tile gid="0"/>
  <tile gid="0"/>
  <tile gid="0"/>
  <tile gid="0"/>
  <tile gid="0"/>
  <tile gid="0"/>
  <tile gid="0"/>
  <tile gid="0"/>
  <tile gid="0"/>
  <tile gid="0"/>
  <tile gid="0"/>
  <tile gid="0"/>
  <tile gid="0"/>
  <tile gid="0"/>
  <tile gid="0"/>
  <tile gid="0"/>
  <tile gid="0"/>
  <tile gid="0"/>
  <tile gid="0"/>
  <tile gid="0"/>
  <tile gid="0"/>
  <tile gid="0"/>
  <tile gid="0"/>
  <tile gid="0"/>
  <tile gid="0"/>
  <tile gid="0"/>
  <tile gid="0"/>
  <tile gid="0"/>
  <tile gid="0"/>
  <tile gid="0"/>
  <tile gid="0"/>
  <tile gid="0"/>
  <tile gid="0"/>
  <tile gid="0"/>
  <tile gid="0"/>
  <tile gid="0"/>
  <tile gid="0"/>
  <tile gid="0"/>
  <tile gid="0"/>
  <tile gid="0"/>
  <tile gid="0"/>
  <tile gid="0"/>
  <tile gid="0"/>
  <tile gid="0"/>
  <tile gid="0"/>
  <tile gid="0"/>
  <tile gid="0"/>
  <tile gid="0"/>
  <tile gid="0"/>
  <tile gid="0"/>
  <tile gid="0"/>
  <tile gid="0"/>
  <tile gid="0"/>
  <tile gid="0"/>
  <tile gid="0"/>
  <tile gid="0"/>
  <tile gid="0"/>
  <tile gid="0"/>
  <tile gid="0"/>
  <tile gid="0"/>
  <tile gid="0"/>
  <tile gid="0"/>
  <tile gid="0"/>
  <tile gid="0"/>
  <tile gid="0"/>
  <tile gid="0"/>
  <tile gid="0"/>
  <tile gid="0"/>
  <tile gid="0"/>
  <tile gid="0"/>
  <tile gid="0"/>
  <tile gid="0"/>
  <tile gid="0"/>
  <tile gid="0"/>
  <tile gid="0"/>
  <tile gid="0"/>
  <tile gid="0"/>
  <tile gid="0"/>
  <tile gid="0"/>
  <tile gid="0"/>
  <tile gid="0"/>
  <tile gid="0"/>
  <tile gid="0"/>
  <tile gid="0"/>
  <tile gid="0"/>
  <tile gid="0"/>
  <tile gid="0"/>
  <tile gid="0"/>
  <tile gid="0"/>
  <tile gid="0"/>
  <tile gid="0"/>
  <tile gid="0"/>
  <tile gid="0"/>
  <tile gid="0"/>
  <tile gid="0"/>
  <tile gid="0"/>
  <tile gid="0"/>
  <tile gid="0"/>
  <tile gid="0"/>
  <tile gid="0"/>
  <tile gid="0"/>
  <tile gid="0"/>
  <tile gid="0"/>
  <tile gid="0"/>
  <tile gid="0"/>
  <tile gid="0"/>
  <tile gid="0"/>
  <tile gid="0"/>
  <tile gid="0"/>
  <tile gid="0"/>
  <tile gid="0"/>
  <tile gid="0"/>
  <tile gid="0"/>
  <tile gid="0"/>
  <tile gid="0"/>
  <tile gid="0"/>
  <tile gid="0"/>
  <tile gid="0"/>
  <tile gid="0"/>
  <tile gid="0"/>
  <tile gid="0"/>
  <tile gid="0"/>
  <tile gid="0"/>
  <tile gid="0"/>
  <tile gid="0"/>
  <tile gid="0"/>
  <tile gid="0"/>
  <tile gid="0"/>
  <tile gid="0"/>
  <tile gid="0"/>
  <tile gid="0"/>
  <tile gid="0"/>
  <tile gid="0"/>
  <tile gid="0"/>
  <tile gid="0"/>
  <tile gid="0"/>
  <tile gid="0"/>
  <tile gid="0"/>
  <tile gid="0"/>
  <tile gid="0"/>
  <tile gid="0"/>
  <tile gid="0"/>
  <tile gid="0"/>
  <tile gid="0"/>
  <tile gid="0"/>
  <tile gid="0"/>
  <tile gid="0"/>
  <tile gid="0"/>
  <tile gid="0"/>
  <tile gid="0"/>
  <tile gid="0"/>
  <tile gid="0"/>
  <tile gid="0"/>
  <tile gid="0"/>
  <tile gid="0"/>
  <tile gid="0"/>
  <tile gid="0"/>
  <tile gid="0"/>
  <tile gid="0"/>
  <tile gid="0"/>
  <tile gid="0"/>
  <tile gid="0"/>
  <tile gid="0"/>
  <tile gid="0"/>
  <tile gid="0"/>
  <tile gid="0"/>
  <tile gid="0"/>
  <tile gid="0"/>
  <tile gid="0"/>
  <tile gid="0"/>
  <tile gid="0"/>
  <tile gid="0"/>
  <tile gid="0"/>
  <tile gid="0"/>
  <tile gid="0"/>
  <tile gid="0"/>
  <tile gid="0"/>
  <tile gid="0"/>
  <tile gid="0"/>
  <tile gid="0"/>
  <tile gid="0"/>
  <tile gid="0"/>
  <tile gid="0"/>
  <tile gid="0"/>
  <tile gid="0"/>
  <tile gid="0"/>
  <tile gid="0"/>
  <tile gid="0"/>
  <tile gid="0"/>
  <tile gid="0"/>
  <tile gid="0"/>
  <tile gid="0"/>
  <tile gid="0"/>
  <tile gid="0"/>
  <tile gid="0"/>
  <tile gid="0"/>
  <tile gid="0"/>
  <tile gid="0"/>
  <tile gid="0"/>
  <tile gid="0"/>
  <tile gid="24"/>
  <tile gid="25"/>
  <tile gid="26"/>
  <tile gid="0"/>
  <tile gid="0"/>
  <tile gid="0"/>
  <tile gid="0"/>
  <tile gid="0"/>
  <tile gid="0"/>
  <tile gid="0"/>
  <tile gid="0"/>
  <tile gid="0"/>
  <tile gid="0"/>
  <tile gid="0"/>
  <tile gid="0"/>
  <tile gid="0"/>
  <tile gid="0"/>
  <tile gid="0"/>
  <tile gid="0"/>
  <tile gid="0"/>
  <tile gid="0"/>
  <tile gid="0"/>
  <tile gid="0"/>
  <tile gid="0"/>
  <tile gid="0"/>
  <tile gid="0"/>
  <tile gid="0"/>
  <tile gid="0"/>
  <tile gid="0"/>
  <tile gid="0"/>
  <tile gid="0"/>
  <tile gid="0"/>
  <tile gid="88"/>
  <tile gid="89"/>
  <tile gid="90"/>
  <tile gid="0"/>
  <tile gid="0"/>
  <tile gid="0"/>
  <tile gid="0"/>
  <tile gid="0"/>
  <tile gid="0"/>
  <tile gid="0"/>
  <tile gid="0"/>
  <tile gid="0"/>
  <tile gid="0"/>
  <tile gid="0"/>
  <tile gid="0"/>
  <tile gid="0"/>
  <tile gid="0"/>
  <tile gid="0"/>
  <tile gid="0"/>
  <tile gid="0"/>
  <tile gid="0"/>
  <tile gid="0"/>
  <tile gid="0"/>
  <tile gid="0"/>
  <tile gid="0"/>
  <tile gid="0"/>
  <tile gid="0"/>
  <tile gid="0"/>
  <tile gid="0"/>
  <tile gid="0"/>
  <tile gid="0"/>
  <tile gid="0"/>
  <tile gid="0"/>
  <tile gid="0"/>
  <tile gid="0"/>
  <tile gid="0"/>
  <tile gid="0"/>
  <tile gid="0"/>
  <tile gid="0"/>
  <tile gid="0"/>
  <tile gid="0"/>
  <tile gid="0"/>
  <tile gid="0"/>
  <tile gid="0"/>
  <tile gid="0"/>
  <tile gid="0"/>
  <tile gid="0"/>
  <tile gid="0"/>
  <tile gid="0"/>
  <tile gid="0"/>
  <tile gid="0"/>
  <tile gid="0"/>
  <tile gid="0"/>
  <tile gid="0"/>
  <tile gid="0"/>
  <tile gid="0"/>
  <tile gid="0"/>
  <tile gid="0"/>
  <tile gid="0"/>
  <tile gid="0"/>
  <tile gid="0"/>
  <tile gid="0"/>
  <tile gid="0"/>
  <tile gid="0"/>
  <tile gid="0"/>
  <tile gid="0"/>
  <tile gid="0"/>
  <tile gid="0"/>
  <tile gid="0"/>
  <tile gid="0"/>
  <tile gid="0"/>
  <tile gid="0"/>
  <tile gid="0"/>
  <tile gid="0"/>
  <tile gid="0"/>
  <tile gid="0"/>
  <tile gid="0"/>
  <tile gid="0"/>
  <tile gid="0"/>
  <tile gid="0"/>
  <tile gid="0"/>
  <tile gid="0"/>
  <tile gid="0"/>
  <tile gid="0"/>
  <tile gid="0"/>
  <tile gid="0"/>
  <tile gid="0"/>
  <tile gid="0"/>
  <tile gid="0"/>
  <tile gid="0"/>
  <tile gid="0"/>
  <tile gid="0"/>
  <tile gid="0"/>
  <tile gid="0"/>
  <tile gid="0"/>
  <tile gid="0"/>
  <tile gid="0"/>
  <tile gid="0"/>
  <tile gid="0"/>
  <tile gid="0"/>
  <tile gid="0"/>
  <tile gid="0"/>
  <tile gid="0"/>
  <tile gid="0"/>
  <tile gid="0"/>
  <tile gid="0"/>
  <tile gid="0"/>
  <tile gid="0"/>
  <tile gid="0"/>
  <tile gid="0"/>
  <tile gid="0"/>
  <tile gid="0"/>
  <tile gid="0"/>
  <tile gid="0"/>
  <tile gid="0"/>
  <tile gid="0"/>
  <tile gid="0"/>
  <tile gid="0"/>
  <tile gid="0"/>
  <tile gid="0"/>
  <tile gid="0"/>
  <tile gid="0"/>
  <tile gid="0"/>
  <tile gid="0"/>
  <tile gid="0"/>
  <tile gid="0"/>
  <tile gid="0"/>
  <tile gid="0"/>
  <tile gid="0"/>
  <tile gid="0"/>
  <tile gid="0"/>
  <tile gid="0"/>
  <tile gid="0"/>
  <tile gid="0"/>
  <tile gid="0"/>
  <tile gid="0"/>
  <tile gid="0"/>
  <tile gid="0"/>
  <tile gid="0"/>
  <tile gid="0"/>
  <tile gid="0"/>
  <tile gid="0"/>
  <tile gid="0"/>
  <tile gid="0"/>
  <tile gid="0"/>
  <tile gid="0"/>
  <tile gid="0"/>
  <tile gid="0"/>
  <tile gid="0"/>
  <tile gid="0"/>
  <tile gid="0"/>
  <tile gid="0"/>
  <tile gid="0"/>
  <tile gid="0"/>
  <tile gid="0"/>
  <tile gid="0"/>
  <tile gid="0"/>
  <tile gid="0"/>
  <tile gid="0"/>
  <tile gid="0"/>
  <tile gid="0"/>
  <tile gid="0"/>
  <tile gid="0"/>
  <tile gid="0"/>
  <tile gid="0"/>
  <tile gid="0"/>
  <tile gid="0"/>
  <tile gid="0"/>
  <tile gid="0"/>
  <tile gid="0"/>
  <tile gid="0"/>
  <tile gid="0"/>
  <tile gid="0"/>
  <tile gid="0"/>
  <tile gid="0"/>
  <tile gid="0"/>
  <tile gid="0"/>
  <tile gid="0"/>
  <tile gid="0"/>
  <tile gid="0"/>
  <tile gid="0"/>
  <tile gid="0"/>
  <tile gid="0"/>
  <tile gid="0"/>
  <tile gid="0"/>
  <tile gid="0"/>
  <tile gid="0"/>
  <tile gid="0"/>
  <tile gid="0"/>
  <tile gid="0"/>
  <tile gid="0"/>
  <tile gid="0"/>
  <tile gid="0"/>
  <tile gid="0"/>
  <tile gid="0"/>
  <tile gid="0"/>
  <tile gid="0"/>
  <tile gid="0"/>
  <tile gid="0"/>
  <tile gid="0"/>
  <tile gid="0"/>
  <tile gid="0"/>
  <tile gid="0"/>
  <tile gid="0"/>
  <tile gid="0"/>
  <tile gid="0"/>
  <tile gid="0"/>
  <tile gid="0"/>
  <tile gid="0"/>
  <tile gid="0"/>
  <tile gid="0"/>
  <tile gid="0"/>
  <tile gid="0"/>
  <tile gid="0"/>
  <tile gid="0"/>
  <tile gid="0"/>
  <tile gid="0"/>
  <tile gid="0"/>
  <tile gid="0"/>
  <tile gid="0"/>
  <tile gid="0"/>
  <tile gid="0"/>
  <tile gid="0"/>
  <tile gid="0"/>
  <tile gid="0"/>
  <tile gid="0"/>
  <tile gid="0"/>
  <tile gid="0"/>
  <tile gid="0"/>
  <tile gid="0"/>
  <tile gid="0"/>
  <tile gid="0"/>
  <tile gid="0"/>
  <tile gid="0"/>
  <tile gid="0"/>
  <tile gid="0"/>
  <tile gid="0"/>
  <tile gid="0"/>
  <tile gid="0"/>
  <tile gid="0"/>
  <tile gid="0"/>
  <tile gid="0"/>
  <tile gid="0"/>
  <tile gid="0"/>
  <tile gid="0"/>
  <tile gid="0"/>
  <tile gid="0"/>
  <tile gid="0"/>
  <tile gid="0"/>
  <tile gid="0"/>
  <tile gid="0"/>
  <tile gid="0"/>
  <tile gid="0"/>
  <tile gid="0"/>
  <tile gid="0"/>
  <tile gid="0"/>
  <tile gid="0"/>
  <tile gid="0"/>
  <tile gid="0"/>
  <tile gid="0"/>
  <tile gid="0"/>
  <tile gid="0"/>
  <tile gid="0"/>
  <tile gid="0"/>
  <tile gid="0"/>
  <tile gid="0"/>
  <tile gid="0"/>
  <tile gid="0"/>
  <tile gid="0"/>
  <tile gid="0"/>
  <tile gid="0"/>
  <tile gid="0"/>
  <tile gid="0"/>
  <tile gid="0"/>
  <tile gid="0"/>
  <tile gid="0"/>
  <tile gid="0"/>
  <tile gid="0"/>
  <tile gid="0"/>
  <tile gid="0"/>
  <tile gid="0"/>
  <tile gid="0"/>
  <tile gid="0"/>
  <tile gid="0"/>
  <tile gid="0"/>
  <tile gid="0"/>
  <tile gid="0"/>
  <tile gid="0"/>
  <tile gid="0"/>
  <tile gid="0"/>
  <tile gid="0"/>
  <tile gid="0"/>
  <tile gid="0"/>
  <tile gid="0"/>
  <tile gid="0"/>
  <tile gid="0"/>
  <tile gid="0"/>
  <tile gid="0"/>
  <tile gid="0"/>
  <tile gid="0"/>
  <tile gid="0"/>
  <tile gid="0"/>
  <tile gid="0"/>
  <tile gid="0"/>
  <tile gid="0"/>
  <tile gid="0"/>
  <tile gid="0"/>
  <tile gid="0"/>
  <tile gid="0"/>
  <tile gid="0"/>
  <tile gid="0"/>
  <tile gid="0"/>
  <tile gid="0"/>
  <tile gid="0"/>
  <tile gid="0"/>
  <tile gid="0"/>
  <tile gid="0"/>
  <tile gid="0"/>
  <tile gid="0"/>
  <tile gid="0"/>
  <tile gid="0"/>
  <tile gid="0"/>
  <tile gid="0"/>
  <tile gid="0"/>
  <tile gid="0"/>
  <tile gid="0"/>
  <tile gid="0"/>
  <tile gid="0"/>
  <tile gid="0"/>
  <tile gid="0"/>
  <tile gid="0"/>
  <tile gid="0"/>
  <tile gid="0"/>
  <tile gid="0"/>
  <tile gid="0"/>
  <tile gid="0"/>
  <tile gid="0"/>
  <tile gid="0"/>
  <tile gid="0"/>
  <tile gid="0"/>
  <tile gid="0"/>
  <tile gid="0"/>
  <tile gid="0"/>
  <tile gid="0"/>
  <tile gid="0"/>
  <tile gid="0"/>
  <tile gid="0"/>
  <tile gid="0"/>
  <tile gid="0"/>
  <tile gid="0"/>
  <tile gid="0"/>
  <tile gid="0"/>
  <tile gid="0"/>
  <tile gid="0"/>
  <tile gid="0"/>
  <tile gid="0"/>
  <tile gid="0"/>
  <tile gid="0"/>
  <tile gid="0"/>
  <tile gid="0"/>
  <tile gid="0"/>
  <tile gid="0"/>
  <tile gid="0"/>
  <tile gid="0"/>
  <tile gid="0"/>
  <tile gid="0"/>
  <tile gid="0"/>
  <tile gid="0"/>
  <tile gid="0"/>
  <tile gid="0"/>
  <tile gid="0"/>
  <tile gid="0"/>
  <tile gid="0"/>
  <tile gid="0"/>
  <tile gid="0"/>
  <tile gid="0"/>
  <tile gid="0"/>
  <tile gid="0"/>
  <tile gid="0"/>
  <tile gid="0"/>
  <tile gid="0"/>
  <tile gid="0"/>
  <tile gid="0"/>
  <tile gid="0"/>
  <tile gid="0"/>
  <tile gid="0"/>
  <tile gid="0"/>
  <tile gid="0"/>
  <tile gid="0"/>
  <tile gid="0"/>
  <tile gid="0"/>
  <tile gid="0"/>
  <tile gid="0"/>
  <tile gid="0"/>
  <tile gid="0"/>
  <tile gid="0"/>
  <tile gid="0"/>
  <tile gid="0"/>
  <tile gid="0"/>
  <tile gid="0"/>
  <tile gid="0"/>
  <tile gid="0"/>
  <tile gid="0"/>
  <tile gid="0"/>
  <tile gid="0"/>
  <tile gid="0"/>
  <tile gid="0"/>
  <tile gid="0"/>
  <tile gid="0"/>
  <tile gid="0"/>
  <tile gid="0"/>
  <tile gid="0"/>
  <tile gid="0"/>
  <tile gid="0"/>
  <tile gid="0"/>
  <tile gid="0"/>
  <tile gid="0"/>
  <tile gid="0"/>
  <tile gid="0"/>
  <tile gid="0"/>
  <tile gid="0"/>
  <tile gid="0"/>
  <tile gid="0"/>
  <tile gid="0"/>
  <tile gid="0"/>
  <tile gid="0"/>
  <tile gid="0"/>
  <tile gid="0"/>
  <tile gid="0"/>
  <tile gid="0"/>
  <tile gid="0"/>
  <tile gid="0"/>
  <tile gid="0"/>
  <tile gid="0"/>
  <tile gid="0"/>
  <tile gid="0"/>
  <tile gid="0"/>
  <tile gid="0"/>
  <tile gid="0"/>
  <tile gid="0"/>
  <tile gid="0"/>
  <tile gid="0"/>
  <tile gid="0"/>
  <tile gid="0"/>
  <tile gid="0"/>
  <tile gid="0"/>
  <tile gid="0"/>
  <tile gid="0"/>
  <tile gid="0"/>
  <tile gid="0"/>
  <tile gid="0"/>
  <tile gid="0"/>
  <tile gid="0"/>
  <tile gid="0"/>
  <tile gid="0"/>
  <tile gid="0"/>
  <tile gid="0"/>
  <tile gid="0"/>
  <tile gid="0"/>
  <tile gid="0"/>
  <tile gid="0"/>
  <tile gid="0"/>
  <tile gid="0"/>
  <tile gid="0"/>
  <tile gid="0"/>
  <tile gid="0"/>
  <tile gid="0"/>
  <tile gid="0"/>
  <tile gid="0"/>
  <tile gid="0"/>
  <tile gid="0"/>
  <tile gid="0"/>
  <tile gid="0"/>
  <tile gid="0"/>
  <tile gid="0"/>
  <tile gid="0"/>
  <tile gid="0"/>
  <tile gid="0"/>
  <tile gid="0"/>
  <tile gid="0"/>
  <tile gid="0"/>
  <tile gid="0"/>
  <tile gid="0"/>
  <tile gid="0"/>
  <tile gid="0"/>
  <tile gid="0"/>
  <tile gid="0"/>
  <tile gid="0"/>
  <tile gid="0"/>
  <tile gid="0"/>
  <tile gid="0"/>
  <tile gid="0"/>
  <tile gid="0"/>
  <tile gid="0"/>
  <tile gid="0"/>
  <tile gid="0"/>
  <tile gid="0"/>
  <tile gid="0"/>
  <tile gid="0"/>
  <tile gid="0"/>
  <tile gid="0"/>
  <tile gid="0"/>
  <tile gid="0"/>
  <tile gid="0"/>
  <tile gid="0"/>
  <tile gid="0"/>
  <tile gid="0"/>
  <tile gid="0"/>
  <tile gid="0"/>
  <tile gid="0"/>
  <tile gid="0"/>
  <tile gid="0"/>
  <tile gid="0"/>
  <tile gid="0"/>
  <tile gid="0"/>
  <tile gid="0"/>
  <tile gid="0"/>
  <tile gid="0"/>
  <tile gid="0"/>
  <tile gid="0"/>
  <tile gid="0"/>
  <tile gid="0"/>
  <tile gid="0"/>
  <tile gid="0"/>
  <tile gid="0"/>
  <tile gid="0"/>
  <tile gid="0"/>
  <tile gid="0"/>
  <tile gid="0"/>
  <tile gid="0"/>
  <tile gid="0"/>
  <tile gid="0"/>
  <tile gid="0"/>
  <tile gid="0"/>
  <tile gid="0"/>
  <tile gid="0"/>
  <tile gid="0"/>
  <tile gid="0"/>
  <tile gid="0"/>
  <tile gid="0"/>
  <tile gid="0"/>
  <tile gid="0"/>
  <tile gid="0"/>
  <tile gid="0"/>
  <tile gid="0"/>
  <tile gid="0"/>
  <tile gid="0"/>
  <tile gid="0"/>
  <tile gid="0"/>
  <tile gid="0"/>
  <tile gid="0"/>
  <tile gid="0"/>
  <tile gid="0"/>
  <tile gid="0"/>
  <tile gid="0"/>
  <tile gid="0"/>
  <tile gid="0"/>
  <tile gid="0"/>
  <tile gid="0"/>
  <tile gid="0"/>
  <tile gid="0"/>
  <tile gid="0"/>
  <tile gid="0"/>
  <tile gid="0"/>
  <tile gid="0"/>
  <tile gid="0"/>
  <tile gid="0"/>
  <tile gid="0"/>
  <tile gid="0"/>
  <tile gid="0"/>
  <tile gid="0"/>
  <tile gid="0"/>
  <tile gid="0"/>
  <tile gid="0"/>
  <tile gid="0"/>
  <tile gid="0"/>
  <tile gid="0"/>
  <tile gid="0"/>
  <tile gid="0"/>
  <tile gid="0"/>
  <tile gid="0"/>
  <tile gid="0"/>
  <tile gid="0"/>
  <tile gid="0"/>
  <tile gid="0"/>
  <tile gid="0"/>
  <tile gid="0"/>
  <tile gid="0"/>
  <tile gid="0"/>
  <tile gid="0"/>
  <tile gid="0"/>
  <tile gid="0"/>
  <tile gid="0"/>
  <tile gid="0"/>
  <tile gid="0"/>
  <tile gid="0"/>
  <tile gid="0"/>
  <tile gid="0"/>
  <tile gid="0"/>
  <tile gid="0"/>
  <tile gid="0"/>
  <tile gid="0"/>
  <tile gid="0"/>
  <tile gid="0"/>
  <tile gid="0"/>
  <tile gid="0"/>
  <tile gid="0"/>
  <tile gid="0"/>
  <tile gid="0"/>
  <tile gid="0"/>
  <tile gid="0"/>
  <tile gid="0"/>
  <tile gid="0"/>
  <tile gid="0"/>
  <tile gid="0"/>
  <tile gid="0"/>
  <tile gid="0"/>
  <tile gid="0"/>
  <tile gid="0"/>
  <tile gid="0"/>
  <tile gid="0"/>
  <tile gid="0"/>
  <tile gid="0"/>
  <tile gid="0"/>
  <tile gid="0"/>
  <tile gid="0"/>
  <tile gid="0"/>
  <tile gid="0"/>
  <tile gid="0"/>
  <tile gid="0"/>
  <tile gid="0"/>
  <tile gid="0"/>
  <tile gid="0"/>
  <tile gid="0"/>
  <tile gid="0"/>
  <tile gid="0"/>
  <tile gid="0"/>
  <tile gid="0"/>
  <tile gid="0"/>
  <tile gid="0"/>
  <tile gid="0"/>
  <tile gid="0"/>
  <tile gid="0"/>
  <tile gid="0"/>
  <tile gid="0"/>
  <tile gid="0"/>
  <tile gid="0"/>
  <tile gid="0"/>
  <tile gid="0"/>
  <tile gid="0"/>
  <tile gid="0"/>
  <tile gid="0"/>
  <tile gid="0"/>
  <tile gid="0"/>
  <tile gid="0"/>
  <tile gid="0"/>
  <tile gid="0"/>
  <tile gid="0"/>
  <tile gid="0"/>
  <tile gid="0"/>
  <tile gid="0"/>
  <tile gid="0"/>
  <tile gid="0"/>
  <tile gid="0"/>
  <tile gid="0"/>
  <tile gid="0"/>
  <tile gid="0"/>
  <tile gid="0"/>
  <tile gid="0"/>
  <tile gid="0"/>
  <tile gid="0"/>
  <tile gid="0"/>
  <tile gid="0"/>
  <tile gid="0"/>
  <tile gid="0"/>
  <tile gid="0"/>
  <tile gid="0"/>
  <tile gid="0"/>
  <tile gid="0"/>
  <tile gid="0"/>
  <tile gid="0"/>
  <tile gid="0"/>
  <tile gid="0"/>
  <tile gid="0"/>
  <tile gid="0"/>
  <tile gid="0"/>
  <tile gid="0"/>
  <tile gid="0"/>
  <tile gid="0"/>
  <tile gid="0"/>
  <tile gid="0"/>
  <tile gid="0"/>
  <tile gid="0"/>
  <tile gid="0"/>
  <tile gid="0"/>
  <tile gid="0"/>
  <tile gid="0"/>
  <tile gid="0"/>
  <tile gid="0"/>
  <tile gid="0"/>
  <tile gid="0"/>
  <tile gid="0"/>
  <tile gid="0"/>
  <tile gid="0"/>
  <tile gid="0"/>
  <tile gid="0"/>
  <tile gid="0"/>
  <tile gid="0"/>
  <tile gid="0"/>
  <tile gid="0"/>
  <tile gid="0"/>
  <tile gid="0"/>
  <tile gid="0"/>
  <tile gid="0"/>
  <tile gid="0"/>
  <tile gid="0"/>
  <tile gid="0"/>
  <tile gid="0"/>
  <tile gid="0"/>
  <tile gid="0"/>
  <tile gid="0"/>
  <tile gid="0"/>
  <tile gid="0"/>
  <tile gid="0"/>
  <tile gid="0"/>
  <tile gid="0"/>
  <tile gid="0"/>
  <tile gid="0"/>
  </data>
 </layer>
 <layer name="Map Change 1" width="32" height="32">
  <properties>
   <property name="ID" value ="1"/>
   <property name="Height" value ="2"/>
   <property name="Width" value ="3"/>
   <property name="X" value ="8"/>
   <property name="Y" value ="8"/>
  </properties>
  <data>
  <tile gid="0"/>
  <tile gid="0"/>
  <tile gid="0"/>
  <tile gid="0"/>
  <tile gid="0"/>
  <tile gid="0"/>
  <tile gid="0"/>
  <tile gid="0"/>
  <tile gid="0"/>
  <tile gid="0"/>
  <tile gid="0"/>
  <tile gid="0"/>
  <tile gid="0"/>
  <tile gid="0"/>
  <tile gid="0"/>
  <tile gid="0"/>
  <tile gid="0"/>
  <tile gid="0"/>
  <tile gid="0"/>
  <tile gid="0"/>
  <tile gid="0"/>
  <tile gid="0"/>
  <tile gid="0"/>
  <tile gid="0"/>
  <tile gid="0"/>
  <tile gid="0"/>
  <tile gid="0"/>
  <tile gid="0"/>
  <tile gid="0"/>
  <tile gid="0"/>
  <tile gid="0"/>
  <tile gid="0"/>
  <tile gid="0"/>
  <tile gid="0"/>
  <tile gid="0"/>
  <tile gid="0"/>
  <tile gid="0"/>
  <tile gid="0"/>
  <tile gid="0"/>
  <tile gid="0"/>
  <tile gid="0"/>
  <tile gid="0"/>
  <tile gid="0"/>
  <tile gid="0"/>
  <tile gid="0"/>
  <tile gid="0"/>
  <tile gid="0"/>
  <tile gid="0"/>
  <tile gid="0"/>
  <tile gid="0"/>
  <tile gid="0"/>
  <tile gid="0"/>
  <tile gid="0"/>
  <tile gid="0"/>
  <tile gid="0"/>
  <tile gid="0"/>
  <tile gid="0"/>
  <tile gid="0"/>
  <tile gid="0"/>
  <tile gid="0"/>
  <tile gid="0"/>
  <tile gid="0"/>
  <tile gid="0"/>
  <tile gid="0"/>
  <tile gid="0"/>
  <tile gid="0"/>
  <tile gid="0"/>
  <tile gid="0"/>
  <tile gid="0"/>
  <tile gid="0"/>
  <tile gid="0"/>
  <tile gid="0"/>
  <tile gid="0"/>
  <tile gid="0"/>
  <tile gid="0"/>
  <tile gid="0"/>
  <tile gid="0"/>
  <tile gid="0"/>
  <tile gid="0"/>
  <tile gid="0"/>
  <tile gid="0"/>
  <tile gid="0"/>
  <tile gid="0"/>
  <tile gid="0"/>
  <tile gid="0"/>
  <tile gid="0"/>
  <tile gid="0"/>
  <tile gid="0"/>
  <tile gid="0"/>
  <tile gid="0"/>
  <tile gid="0"/>
  <tile gid="0"/>
  <tile gid="0"/>
  <tile gid="0"/>
  <tile gid="0"/>
  <tile gid="0"/>
  <tile gid="0"/>
  <tile gid="0"/>
  <tile gid="0"/>
  <tile gid="0"/>
  <tile gid="0"/>
  <tile gid="0"/>
  <tile gid="0"/>
  <tile gid="0"/>
  <tile gid="0"/>
  <tile gid="0"/>
  <tile gid="0"/>
  <tile gid="0"/>
  <tile gid="0"/>
  <tile gid="0"/>
  <tile gid="0"/>
  <tile gid="0"/>
  <tile gid="0"/>
  <tile gid="0"/>
  <tile gid="0"/>
  <tile gid="0"/>
  <tile gid="0"/>
  <tile gid="0"/>
  <tile gid="0"/>
  <tile gid="0"/>
  <tile gid="0"/>
  <tile gid="0"/>
  <tile gid="0"/>
  <tile gid="0"/>
  <tile gid="0"/>
  <tile gid="0"/>
  <tile gid="0"/>
  <tile gid="0"/>
  <tile gid="0"/>
  <tile gid="0"/>
  <tile gid="0"/>
  <tile gid="0"/>
  <tile gid="0"/>
  <tile gid="0"/>
  <tile gid="0"/>
  <tile gid="0"/>
  <tile gid="0"/>
  <tile gid="0"/>
  <tile gid="0"/>
  <tile gid="0"/>
  <tile gid="0"/>
  <tile gid="0"/>
  <tile gid="0"/>
  <tile gid="0"/>
  <tile gid="0"/>
  <tile gid="0"/>
  <tile gid="0"/>
  <tile gid="0"/>
  <tile gid="0"/>
  <tile gid="0"/>
  <tile gid="0"/>
  <tile gid="0"/>
  <tile gid="0"/>
  <tile gid="0"/>
  <tile gid="0"/>
  <tile gid="0"/>
  <tile gid="0"/>
  <tile gid="0"/>
  <tile gid="0"/>
  <tile gid="0"/>
  <tile gid="0"/>
  <tile gid="0"/>
  <tile gid="0"/>
  <tile gid="0"/>
  <tile gid="0"/>
  <tile gid="0"/>
  <tile gid="0"/>
  <tile gid="0"/>
  <tile gid="0"/>
  <tile gid="0"/>
  <tile gid="0"/>
  <tile gid="0"/>
  <tile gid="0"/>
  <tile gid="0"/>
  <tile gid="0"/>
  <tile gid="0"/>
  <tile gid="0"/>
  <tile gid="0"/>
  <tile gid="0"/>
  <tile gid="0"/>
  <tile gid="0"/>
  <tile gid="0"/>
  <tile gid="0"/>
  <tile gid="0"/>
  <tile gid="0"/>
  <tile gid="0"/>
  <tile gid="0"/>
  <tile gid="0"/>
  <tile gid="0"/>
  <tile gid="0"/>
  <tile gid="0"/>
  <tile gid="0"/>
  <tile gid="0"/>
  <tile gid="0"/>
  <tile gid="0"/>
  <tile gid="0"/>
  <tile gid="0"/>
  <tile gid="0"/>
  <tile gid="0"/>
  <tile gid="0"/>
  <tile gid="0"/>
  <tile gid="0"/>
  <tile gid="0"/>
  <tile gid="0"/>
  <tile gid="0"/>
  <tile gid="0"/>
  <tile gid="0"/>
  <tile gid="0"/>
  <tile gid="0"/>
  <tile gid="0"/>
  <tile gid="0"/>
  <tile gid="0"/>
  <tile gid="0"/>
  <tile gid="0"/>
  <tile gid="0"/>
  <tile gid="0"/>
  <tile gid="0"/>
  <tile gid="0"/>
  <tile gid="0"/>
  <tile gid="0"/>
  <tile gid="0"/>
  <tile gid="0"/>
  <tile gid="0"/>
  <tile gid="0"/>
  <tile gid="0"/>
  <tile gid="0"/>
  <tile gid="0"/>
  <tile gid="0"/>
  <tile gid="0"/>
  <tile gid="0"/>
  <tile gid="0"/>
  <tile gid="0"/>
  <tile gid="0"/>
  <tile gid="0"/>
  <tile gid="0"/>
  <tile gid="0"/>
  <tile gid="0"/>
  <tile gid="0"/>
  <tile gid="0"/>
  <tile gid="0"/>
  <tile gid="0"/>
  <tile gid="0"/>
  <tile gid="0"/>
  <tile gid="0"/>
  <tile gid="0"/>
  <tile gid="0"/>
  <tile gid="0"/>
  <tile gid="0"/>
  <tile gid="0"/>
  <tile gid="0"/>
  <tile gid="0"/>
  <tile gid="0"/>
  <tile gid="0"/>
  <tile gid="0"/>
  <tile gid="0"/>
  <tile gid="0"/>
  <tile gid="0"/>
  <tile gid="0"/>
  <tile gid="0"/>
  <tile gid="0"/>
  <tile gid="0"/>
  <tile gid="0"/>
  <tile gid="0"/>
  <tile gid="0"/>
  <tile gid="1"/>
  <tile gid="1"/>
  <tile gid="1"/>
  <tile gid="0"/>
  <tile gid="0"/>
  <tile gid="0"/>
  <tile gid="0"/>
  <tile gid="0"/>
  <tile gid="0"/>
  <tile gid="0"/>
  <tile gid="0"/>
  <tile gid="0"/>
  <tile gid="0"/>
  <tile gid="0"/>
  <tile gid="0"/>
  <tile gid="0"/>
  <tile gid="0"/>
  <tile gid="0"/>
  <tile gid="0"/>
  <tile gid="0"/>
  <tile gid="0"/>
  <tile gid="0"/>
  <tile gid="0"/>
  <tile gid="0"/>
  <tile gid="0"/>
  <tile gid="0"/>
  <tile gid="0"/>
  <tile gid="0"/>
  <tile gid="0"/>
  <tile gid="0"/>
  <tile gid="0"/>
  <tile gid="0"/>
  <tile gid="1"/>
  <tile gid="434"/>
  <tile gid="1"/>
  <tile gid="0"/>
  <tile gid="0"/>
  <tile gid="0"/>
  <tile gid="0"/>
  <tile gid="0"/>
  <tile gid="0"/>
  <tile gid="0"/>
  <tile gid="0"/>
  <tile gid="0"/>
  <tile gid="0"/>
  <tile gid="0"/>
  <tile gid="0"/>
  <tile gid="0"/>
  <tile gid="0"/>
  <tile gid="0"/>
  <tile gid="0"/>
  <tile gid="0"/>
  <tile gid="0"/>
  <tile gid="0"/>
  <tile gid="0"/>
  <tile gid="0"/>
  <tile gid="0"/>
  <tile gid="0"/>
  <tile gid="0"/>
  <tile gid="0"/>
  <tile gid="0"/>
  <tile gid="0"/>
  <tile gid="0"/>
  <tile gid="0"/>
  <tile gid="0"/>
  <tile gid="0"/>
  <tile gid="0"/>
  <tile gid="0"/>
  <tile gid="0"/>
  <tile gid="0"/>
  <tile gid="0"/>
  <tile gid="0"/>
  <tile gid="0"/>
  <tile gid="0"/>
  <tile gid="0"/>
  <tile gid="0"/>
  <tile gid="0"/>
  <tile gid="0"/>
  <tile gid="0"/>
  <tile gid="0"/>
  <tile gid="0"/>
  <tile gid="0"/>
  <tile gid="0"/>
  <tile gid="0"/>
  <tile gid="0"/>
  <tile gid="0"/>
  <tile gid="0"/>
  <tile gid="0"/>
  <tile gid="0"/>
  <tile gid="0"/>
  <tile gid="0"/>
  <tile gid="0"/>
  <tile gid="0"/>
  <tile gid="0"/>
  <tile gid="0"/>
  <tile gid="0"/>
  <tile gid="0"/>
  <tile gid="0"/>
  <tile gid="0"/>
  <tile gid="0"/>
  <tile gid="0"/>
  <tile gid="0"/>
  <tile gid="0"/>
  <tile gid="0"/>
  <tile gid="0"/>
  <tile gid="0"/>
  <tile gid="0"/>
  <tile gid="0"/>
  <tile gid="0"/>
  <tile gid="0"/>
  <tile gid="0"/>
  <tile gid="0"/>
  <tile gid="0"/>
  <tile gid="0"/>
  <tile gid="0"/>
  <tile gid="0"/>
  <tile gid="0"/>
  <tile gid="0"/>
  <tile gid="0"/>
  <tile gid="0"/>
  <tile gid="0"/>
  <tile gid="0"/>
  <tile gid="0"/>
  <tile gid="0"/>
  <tile gid="0"/>
  <tile gid="0"/>
  <tile gid="0"/>
  <tile gid="0"/>
  <tile gid="0"/>
  <tile gid="0"/>
  <tile gid="0"/>
  <tile gid="0"/>
  <tile gid="0"/>
  <tile gid="0"/>
  <tile gid="0"/>
  <tile gid="0"/>
  <tile gid="0"/>
  <tile gid="0"/>
  <tile gid="0"/>
  <tile gid="0"/>
  <tile gid="0"/>
  <tile gid="0"/>
  <tile gid="0"/>
  <tile gid="0"/>
  <tile gid="0"/>
  <tile gid="0"/>
  <tile gid="0"/>
  <tile gid="0"/>
  <tile gid="0"/>
  <tile gid="0"/>
  <tile gid="0"/>
  <tile gid="0"/>
  <tile gid="0"/>
  <tile gid="0"/>
  <tile gid="0"/>
  <tile gid="0"/>
  <tile gid="0"/>
  <tile gid="0"/>
  <tile gid="0"/>
  <tile gid="0"/>
  <tile gid="0"/>
  <tile gid="0"/>
  <tile gid="0"/>
  <tile gid="0"/>
  <tile gid="0"/>
  <tile gid="0"/>
  <tile gid="0"/>
  <tile gid="0"/>
  <tile gid="0"/>
  <tile gid="0"/>
  <tile gid="0"/>
  <tile gid="0"/>
  <tile gid="0"/>
  <tile gid="0"/>
  <tile gid="0"/>
  <tile gid="0"/>
  <tile gid="0"/>
  <tile gid="0"/>
  <tile gid="0"/>
  <tile gid="0"/>
  <tile gid="0"/>
  <tile gid="0"/>
  <tile gid="0"/>
  <tile gid="0"/>
  <tile gid="0"/>
  <tile gid="0"/>
  <tile gid="0"/>
  <tile gid="0"/>
  <tile gid="0"/>
  <tile gid="0"/>
  <tile gid="0"/>
  <tile gid="0"/>
  <tile gid="0"/>
  <tile gid="0"/>
  <tile gid="0"/>
  <tile gid="0"/>
  <tile gid="0"/>
  <tile gid="0"/>
  <tile gid="0"/>
  <tile gid="0"/>
  <tile gid="0"/>
  <tile gid="0"/>
  <tile gid="0"/>
  <tile gid="0"/>
  <tile gid="0"/>
  <tile gid="0"/>
  <tile gid="0"/>
  <tile gid="0"/>
  <tile gid="0"/>
  <tile gid="0"/>
  <tile gid="0"/>
  <tile gid="0"/>
  <tile gid="0"/>
  <tile gid="0"/>
  <tile gid="0"/>
  <tile gid="0"/>
  <tile gid="0"/>
  <tile gid="0"/>
  <tile gid="0"/>
  <tile gid="0"/>
  <tile gid="0"/>
  <tile gid="0"/>
  <tile gid="0"/>
  <tile gid="0"/>
  <tile gid="0"/>
  <tile gid="0"/>
  <tile gid="0"/>
  <tile gid="0"/>
  <tile gid="0"/>
  <tile gid="0"/>
  <tile gid="0"/>
  <tile gid="0"/>
  <tile gid="0"/>
  <tile gid="0"/>
  <tile gid="0"/>
  <tile gid="0"/>
  <tile gid="0"/>
  <tile gid="0"/>
  <tile gid="0"/>
  <tile gid="0"/>
  <tile gid="0"/>
  <tile gid="0"/>
  <tile gid="0"/>
  <tile gid="0"/>
  <tile gid="0"/>
  <tile gid="0"/>
  <tile gid="0"/>
  <tile gid="0"/>
  <tile gid="0"/>
  <tile gid="0"/>
  <tile gid="0"/>
  <tile gid="0"/>
  <tile gid="0"/>
  <tile gid="0"/>
  <tile gid="0"/>
  <tile gid="0"/>
  <tile gid="0"/>
  <tile gid="0"/>
  <tile gid="0"/>
  <tile gid="0"/>
  <tile gid="0"/>
  <tile gid="0"/>
  <tile gid="0"/>
  <tile gid="0"/>
  <tile gid="0"/>
  <tile gid="0"/>
  <tile gid="0"/>
  <tile gid="0"/>
  <tile gid="0"/>
  <tile gid="0"/>
  <tile gid="0"/>
  <tile gid="0"/>
  <tile gid="0"/>
  <tile gid="0"/>
  <tile gid="0"/>
  <tile gid="0"/>
  <tile gid="0"/>
  <tile gid="0"/>
  <tile gid="0"/>
  <tile gid="0"/>
  <tile gid="0"/>
  <tile gid="0"/>
  <tile gid="0"/>
  <tile gid="0"/>
  <tile gid="0"/>
  <tile gid="0"/>
  <tile gid="0"/>
  <tile gid="0"/>
  <tile gid="0"/>
  <tile gid="0"/>
  <tile gid="0"/>
  <tile gid="0"/>
  <tile gid="0"/>
  <tile gid="0"/>
  <tile gid="0"/>
  <tile gid="0"/>
  <tile gid="0"/>
  <tile gid="0"/>
  <tile gid="0"/>
  <tile gid="0"/>
  <tile gid="0"/>
  <tile gid="0"/>
  <tile gid="0"/>
  <tile gid="0"/>
  <tile gid="0"/>
  <tile gid="0"/>
  <tile gid="0"/>
  <tile gid="0"/>
  <tile gid="0"/>
  <tile gid="0"/>
  <tile gid="0"/>
  <tile gid="0"/>
  <tile gid="0"/>
  <tile gid="0"/>
  <tile gid="0"/>
  <tile gid="0"/>
  <tile gid="0"/>
  <tile gid="0"/>
  <tile gid="0"/>
  <tile gid="0"/>
  <tile gid="0"/>
  <tile gid="0"/>
  <tile gid="0"/>
  <tile gid="0"/>
  <tile gid="0"/>
  <tile gid="0"/>
  <tile gid="0"/>
  <tile gid="0"/>
  <tile gid="0"/>
  <tile gid="0"/>
  <tile gid="0"/>
  <tile gid="0"/>
  <tile gid="0"/>
  <tile gid="0"/>
  <tile gid="0"/>
  <tile gid="0"/>
  <tile gid="0"/>
  <tile gid="0"/>
  <tile gid="0"/>
  <tile gid="0"/>
  <tile gid="0"/>
  <tile gid="0"/>
  <tile gid="0"/>
  <tile gid="0"/>
  <tile gid="0"/>
  <tile gid="0"/>
  <tile gid="0"/>
  <tile gid="0"/>
  <tile gid="0"/>
  <tile gid="0"/>
  <tile gid="0"/>
  <tile gid="0"/>
  <tile gid="0"/>
  <tile gid="0"/>
  <tile gid="0"/>
  <tile gid="0"/>
  <tile gid="0"/>
  <tile gid="0"/>
  <tile gid="0"/>
  <tile gid="0"/>
  <tile gid="0"/>
  <tile gid="0"/>
  <tile gid="0"/>
  <tile gid="0"/>
  <tile gid="0"/>
  <tile gid="0"/>
  <tile gid="0"/>
  <tile gid="0"/>
  <tile gid="0"/>
  <tile gid="0"/>
  <tile gid="0"/>
  <tile gid="0"/>
  <tile gid="0"/>
  <tile gid="0"/>
  <tile gid="0"/>
  <tile gid="0"/>
  <tile gid="0"/>
  <tile gid="0"/>
  <tile gid="0"/>
  <tile gid="0"/>
  <tile gid="0"/>
  <tile gid="0"/>
  <tile gid="0"/>
  <tile gid="0"/>
  <tile gid="0"/>
  <tile gid="0"/>
  <tile gid="0"/>
  <tile gid="0"/>
  <tile gid="0"/>
  <tile gid="0"/>
  <tile gid="0"/>
  <tile gid="0"/>
  <tile gid="0"/>
  <tile gid="0"/>
  <tile gid="0"/>
  <tile gid="0"/>
  <tile gid="0"/>
  <tile gid="0"/>
  <tile gid="0"/>
  <tile gid="0"/>
  <tile gid="0"/>
  <tile gid="0"/>
  <tile gid="0"/>
  <tile gid="0"/>
  <tile gid="0"/>
  <tile gid="0"/>
  <tile gid="0"/>
  <tile gid="0"/>
  <tile gid="0"/>
  <tile gid="0"/>
  <tile gid="0"/>
  <tile gid="0"/>
  <tile gid="0"/>
  <tile gid="0"/>
  <tile gid="0"/>
  <tile gid="0"/>
  <tile gid="0"/>
  <tile gid="0"/>
  <tile gid="0"/>
  <tile gid="0"/>
  <tile gid="0"/>
  <tile gid="0"/>
  <tile gid="0"/>
  <tile gid="0"/>
  <tile gid="0"/>
  <tile gid="0"/>
  <tile gid="0"/>
  <tile gid="0"/>
  <tile gid="0"/>
  <tile gid="0"/>
  <tile gid="0"/>
  <tile gid="0"/>
  <tile gid="0"/>
  <tile gid="0"/>
  <tile gid="0"/>
  <tile gid="0"/>
  <tile gid="0"/>
  <tile gid="0"/>
  <tile gid="0"/>
  <tile gid="0"/>
  <tile gid="0"/>
  <tile gid="0"/>
  <tile gid="0"/>
  <tile gid="0"/>
  <tile gid="0"/>
  <tile gid="0"/>
  <tile gid="0"/>
  <tile gid="0"/>
  <tile gid="0"/>
  <tile gid="0"/>
  <tile gid="0"/>
  <tile gid="0"/>
  <tile gid="0"/>
  <tile gid="0"/>
  <tile gid="0"/>
  <tile gid="0"/>
  <tile gid="0"/>
  <tile gid="0"/>
  <tile gid="0"/>
  <tile gid="0"/>
  <tile gid="0"/>
  <tile gid="0"/>
  <tile gid="0"/>
  <tile gid="0"/>
  <tile gid="0"/>
  <tile gid="0"/>
  <tile gid="0"/>
  <tile gid="0"/>
  <tile gid="0"/>
  <tile gid="0"/>
  <tile gid="0"/>
  <tile gid="0"/>
  <tile gid="0"/>
  <tile gid="0"/>
  <tile gid="0"/>
  <tile gid="0"/>
  <tile gid="0"/>
  <tile gid="0"/>
  <tile gid="0"/>
  <tile gid="0"/>
  <tile gid="0"/>
  <tile gid="0"/>
  <tile gid="0"/>
  <tile gid="0"/>
  <tile gid="0"/>
  <tile gid="0"/>
  <tile gid="0"/>
  <tile gid="0"/>
  <tile gid="0"/>
  <tile gid="0"/>
  <tile gid="0"/>
  <tile gid="0"/>
  <tile gid="0"/>
  <tile gid="0"/>
  <tile gid="0"/>
  <tile gid="0"/>
  <tile gid="0"/>
  <tile gid="0"/>
  <tile gid="0"/>
  <tile gid="0"/>
  <tile gid="0"/>
  <tile gid="0"/>
  <tile gid="0"/>
  <tile gid="0"/>
  <tile gid="0"/>
  <tile gid="0"/>
  <tile gid="0"/>
  <tile gid="0"/>
  <tile gid="0"/>
  <tile gid="0"/>
  <tile gid="0"/>
  <tile gid="0"/>
  <tile gid="0"/>
  <tile gid="0"/>
  <tile gid="0"/>
  <tile gid="0"/>
  <tile gid="0"/>
  <tile gid="0"/>
  <tile gid="0"/>
  <tile gid="0"/>
  <tile gid="0"/>
  <tile gid="0"/>
  <tile gid="0"/>
  <tile gid="0"/>
  <tile gid="0"/>
  <tile gid="0"/>
  <tile gid="0"/>
  <tile gid="0"/>
  <tile gid="0"/>
  <tile gid="0"/>
  <tile gid="0"/>
  <tile gid="0"/>
  <tile gid="0"/>
  <tile gid="0"/>
  <tile gid="0"/>
  <tile gid="0"/>
  <tile gid="0"/>
  <tile gid="0"/>
  <tile gid="0"/>
  <tile gid="0"/>
  <tile gid="0"/>
  <tile gid="0"/>
  <tile gid="0"/>
  <tile gid="0"/>
  <tile gid="0"/>
  <tile gid="0"/>
  <tile gid="0"/>
  <tile gid="0"/>
  <tile gid="0"/>
  <tile gid="0"/>
  <tile gid="0"/>
  <tile gid="0"/>
  <tile gid="0"/>
  <tile gid="0"/>
  <tile gid="0"/>
  <tile gid="0"/>
  <tile gid="0"/>
  <tile gid="0"/>
  <tile gid="0"/>
  <tile gid="0"/>
  <tile gid="0"/>
  <tile gid="0"/>
  <tile gid="0"/>
  <tile gid="0"/>
  <tile gid="0"/>
  <tile gid="0"/>
  <tile gid="0"/>
  <tile gid="0"/>
  <tile gid="0"/>
  <tile gid="0"/>
  <tile gid="0"/>
  <tile gid="0"/>
  <tile gid="0"/>
  <tile gid="0"/>
  <tile gid="0"/>
  <tile gid="0"/>
  <tile gid="0"/>
  <tile gid="0"/>
  <tile gid="0"/>
  <tile gid="0"/>
  <tile gid="0"/>
  <tile gid="0"/>
  <tile gid="0"/>
  <tile gid="0"/>
  <tile gid="0"/>
  <tile gid="0"/>
  <tile gid="0"/>
  <tile gid="0"/>
  <tile gid="0"/>
  <tile gid="0"/>
  <tile gid="0"/>
  <tile gid="0"/>
  <tile gid="0"/>
  <tile gid="0"/>
  <tile gid="0"/>
  <tile gid="0"/>
  <tile gid="0"/>
  <tile gid="0"/>
  <tile gid="0"/>
  <tile gid="0"/>
  <tile gid="0"/>
  <tile gid="0"/>
  <tile gid="0"/>
  <tile gid="0"/>
  <tile gid="0"/>
  <tile gid="0"/>
  <tile gid="0"/>
  <tile gid="0"/>
  <tile gid="0"/>
  <tile gid="0"/>
  <tile gid="0"/>
  <tile gid="0"/>
  <tile gid="0"/>
  <tile gid="0"/>
  <tile gid="0"/>
  <tile gid="0"/>
  <tile gid="0"/>
  <tile gid="0"/>
  <tile gid="0"/>
  <tile gid="0"/>
  <tile gid="0"/>
  <tile gid="0"/>
  <tile gid="0"/>
  <tile gid="0"/>
  <tile gid="0"/>
  <tile gid="0"/>
  <tile gid="0"/>
  <tile gid="0"/>
  <tile gid="0"/>
  <tile gid="0"/>
  <tile gid="0"/>
  <tile gid="0"/>
  <tile gid="0"/>
  <tile gid="0"/>
  <tile gid="0"/>
  <tile gid="0"/>
  <tile gid="0"/>
  <tile gid="0"/>
  <tile gid="0"/>
  <tile gid="0"/>
  <tile gid="0"/>
  <tile gid="0"/>
  <tile gid="0"/>
  <tile gid="0"/>
  <tile gid="0"/>
  <tile gid="0"/>
  <tile gid="0"/>
  <tile gid="0"/>
  <tile gid="0"/>
  <tile gid="0"/>
  <tile gid="0"/>
  <tile gid="0"/>
  <tile gid="0"/>
  <tile gid="0"/>
  <tile gid="0"/>
  <tile gid="0"/>
  <tile gid="0"/>
  <tile gid="0"/>
  <tile gid="0"/>
  <tile gid="0"/>
  <tile gid="0"/>
  <tile gid="0"/>
  <tile gid="0"/>
  <tile gid="0"/>
  <tile gid="0"/>
  <tile gid="0"/>
  <tile gid="0"/>
  <tile gid="0"/>
  <tile gid="0"/>
  <tile gid="0"/>
  <tile gid="0"/>
  <tile gid="0"/>
  <tile gid="0"/>
  <tile gid="0"/>
  <tile gid="0"/>
  <tile gid="0"/>
  <tile gid="0"/>
  <tile gid="0"/>
  <tile gid="0"/>
  <tile gid="0"/>
  <tile gid="0"/>
  <tile gid="0"/>
  <tile gid="0"/>
  <tile gid="0"/>
  <tile gid="0"/>
  <tile gid="0"/>
  <tile gid="0"/>
  <tile gid="0"/>
  <tile gid="0"/>
  <tile gid="0"/>
  <tile gid="0"/>
  <tile gid="0"/>
  <tile gid="0"/>
  <tile gid="0"/>
  <tile gid="0"/>
  <tile gid="0"/>
  <tile gid="0"/>
  <tile gid="0"/>
  <tile gid="0"/>
  <tile gid="0"/>
  <tile gid="0"/>
  <tile gid="0"/>
  <tile gid="0"/>
  <tile gid="0"/>
  <tile gid="0"/>
  <tile gid="0"/>
  <tile gid="0"/>
  <tile gid="0"/>
  <tile gid="0"/>
  <tile gid="0"/>
  <tile gid="0"/>
  <tile gid="0"/>
  <tile gid="0"/>
  <tile gid="0"/>
  <tile gid="0"/>
  <tile gid="0"/>
  <tile gid="0"/>
  <tile gid="0"/>
  <tile gid="0"/>
  <tile gid="0"/>
  <tile gid="0"/>
  <tile gid="0"/>
  <tile gid="0"/>
  <tile gid="0"/>
  <tile gid="0"/>
  <tile gid="0"/>
  <tile gid="0"/>
  <tile gid="0"/>
  <tile gid="0"/>
  <tile gid="0"/>
  <tile gid="0"/>
  <tile gid="0"/>
  <tile gid="0"/>
  <tile gid="0"/>
  <tile gid="0"/>
  <tile gid="0"/>
  <tile gid="0"/>
  <tile gid="0"/>
  <tile gid="0"/>
  <tile gid="0"/>
  <tile gid="0"/>
  <tile gid="0"/>
  <tile gid="0"/>
  <tile gid="0"/>
  <tile gid="0"/>
  <tile gid="0"/>
  <tile gid="0"/>
  <tile gid="0"/>
  <tile gid="0"/>
  <tile gid="0"/>
  <tile gid="0"/>
  <tile gid="0"/>
  <tile gid="0"/>
  <tile gid="0"/>
  <tile gid="0"/>
  <tile gid="0"/>
  <tile gid="0"/>
  <tile gid="0"/>
  <tile gid="0"/>
  <tile gid="0"/>
  </data>
 </layer>
 <layer name="Map Change 2" width="32" height="32">
  <properties>
   <property name="ID" value ="2"/>
   <property name="Height" value ="2"/>
   <property name="Width" value ="3"/>
   <property name="X" value ="11"/>
   <property name="Y" value ="8"/>
  </properties>
  <data>
  <tile gid="0"/>
  <tile gid="0"/>
  <tile gid="0"/>
  <tile gid="0"/>
  <tile gid="0"/>
  <tile gid="0"/>
  <tile gid="0"/>
  <tile gid="0"/>
  <tile gid="0"/>
  <tile gid="0"/>
  <tile gid="0"/>
  <tile gid="0"/>
  <tile gid="0"/>
  <tile gid="0"/>
  <tile gid="0"/>
  <tile gid="0"/>
  <tile gid="0"/>
  <tile gid="0"/>
  <tile gid="0"/>
  <tile gid="0"/>
  <tile gid="0"/>
  <tile gid="0"/>
  <tile gid="0"/>
  <tile gid="0"/>
  <tile gid="0"/>
  <tile gid="0"/>
  <tile gid="0"/>
  <tile gid="0"/>
  <tile gid="0"/>
  <tile gid="0"/>
  <tile gid="0"/>
  <tile gid="0"/>
  <tile gid="0"/>
  <tile gid="0"/>
  <tile gid="0"/>
  <tile gid="0"/>
  <tile gid="0"/>
  <tile gid="0"/>
  <tile gid="0"/>
  <tile gid="0"/>
  <tile gid="0"/>
  <tile gid="0"/>
  <tile gid="0"/>
  <tile gid="0"/>
  <tile gid="0"/>
  <tile gid="0"/>
  <tile gid="0"/>
  <tile gid="0"/>
  <tile gid="0"/>
  <tile gid="0"/>
  <tile gid="0"/>
  <tile gid="0"/>
  <tile gid="0"/>
  <tile gid="0"/>
  <tile gid="0"/>
  <tile gid="0"/>
  <tile gid="0"/>
  <tile gid="0"/>
  <tile gid="0"/>
  <tile gid="0"/>
  <tile gid="0"/>
  <tile gid="0"/>
  <tile gid="0"/>
  <tile gid="0"/>
  <tile gid="0"/>
  <tile gid="0"/>
  <tile gid="0"/>
  <tile gid="0"/>
  <tile gid="0"/>
  <tile gid="0"/>
  <tile gid="0"/>
  <tile gid="0"/>
  <tile gid="0"/>
  <tile gid="0"/>
  <tile gid="0"/>
  <tile gid="0"/>
  <tile gid="0"/>
  <tile gid="0"/>
  <tile gid="0"/>
  <tile gid="0"/>
  <tile gid="0"/>
  <tile gid="0"/>
  <tile gid="0"/>
  <tile gid="0"/>
  <tile gid="0"/>
  <tile gid="0"/>
  <tile gid="0"/>
  <tile gid="0"/>
  <tile gid="0"/>
  <tile gid="0"/>
  <tile gid="0"/>
  <tile gid="0"/>
  <tile gid="0"/>
  <tile gid="0"/>
  <tile gid="0"/>
  <tile gid="0"/>
  <tile gid="0"/>
  <tile gid="0"/>
  <tile gid="0"/>
  <tile gid="0"/>
  <tile gid="0"/>
  <tile gid="0"/>
  <tile gid="0"/>
  <tile gid="0"/>
  <tile gid="0"/>
  <tile gid="0"/>
  <tile gid="0"/>
  <tile gid="0"/>
  <tile gid="0"/>
  <tile gid="0"/>
  <tile gid="0"/>
  <tile gid="0"/>
  <tile gid="0"/>
  <tile gid="0"/>
  <tile gid="0"/>
  <tile gid="0"/>
  <tile gid="0"/>
  <tile gid="0"/>
  <tile gid="0"/>
  <tile gid="0"/>
  <tile gid="0"/>
  <tile gid="0"/>
  <tile gid="0"/>
  <tile gid="0"/>
  <tile gid="0"/>
  <tile gid="0"/>
  <tile gid="0"/>
  <tile gid="0"/>
  <tile gid="0"/>
  <tile gid="0"/>
  <tile gid="0"/>
  <tile gid="0"/>
  <tile gid="0"/>
  <tile gid="0"/>
  <tile gid="0"/>
  <tile gid="0"/>
  <tile gid="0"/>
  <tile gid="0"/>
  <tile gid="0"/>
  <tile gid="0"/>
  <tile gid="0"/>
  <tile gid="0"/>
  <tile gid="0"/>
  <tile gid="0"/>
  <tile gid="0"/>
  <tile gid="0"/>
  <tile gid="0"/>
  <tile gid="0"/>
  <tile gid="0"/>
  <tile gid="0"/>
  <tile gid="0"/>
  <tile gid="0"/>
  <tile gid="0"/>
  <tile gid="0"/>
  <tile gid="0"/>
  <tile gid="0"/>
  <tile gid="0"/>
  <tile gid="0"/>
  <tile gid="0"/>
  <tile gid="0"/>
  <tile gid="0"/>
  <tile gid="0"/>
  <tile gid="0"/>
  <tile gid="0"/>
  <tile gid="0"/>
  <tile gid="0"/>
  <tile gid="0"/>
  <tile gid="0"/>
  <tile gid="0"/>
  <tile gid="0"/>
  <tile gid="0"/>
  <tile gid="0"/>
  <tile gid="0"/>
  <tile gid="0"/>
  <tile gid="0"/>
  <tile gid="0"/>
  <tile gid="0"/>
  <tile gid="0"/>
  <tile gid="0"/>
  <tile gid="0"/>
  <tile gid="0"/>
  <tile gid="0"/>
  <tile gid="0"/>
  <tile gid="0"/>
  <tile gid="0"/>
  <tile gid="0"/>
  <tile gid="0"/>
  <tile gid="0"/>
  <tile gid="0"/>
  <tile gid="0"/>
  <tile gid="0"/>
  <tile gid="0"/>
  <tile gid="0"/>
  <tile gid="0"/>
  <tile gid="0"/>
  <tile gid="0"/>
  <tile gid="0"/>
  <tile gid="0"/>
  <tile gid="0"/>
  <tile gid="0"/>
  <tile gid="0"/>
  <tile gid="0"/>
  <tile gid="0"/>
  <tile gid="0"/>
  <tile gid="0"/>
  <tile gid="0"/>
  <tile gid="0"/>
  <tile gid="0"/>
  <tile gid="0"/>
  <tile gid="0"/>
  <tile gid="0"/>
  <tile gid="0"/>
  <tile gid="0"/>
  <tile gid="0"/>
  <tile gid="0"/>
  <tile gid="0"/>
  <tile gid="0"/>
  <tile gid="0"/>
  <tile gid="0"/>
  <tile gid="0"/>
  <tile gid="0"/>
  <tile gid="0"/>
  <tile gid="0"/>
  <tile gid="0"/>
  <tile gid="0"/>
  <tile gid="0"/>
  <tile gid="0"/>
  <tile gid="0"/>
  <tile gid="0"/>
  <tile gid="0"/>
  <tile gid="0"/>
  <tile gid="0"/>
  <tile gid="0"/>
  <tile gid="0"/>
  <tile gid="0"/>
  <tile gid="0"/>
  <tile gid="0"/>
  <tile gid="0"/>
  <tile gid="0"/>
  <tile gid="0"/>
  <tile gid="0"/>
  <tile gid="0"/>
  <tile gid="0"/>
  <tile gid="0"/>
  <tile gid="0"/>
  <tile gid="0"/>
  <tile gid="0"/>
  <tile gid="0"/>
  <tile gid="0"/>
  <tile gid="0"/>
  <tile gid="0"/>
  <tile gid="0"/>
  <tile gid="0"/>
  <tile gid="0"/>
  <tile gid="0"/>
  <tile gid="0"/>
  <tile gid="0"/>
  <tile gid="0"/>
  <tile gid="0"/>
  <tile gid="0"/>
  <tile gid="0"/>
  <tile gid="0"/>
  <tile gid="0"/>
  <tile gid="0"/>
  <tile gid="0"/>
  <tile gid="0"/>
  <tile gid="0"/>
  <tile gid="24"/>
  <tile gid="25"/>
  <tile gid="26"/>
  <tile gid="0"/>
  <tile gid="0"/>
  <tile gid="0"/>
  <tile gid="0"/>
  <tile gid="0"/>
  <tile gid="0"/>
  <tile gid="0"/>
  <tile gid="0"/>
  <tile gid="0"/>
  <tile gid="0"/>
  <tile gid="0"/>
  <tile gid="0"/>
  <tile gid="0"/>
  <tile gid="0"/>
  <tile gid="0"/>
  <tile gid="0"/>
  <tile gid="0"/>
  <tile gid="0"/>
  <tile gid="0"/>
  <tile gid="0"/>
  <tile gid="0"/>
  <tile gid="0"/>
  <tile gid="0"/>
  <tile gid="0"/>
  <tile gid="0"/>
  <tile gid="0"/>
  <tile gid="0"/>
  <tile gid="0"/>
  <tile gid="0"/>
  <tile gid="88"/>
  <tile gid="89"/>
  <tile gid="90"/>
  <tile gid="0"/>
  <tile gid="0"/>
  <tile gid="0"/>
  <tile gid="0"/>
  <tile gid="0"/>
  <tile gid="0"/>
  <tile gid="0"/>
  <tile gid="0"/>
  <tile gid="0"/>
  <tile gid="0"/>
  <tile gid="0"/>
  <tile gid="0"/>
  <tile gid="0"/>
  <tile gid="0"/>
  <tile gid="0"/>
  <tile gid="0"/>
  <tile gid="0"/>
  <tile gid="0"/>
  <tile gid="0"/>
  <tile gid="0"/>
  <tile gid="0"/>
  <tile gid="0"/>
  <tile gid="0"/>
  <tile gid="0"/>
  <tile gid="0"/>
  <tile gid="0"/>
  <tile gid="0"/>
  <tile gid="0"/>
  <tile gid="0"/>
  <tile gid="0"/>
  <tile gid="0"/>
  <tile gid="0"/>
  <tile gid="0"/>
  <tile gid="0"/>
  <tile gid="0"/>
  <tile gid="0"/>
  <tile gid="0"/>
  <tile gid="0"/>
  <tile gid="0"/>
  <tile gid="0"/>
  <tile gid="0"/>
  <tile gid="0"/>
  <tile gid="0"/>
  <tile gid="0"/>
  <tile gid="0"/>
  <tile gid="0"/>
  <tile gid="0"/>
  <tile gid="0"/>
  <tile gid="0"/>
  <tile gid="0"/>
  <tile gid="0"/>
  <tile gid="0"/>
  <tile gid="0"/>
  <tile gid="0"/>
  <tile gid="0"/>
  <tile gid="0"/>
  <tile gid="0"/>
  <tile gid="0"/>
  <tile gid="0"/>
  <tile gid="0"/>
  <tile gid="0"/>
  <tile gid="0"/>
  <tile gid="0"/>
  <tile gid="0"/>
  <tile gid="0"/>
  <tile gid="0"/>
  <tile gid="0"/>
  <tile gid="0"/>
  <tile gid="0"/>
  <tile gid="0"/>
  <tile gid="0"/>
  <tile gid="0"/>
  <tile gid="0"/>
  <tile gid="0"/>
  <tile gid="0"/>
  <tile gid="0"/>
  <tile gid="0"/>
  <tile gid="0"/>
  <tile gid="0"/>
  <tile gid="0"/>
  <tile gid="0"/>
  <tile gid="0"/>
  <tile gid="0"/>
  <tile gid="0"/>
  <tile gid="0"/>
  <tile gid="0"/>
  <tile gid="0"/>
  <tile gid="0"/>
  <tile gid="0"/>
  <tile gid="0"/>
  <tile gid="0"/>
  <tile gid="0"/>
  <tile gid="0"/>
  <tile gid="0"/>
  <tile gid="0"/>
  <tile gid="0"/>
  <tile gid="0"/>
  <tile gid="0"/>
  <tile gid="0"/>
  <tile gid="0"/>
  <tile gid="0"/>
  <tile gid="0"/>
  <tile gid="0"/>
  <tile gid="0"/>
  <tile gid="0"/>
  <tile gid="0"/>
  <tile gid="0"/>
  <tile gid="0"/>
  <tile gid="0"/>
  <tile gid="0"/>
  <tile gid="0"/>
  <tile gid="0"/>
  <tile gid="0"/>
  <tile gid="0"/>
  <tile gid="0"/>
  <tile gid="0"/>
  <tile gid="0"/>
  <tile gid="0"/>
  <tile gid="0"/>
  <tile gid="0"/>
  <tile gid="0"/>
  <tile gid="0"/>
  <tile gid="0"/>
  <tile gid="0"/>
  <tile gid="0"/>
  <tile gid="0"/>
  <tile gid="0"/>
  <tile gid="0"/>
  <tile gid="0"/>
  <tile gid="0"/>
  <tile gid="0"/>
  <tile gid="0"/>
  <tile gid="0"/>
  <tile gid="0"/>
  <tile gid="0"/>
  <tile gid="0"/>
  <tile gid="0"/>
  <tile gid="0"/>
  <tile gid="0"/>
  <tile gid="0"/>
  <tile gid="0"/>
  <tile gid="0"/>
  <tile gid="0"/>
  <tile gid="0"/>
  <tile gid="0"/>
  <tile gid="0"/>
  <tile gid="0"/>
  <tile gid="0"/>
  <tile gid="0"/>
  <tile gid="0"/>
  <tile gid="0"/>
  <tile gid="0"/>
  <tile gid="0"/>
  <tile gid="0"/>
  <tile gid="0"/>
  <tile gid="0"/>
  <tile gid="0"/>
  <tile gid="0"/>
  <tile gid="0"/>
  <tile gid="0"/>
  <tile gid="0"/>
  <tile gid="0"/>
  <tile gid="0"/>
  <tile gid="0"/>
  <tile gid="0"/>
  <tile gid="0"/>
  <tile gid="0"/>
  <tile gid="0"/>
  <tile gid="0"/>
  <tile gid="0"/>
  <tile gid="0"/>
  <tile gid="0"/>
  <tile gid="0"/>
  <tile gid="0"/>
  <tile gid="0"/>
  <tile gid="0"/>
  <tile gid="0"/>
  <tile gid="0"/>
  <tile gid="0"/>
  <tile gid="0"/>
  <tile gid="0"/>
  <tile gid="0"/>
  <tile gid="0"/>
  <tile gid="0"/>
  <tile gid="0"/>
  <tile gid="0"/>
  <tile gid="0"/>
  <tile gid="0"/>
  <tile gid="0"/>
  <tile gid="0"/>
  <tile gid="0"/>
  <tile gid="0"/>
  <tile gid="0"/>
  <tile gid="0"/>
  <tile gid="0"/>
  <tile gid="0"/>
  <tile gid="0"/>
  <tile gid="0"/>
  <tile gid="0"/>
  <tile gid="0"/>
  <tile gid="0"/>
  <tile gid="0"/>
  <tile gid="0"/>
  <tile gid="0"/>
  <tile gid="0"/>
  <tile gid="0"/>
  <tile gid="0"/>
  <tile gid="0"/>
  <tile gid="0"/>
  <tile gid="0"/>
  <tile gid="0"/>
  <tile gid="0"/>
  <tile gid="0"/>
  <tile gid="0"/>
  <tile gid="0"/>
  <tile gid="0"/>
  <tile gid="0"/>
  <tile gid="0"/>
  <tile gid="0"/>
  <tile gid="0"/>
  <tile gid="0"/>
  <tile gid="0"/>
  <tile gid="0"/>
  <tile gid="0"/>
  <tile gid="0"/>
  <tile gid="0"/>
  <tile gid="0"/>
  <tile gid="0"/>
  <tile gid="0"/>
  <tile gid="0"/>
  <tile gid="0"/>
  <tile gid="0"/>
  <tile gid="0"/>
  <tile gid="0"/>
  <tile gid="0"/>
  <tile gid="0"/>
  <tile gid="0"/>
  <tile gid="0"/>
  <tile gid="0"/>
  <tile gid="0"/>
  <tile gid="0"/>
  <tile gid="0"/>
  <tile gid="0"/>
  <tile gid="0"/>
  <tile gid="0"/>
  <tile gid="0"/>
  <tile gid="0"/>
  <tile gid="0"/>
  <tile gid="0"/>
  <tile gid="0"/>
  <tile gid="0"/>
  <tile gid="0"/>
  <tile gid="0"/>
  <tile gid="0"/>
  <tile gid="0"/>
  <tile gid="0"/>
  <tile gid="0"/>
  <tile gid="0"/>
  <tile gid="0"/>
  <tile gid="0"/>
  <tile gid="0"/>
  <tile gid="0"/>
  <tile gid="0"/>
  <tile gid="0"/>
  <tile gid="0"/>
  <tile gid="0"/>
  <tile gid="0"/>
  <tile gid="0"/>
  <tile gid="0"/>
  <tile gid="0"/>
  <tile gid="0"/>
  <tile gid="0"/>
  <tile gid="0"/>
  <tile gid="0"/>
  <tile gid="0"/>
  <tile gid="0"/>
  <tile gid="0"/>
  <tile gid="0"/>
  <tile gid="0"/>
  <tile gid="0"/>
  <tile gid="0"/>
  <tile gid="0"/>
  <tile gid="0"/>
  <tile gid="0"/>
  <tile gid="0"/>
  <tile gid="0"/>
  <tile gid="0"/>
  <tile gid="0"/>
  <tile gid="0"/>
  <tile gid="0"/>
  <tile gid="0"/>
  <tile gid="0"/>
  <tile gid="0"/>
  <tile gid="0"/>
  <tile gid="0"/>
  <tile gid="0"/>
  <tile gid="0"/>
  <tile gid="0"/>
  <tile gid="0"/>
  <tile gid="0"/>
  <tile gid="0"/>
  <tile gid="0"/>
  <tile gid="0"/>
  <tile gid="0"/>
  <tile gid="0"/>
  <tile gid="0"/>
  <tile gid="0"/>
  <tile gid="0"/>
  <tile gid="0"/>
  <tile gid="0"/>
  <tile gid="0"/>
  <tile gid="0"/>
  <tile gid="0"/>
  <tile gid="0"/>
  <tile gid="0"/>
  <tile gid="0"/>
  <tile gid="0"/>
  <tile gid="0"/>
  <tile gid="0"/>
  <tile gid="0"/>
  <tile gid="0"/>
  <tile gid="0"/>
  <tile gid="0"/>
  <tile gid="0"/>
  <tile gid="0"/>
  <tile gid="0"/>
  <tile gid="0"/>
  <tile gid="0"/>
  <tile gid="0"/>
  <tile gid="0"/>
  <tile gid="0"/>
  <tile gid="0"/>
  <tile gid="0"/>
  <tile gid="0"/>
  <tile gid="0"/>
  <tile gid="0"/>
  <tile gid="0"/>
  <tile gid="0"/>
  <tile gid="0"/>
  <tile gid="0"/>
  <tile gid="0"/>
  <tile gid="0"/>
  <tile gid="0"/>
  <tile gid="0"/>
  <tile gid="0"/>
  <tile gid="0"/>
  <tile gid="0"/>
  <tile gid="0"/>
  <tile gid="0"/>
  <tile gid="0"/>
  <tile gid="0"/>
  <tile gid="0"/>
  <tile gid="0"/>
  <tile gid="0"/>
  <tile gid="0"/>
  <tile gid="0"/>
  <tile gid="0"/>
  <tile gid="0"/>
  <tile gid="0"/>
  <tile gid="0"/>
  <tile gid="0"/>
  <tile gid="0"/>
  <tile gid="0"/>
  <tile gid="0"/>
  <tile gid="0"/>
  <tile gid="0"/>
  <tile gid="0"/>
  <tile gid="0"/>
  <tile gid="0"/>
  <tile gid="0"/>
  <tile gid="0"/>
  <tile gid="0"/>
  <tile gid="0"/>
  <tile gid="0"/>
  <tile gid="0"/>
  <tile gid="0"/>
  <tile gid="0"/>
  <tile gid="0"/>
  <tile gid="0"/>
  <tile gid="0"/>
  <tile gid="0"/>
  <tile gid="0"/>
  <tile gid="0"/>
  <tile gid="0"/>
  <tile gid="0"/>
  <tile gid="0"/>
  <tile gid="0"/>
  <tile gid="0"/>
  <tile gid="0"/>
  <tile gid="0"/>
  <tile gid="0"/>
  <tile gid="0"/>
  <tile gid="0"/>
  <tile gid="0"/>
  <tile gid="0"/>
  <tile gid="0"/>
  <tile gid="0"/>
  <tile gid="0"/>
  <tile gid="0"/>
  <tile gid="0"/>
  <tile gid="0"/>
  <tile gid="0"/>
  <tile gid="0"/>
  <tile gid="0"/>
  <tile gid="0"/>
  <tile gid="0"/>
  <tile gid="0"/>
  <tile gid="0"/>
  <tile gid="0"/>
  <tile gid="0"/>
  <tile gid="0"/>
  <tile gid="0"/>
  <tile gid="0"/>
  <tile gid="0"/>
  <tile gid="0"/>
  <tile gid="0"/>
  <tile gid="0"/>
  <tile gid="0"/>
  <tile gid="0"/>
  <tile gid="0"/>
  <tile gid="0"/>
  <tile gid="0"/>
  <tile gid="0"/>
  <tile gid="0"/>
  <tile gid="0"/>
  <tile gid="0"/>
  <tile gid="0"/>
  <tile gid="0"/>
  <tile gid="0"/>
  <tile gid="0"/>
  <tile gid="0"/>
  <tile gid="0"/>
  <tile gid="0"/>
  <tile gid="0"/>
  <tile gid="0"/>
  <tile gid="0"/>
  <tile gid="0"/>
  <tile gid="0"/>
  <tile gid="0"/>
  <tile gid="0"/>
  <tile gid="0"/>
  <tile gid="0"/>
  <tile gid="0"/>
  <tile gid="0"/>
  <tile gid="0"/>
  <tile gid="0"/>
  <tile gid="0"/>
  <tile gid="0"/>
  <tile gid="0"/>
  <tile gid="0"/>
  <tile gid="0"/>
  <tile gid="0"/>
  <tile gid="0"/>
  <tile gid="0"/>
  <tile gid="0"/>
  <tile gid="0"/>
  <tile gid="0"/>
  <tile gid="0"/>
  <tile gid="0"/>
  <tile gid="0"/>
  <tile gid="0"/>
  <tile gid="0"/>
  <tile gid="0"/>
  <tile gid="0"/>
  <tile gid="0"/>
  <tile gid="0"/>
  <tile gid="0"/>
  <tile gid="0"/>
  <tile gid="0"/>
  <tile gid="0"/>
  <tile gid="0"/>
  <tile gid="0"/>
  <tile gid="0"/>
  <tile gid="0"/>
  <tile gid="0"/>
  <tile gid="0"/>
  <tile gid="0"/>
  <tile gid="0"/>
  <tile gid="0"/>
  <tile gid="0"/>
  <tile gid="0"/>
  <tile gid="0"/>
  <tile gid="0"/>
  <tile gid="0"/>
  <tile gid="0"/>
  <tile gid="0"/>
  <tile gid="0"/>
  <tile gid="0"/>
  <tile gid="0"/>
  <tile gid="0"/>
  <tile gid="0"/>
  <tile gid="0"/>
  <tile gid="0"/>
  <tile gid="0"/>
  <tile gid="0"/>
  <tile gid="0"/>
  <tile gid="0"/>
  <tile gid="0"/>
  <tile gid="0"/>
  <tile gid="0"/>
  <tile gid="0"/>
  <tile gid="0"/>
  <tile gid="0"/>
  <tile gid="0"/>
  <tile gid="0"/>
  <tile gid="0"/>
  <tile gid="0"/>
  <tile gid="0"/>
  <tile gid="0"/>
  <tile gid="0"/>
  <tile gid="0"/>
  <tile gid="0"/>
  <tile gid="0"/>
  <tile gid="0"/>
  <tile gid="0"/>
  <tile gid="0"/>
  <tile gid="0"/>
  <tile gid="0"/>
  <tile gid="0"/>
  <tile gid="0"/>
  <tile gid="0"/>
  <tile gid="0"/>
  <tile gid="0"/>
  <tile gid="0"/>
  <tile gid="0"/>
  <tile gid="0"/>
  <tile gid="0"/>
  <tile gid="0"/>
  <tile gid="0"/>
  <tile gid="0"/>
  <tile gid="0"/>
  <tile gid="0"/>
  <tile gid="0"/>
  <tile gid="0"/>
  <tile gid="0"/>
  <tile gid="0"/>
  <tile gid="0"/>
  <tile gid="0"/>
  <tile gid="0"/>
  <tile gid="0"/>
  <tile gid="0"/>
  <tile gid="0"/>
  <tile gid="0"/>
  <tile gid="0"/>
  <tile gid="0"/>
  <tile gid="0"/>
  <tile gid="0"/>
  <tile gid="0"/>
  <tile gid="0"/>
  <tile gid="0"/>
  <tile gid="0"/>
  <tile gid="0"/>
  <tile gid="0"/>
  <tile gid="0"/>
  <tile gid="0"/>
  <tile gid="0"/>
  <tile gid="0"/>
  <tile gid="0"/>
  <tile gid="0"/>
  <tile gid="0"/>
  <tile gid="0"/>
  <tile gid="0"/>
  <tile gid="0"/>
  <tile gid="0"/>
  <tile gid="0"/>
  <tile gid="0"/>
  <tile gid="0"/>
  <tile gid="0"/>
  <tile gid="0"/>
  <tile gid="0"/>
  <tile gid="0"/>
  <tile gid="0"/>
  <tile gid="0"/>
  <tile gid="0"/>
  <tile gid="0"/>
  <tile gid="0"/>
  <tile gid="0"/>
  <tile gid="0"/>
  <tile gid="0"/>
  <tile gid="0"/>
  <tile gid="0"/>
  <tile gid="0"/>
  <tile gid="0"/>
  <tile gid="0"/>
  <tile gid="0"/>
  <tile gid="0"/>
  <tile gid="0"/>
  <tile gid="0"/>
  <tile gid="0"/>
  <tile gid="0"/>
  <tile gid="0"/>
  <tile gid="0"/>
  <tile gid="0"/>
  <tile gid="0"/>
  <tile gid="0"/>
  <tile gid="0"/>
  <tile gid="0"/>
  <tile gid="0"/>
  <tile gid="0"/>
  <tile gid="0"/>
  <tile gid="0"/>
  <tile gid="0"/>
  <tile gid="0"/>
  <tile gid="0"/>
  <tile gid="0"/>
  <tile gid="0"/>
  <tile gid="0"/>
  <tile gid="0"/>
  <tile gid="0"/>
  <tile gid="0"/>
  <tile gid="0"/>
  <tile gid="0"/>
  <tile gid="0"/>
  <tile gid="0"/>
  <tile gid="0"/>
  <tile gid="0"/>
  <tile gid="0"/>
  <tile gid="0"/>
  <tile gid="0"/>
  <tile gid="0"/>
  <tile gid="0"/>
  <tile gid="0"/>
  <tile gid="0"/>
  <tile gid="0"/>
  <tile gid="0"/>
  <tile gid="0"/>
  <tile gid="0"/>
  <tile gid="0"/>
  <tile gid="0"/>
  <tile gid="0"/>
  <tile gid="0"/>
  <tile gid="0"/>
  <tile gid="0"/>
  <tile gid="0"/>
  <tile gid="0"/>
  <tile gid="0"/>
  <tile gid="0"/>
  <tile gid="0"/>
  <tile gid="0"/>
  <tile gid="0"/>
  <tile gid="0"/>
  <tile gid="0"/>
  <tile gid="0"/>
  <tile gid="0"/>
  <tile gid="0"/>
  <tile gid="0"/>
  <tile gid="0"/>
  <tile gid="0"/>
  <tile gid="0"/>
  <tile gid="0"/>
  <tile gid="0"/>
  <tile gid="0"/>
  <tile gid="0"/>
  <tile gid="0"/>
  <tile gid="0"/>
  <tile gid="0"/>
  <tile gid="0"/>
  <tile gid="0"/>
  <tile gid="0"/>
  <tile gid="0"/>
  <tile gid="0"/>
  <tile gid="0"/>
  <tile gid="0"/>
  <tile gid="0"/>
  <tile gid="0"/>
  <tile gid="0"/>
  <tile gid="0"/>
  <tile gid="0"/>
  <tile gid="0"/>
  <tile gid="0"/>
  <tile gid="0"/>
  <tile gid="0"/>
  <tile gid="0"/>
  <tile gid="0"/>
  <tile gid="0"/>
  <tile gid="0"/>
  <tile gid="0"/>
  <tile gid="0"/>
  <tile gid="0"/>
  <tile gid="0"/>
  <tile gid="0"/>
  <tile gid="0"/>
  <tile gid="0"/>
  <tile gid="0"/>
  <tile gid="0"/>
  <tile gid="0"/>
  <tile gid="0"/>
  <tile gid="0"/>
  <tile gid="0"/>
  <tile gid="0"/>
  <tile gid="0"/>
  <tile gid="0"/>
  <tile gid="0"/>
  <tile gid="0"/>
  <tile gid="0"/>
  <tile gid="0"/>
  <tile gid="0"/>
  <tile gid="0"/>
  <tile gid="0"/>
  <tile gid="0"/>
  <tile gid="0"/>
  <tile gid="0"/>
  <tile gid="0"/>
  <tile gid="0"/>
  <tile gid="0"/>
  <tile gid="0"/>
  <tile gid="0"/>
  <tile gid="0"/>
  <tile gid="0"/>
  <tile gid="0"/>
  <tile gid="0"/>
  <tile gid="0"/>
  <tile gid="0"/>
  <tile gid="0"/>
  <tile gid="0"/>
  <tile gid="0"/>
  <tile gid="0"/>
  <tile gid="0"/>
  <tile gid="0"/>
  <tile gid="0"/>
  <tile gid="0"/>
  <tile gid="0"/>
  </data>
 </layer>
 <layer name="Map Change 3" width="32" height="32">
  <properties>
   <property name="ID" value ="3"/>
   <property name="Height" value ="2"/>
   <property name="Width" value ="3"/>
   <property name="X" value ="11"/>
   <property name="Y" value ="8"/>
  </properties>
  <data>
  <tile gid="0"/>
  <tile gid="0"/>
  <tile gid="0"/>
  <tile gid="0"/>
  <tile gid="0"/>
  <tile gid="0"/>
  <tile gid="0"/>
  <tile gid="0"/>
  <tile gid="0"/>
  <tile gid="0"/>
  <tile gid="0"/>
  <tile gid="0"/>
  <tile gid="0"/>
  <tile gid="0"/>
  <tile gid="0"/>
  <tile gid="0"/>
  <tile gid="0"/>
  <tile gid="0"/>
  <tile gid="0"/>
  <tile gid="0"/>
  <tile gid="0"/>
  <tile gid="0"/>
  <tile gid="0"/>
  <tile gid="0"/>
  <tile gid="0"/>
  <tile gid="0"/>
  <tile gid="0"/>
  <tile gid="0"/>
  <tile gid="0"/>
  <tile gid="0"/>
  <tile gid="0"/>
  <tile gid="0"/>
  <tile gid="0"/>
  <tile gid="0"/>
  <tile gid="0"/>
  <tile gid="0"/>
  <tile gid="0"/>
  <tile gid="0"/>
  <tile gid="0"/>
  <tile gid="0"/>
  <tile gid="0"/>
  <tile gid="0"/>
  <tile gid="0"/>
  <tile gid="0"/>
  <tile gid="0"/>
  <tile gid="0"/>
  <tile gid="0"/>
  <tile gid="0"/>
  <tile gid="0"/>
  <tile gid="0"/>
  <tile gid="0"/>
  <tile gid="0"/>
  <tile gid="0"/>
  <tile gid="0"/>
  <tile gid="0"/>
  <tile gid="0"/>
  <tile gid="0"/>
  <tile gid="0"/>
  <tile gid="0"/>
  <tile gid="0"/>
  <tile gid="0"/>
  <tile gid="0"/>
  <tile gid="0"/>
  <tile gid="0"/>
  <tile gid="0"/>
  <tile gid="0"/>
  <tile gid="0"/>
  <tile gid="0"/>
  <tile gid="0"/>
  <tile gid="0"/>
  <tile gid="0"/>
  <tile gid="0"/>
  <tile gid="0"/>
  <tile gid="0"/>
  <tile gid="0"/>
  <tile gid="0"/>
  <tile gid="0"/>
  <tile gid="0"/>
  <tile gid="0"/>
  <tile gid="0"/>
  <tile gid="0"/>
  <tile gid="0"/>
  <tile gid="0"/>
  <tile gid="0"/>
  <tile gid="0"/>
  <tile gid="0"/>
  <tile gid="0"/>
  <tile gid="0"/>
  <tile gid="0"/>
  <tile gid="0"/>
  <tile gid="0"/>
  <tile gid="0"/>
  <tile gid="0"/>
  <tile gid="0"/>
  <tile gid="0"/>
  <tile gid="0"/>
  <tile gid="0"/>
  <tile gid="0"/>
  <tile gid="0"/>
  <tile gid="0"/>
  <tile gid="0"/>
  <tile gid="0"/>
  <tile gid="0"/>
  <tile gid="0"/>
  <tile gid="0"/>
  <tile gid="0"/>
  <tile gid="0"/>
  <tile gid="0"/>
  <tile gid="0"/>
  <tile gid="0"/>
  <tile gid="0"/>
  <tile gid="0"/>
  <tile gid="0"/>
  <tile gid="0"/>
  <tile gid="0"/>
  <tile gid="0"/>
  <tile gid="0"/>
  <tile gid="0"/>
  <tile gid="0"/>
  <tile gid="0"/>
  <tile gid="0"/>
  <tile gid="0"/>
  <tile gid="0"/>
  <tile gid="0"/>
  <tile gid="0"/>
  <tile gid="0"/>
  <tile gid="0"/>
  <tile gid="0"/>
  <tile gid="0"/>
  <tile gid="0"/>
  <tile gid="0"/>
  <tile gid="0"/>
  <tile gid="0"/>
  <tile gid="0"/>
  <tile gid="0"/>
  <tile gid="0"/>
  <tile gid="0"/>
  <tile gid="0"/>
  <tile gid="0"/>
  <tile gid="0"/>
  <tile gid="0"/>
  <tile gid="0"/>
  <tile gid="0"/>
  <tile gid="0"/>
  <tile gid="0"/>
  <tile gid="0"/>
  <tile gid="0"/>
  <tile gid="0"/>
  <tile gid="0"/>
  <tile gid="0"/>
  <tile gid="0"/>
  <tile gid="0"/>
  <tile gid="0"/>
  <tile gid="0"/>
  <tile gid="0"/>
  <tile gid="0"/>
  <tile gid="0"/>
  <tile gid="0"/>
  <tile gid="0"/>
  <tile gid="0"/>
  <tile gid="0"/>
  <tile gid="0"/>
  <tile gid="0"/>
  <tile gid="0"/>
  <tile gid="0"/>
  <tile gid="0"/>
  <tile gid="0"/>
  <tile gid="0"/>
  <tile gid="0"/>
  <tile gid="0"/>
  <tile gid="0"/>
  <tile gid="0"/>
  <tile gid="0"/>
  <tile gid="0"/>
  <tile gid="0"/>
  <tile gid="0"/>
  <tile gid="0"/>
  <tile gid="0"/>
  <tile gid="0"/>
  <tile gid="0"/>
  <tile gid="0"/>
  <tile gid="0"/>
  <tile gid="0"/>
  <tile gid="0"/>
  <tile gid="0"/>
  <tile gid="0"/>
  <tile gid="0"/>
  <tile gid="0"/>
  <tile gid="0"/>
  <tile gid="0"/>
  <tile gid="0"/>
  <tile gid="0"/>
  <tile gid="0"/>
  <tile gid="0"/>
  <tile gid="0"/>
  <tile gid="0"/>
  <tile gid="0"/>
  <tile gid="0"/>
  <tile gid="0"/>
  <tile gid="0"/>
  <tile gid="0"/>
  <tile gid="0"/>
  <tile gid="0"/>
  <tile gid="0"/>
  <tile gid="0"/>
  <tile gid="0"/>
  <tile gid="0"/>
  <tile gid="0"/>
  <tile gid="0"/>
  <tile gid="0"/>
  <tile gid="0"/>
  <tile gid="0"/>
  <tile gid="0"/>
  <tile gid="0"/>
  <tile gid="0"/>
  <tile gid="0"/>
  <tile gid="0"/>
  <tile gid="0"/>
  <tile gid="0"/>
  <tile gid="0"/>
  <tile gid="0"/>
  <tile gid="0"/>
  <tile gid="0"/>
  <tile gid="0"/>
  <tile gid="0"/>
  <tile gid="0"/>
  <tile gid="0"/>
  <tile gid="0"/>
  <tile gid="0"/>
  <tile gid="0"/>
  <tile gid="0"/>
  <tile gid="0"/>
  <tile gid="0"/>
  <tile gid="0"/>
  <tile gid="0"/>
  <tile gid="0"/>
  <tile gid="0"/>
  <tile gid="0"/>
  <tile gid="0"/>
  <tile gid="0"/>
  <tile gid="0"/>
  <tile gid="0"/>
  <tile gid="0"/>
  <tile gid="0"/>
  <tile gid="0"/>
  <tile gid="0"/>
  <tile gid="0"/>
  <tile gid="0"/>
  <tile gid="0"/>
  <tile gid="0"/>
  <tile gid="0"/>
  <tile gid="0"/>
  <tile gid="0"/>
  <tile gid="0"/>
  <tile gid="0"/>
  <tile gid="0"/>
  <tile gid="0"/>
  <tile gid="0"/>
  <tile gid="0"/>
  <tile gid="0"/>
  <tile gid="0"/>
  <tile gid="0"/>
  <tile gid="0"/>
  <tile gid="0"/>
  <tile gid="0"/>
  <tile gid="0"/>
  <tile gid="0"/>
  <tile gid="1"/>
  <tile gid="1"/>
  <tile gid="1"/>
  <tile gid="0"/>
  <tile gid="0"/>
  <tile gid="0"/>
  <tile gid="0"/>
  <tile gid="0"/>
  <tile gid="0"/>
  <tile gid="0"/>
  <tile gid="0"/>
  <tile gid="0"/>
  <tile gid="0"/>
  <tile gid="0"/>
  <tile gid="0"/>
  <tile gid="0"/>
  <tile gid="0"/>
  <tile gid="0"/>
  <tile gid="0"/>
  <tile gid="0"/>
  <tile gid="0"/>
  <tile gid="0"/>
  <tile gid="0"/>
  <tile gid="0"/>
  <tile gid="0"/>
  <tile gid="0"/>
  <tile gid="0"/>
  <tile gid="0"/>
  <tile gid="0"/>
  <tile gid="0"/>
  <tile gid="0"/>
  <tile gid="0"/>
  <tile gid="1"/>
  <tile gid="434"/>
  <tile gid="1"/>
  <tile gid="0"/>
  <tile gid="0"/>
  <tile gid="0"/>
  <tile gid="0"/>
  <tile gid="0"/>
  <tile gid="0"/>
  <tile gid="0"/>
  <tile gid="0"/>
  <tile gid="0"/>
  <tile gid="0"/>
  <tile gid="0"/>
  <tile gid="0"/>
  <tile gid="0"/>
  <tile gid="0"/>
  <tile gid="0"/>
  <tile gid="0"/>
  <tile gid="0"/>
  <tile gid="0"/>
  <tile gid="0"/>
  <tile gid="0"/>
  <tile gid="0"/>
  <tile gid="0"/>
  <tile gid="0"/>
  <tile gid="0"/>
  <tile gid="0"/>
  <tile gid="0"/>
  <tile gid="0"/>
  <tile gid="0"/>
  <tile gid="0"/>
  <tile gid="0"/>
  <tile gid="0"/>
  <tile gid="0"/>
  <tile gid="0"/>
  <tile gid="0"/>
  <tile gid="0"/>
  <tile gid="0"/>
  <tile gid="0"/>
  <tile gid="0"/>
  <tile gid="0"/>
  <tile gid="0"/>
  <tile gid="0"/>
  <tile gid="0"/>
  <tile gid="0"/>
  <tile gid="0"/>
  <tile gid="0"/>
  <tile gid="0"/>
  <tile gid="0"/>
  <tile gid="0"/>
  <tile gid="0"/>
  <tile gid="0"/>
  <tile gid="0"/>
  <tile gid="0"/>
  <tile gid="0"/>
  <tile gid="0"/>
  <tile gid="0"/>
  <tile gid="0"/>
  <tile gid="0"/>
  <tile gid="0"/>
  <tile gid="0"/>
  <tile gid="0"/>
  <tile gid="0"/>
  <tile gid="0"/>
  <tile gid="0"/>
  <tile gid="0"/>
  <tile gid="0"/>
  <tile gid="0"/>
  <tile gid="0"/>
  <tile gid="0"/>
  <tile gid="0"/>
  <tile gid="0"/>
  <tile gid="0"/>
  <tile gid="0"/>
  <tile gid="0"/>
  <tile gid="0"/>
  <tile gid="0"/>
  <tile gid="0"/>
  <tile gid="0"/>
  <tile gid="0"/>
  <tile gid="0"/>
  <tile gid="0"/>
  <tile gid="0"/>
  <tile gid="0"/>
  <tile gid="0"/>
  <tile gid="0"/>
  <tile gid="0"/>
  <tile gid="0"/>
  <tile gid="0"/>
  <tile gid="0"/>
  <tile gid="0"/>
  <tile gid="0"/>
  <tile gid="0"/>
  <tile gid="0"/>
  <tile gid="0"/>
  <tile gid="0"/>
  <tile gid="0"/>
  <tile gid="0"/>
  <tile gid="0"/>
  <tile gid="0"/>
  <tile gid="0"/>
  <tile gid="0"/>
  <tile gid="0"/>
  <tile gid="0"/>
  <tile gid="0"/>
  <tile gid="0"/>
  <tile gid="0"/>
  <tile gid="0"/>
  <tile gid="0"/>
  <tile gid="0"/>
  <tile gid="0"/>
  <tile gid="0"/>
  <tile gid="0"/>
  <tile gid="0"/>
  <tile gid="0"/>
  <tile gid="0"/>
  <tile gid="0"/>
  <tile gid="0"/>
  <tile gid="0"/>
  <tile gid="0"/>
  <tile gid="0"/>
  <tile gid="0"/>
  <tile gid="0"/>
  <tile gid="0"/>
  <tile gid="0"/>
  <tile gid="0"/>
  <tile gid="0"/>
  <tile gid="0"/>
  <tile gid="0"/>
  <tile gid="0"/>
  <tile gid="0"/>
  <tile gid="0"/>
  <tile gid="0"/>
  <tile gid="0"/>
  <tile gid="0"/>
  <tile gid="0"/>
  <tile gid="0"/>
  <tile gid="0"/>
  <tile gid="0"/>
  <tile gid="0"/>
  <tile gid="0"/>
  <tile gid="0"/>
  <tile gid="0"/>
  <tile gid="0"/>
  <tile gid="0"/>
  <tile gid="0"/>
  <tile gid="0"/>
  <tile gid="0"/>
  <tile gid="0"/>
  <tile gid="0"/>
  <tile gid="0"/>
  <tile gid="0"/>
  <tile gid="0"/>
  <tile gid="0"/>
  <tile gid="0"/>
  <tile gid="0"/>
  <tile gid="0"/>
  <tile gid="0"/>
  <tile gid="0"/>
  <tile gid="0"/>
  <tile gid="0"/>
  <tile gid="0"/>
  <tile gid="0"/>
  <tile gid="0"/>
  <tile gid="0"/>
  <tile gid="0"/>
  <tile gid="0"/>
  <tile gid="0"/>
  <tile gid="0"/>
  <tile gid="0"/>
  <tile gid="0"/>
  <tile gid="0"/>
  <tile gid="0"/>
  <tile gid="0"/>
  <tile gid="0"/>
  <tile gid="0"/>
  <tile gid="0"/>
  <tile gid="0"/>
  <tile gid="0"/>
  <tile gid="0"/>
  <tile gid="0"/>
  <tile gid="0"/>
  <tile gid="0"/>
  <tile gid="0"/>
  <tile gid="0"/>
  <tile gid="0"/>
  <tile gid="0"/>
  <tile gid="0"/>
  <tile gid="0"/>
  <tile gid="0"/>
  <tile gid="0"/>
  <tile gid="0"/>
  <tile gid="0"/>
  <tile gid="0"/>
  <tile gid="0"/>
  <tile gid="0"/>
  <tile gid="0"/>
  <tile gid="0"/>
  <tile gid="0"/>
  <tile gid="0"/>
  <tile gid="0"/>
  <tile gid="0"/>
  <tile gid="0"/>
  <tile gid="0"/>
  <tile gid="0"/>
  <tile gid="0"/>
  <tile gid="0"/>
  <tile gid="0"/>
  <tile gid="0"/>
  <tile gid="0"/>
  <tile gid="0"/>
  <tile gid="0"/>
  <tile gid="0"/>
  <tile gid="0"/>
  <tile gid="0"/>
  <tile gid="0"/>
  <tile gid="0"/>
  <tile gid="0"/>
  <tile gid="0"/>
  <tile gid="0"/>
  <tile gid="0"/>
  <tile gid="0"/>
  <tile gid="0"/>
  <tile gid="0"/>
  <tile gid="0"/>
  <tile gid="0"/>
  <tile gid="0"/>
  <tile gid="0"/>
  <tile gid="0"/>
  <tile gid="0"/>
  <tile gid="0"/>
  <tile gid="0"/>
  <tile gid="0"/>
  <tile gid="0"/>
  <tile gid="0"/>
  <tile gid="0"/>
  <tile gid="0"/>
  <tile gid="0"/>
  <tile gid="0"/>
  <tile gid="0"/>
  <tile gid="0"/>
  <tile gid="0"/>
  <tile gid="0"/>
  <tile gid="0"/>
  <tile gid="0"/>
  <tile gid="0"/>
  <tile gid="0"/>
  <tile gid="0"/>
  <tile gid="0"/>
  <tile gid="0"/>
  <tile gid="0"/>
  <tile gid="0"/>
  <tile gid="0"/>
  <tile gid="0"/>
  <tile gid="0"/>
  <tile gid="0"/>
  <tile gid="0"/>
  <tile gid="0"/>
  <tile gid="0"/>
  <tile gid="0"/>
  <tile gid="0"/>
  <tile gid="0"/>
  <tile gid="0"/>
  <tile gid="0"/>
  <tile gid="0"/>
  <tile gid="0"/>
  <tile gid="0"/>
  <tile gid="0"/>
  <tile gid="0"/>
  <tile gid="0"/>
  <tile gid="0"/>
  <tile gid="0"/>
  <tile gid="0"/>
  <tile gid="0"/>
  <tile gid="0"/>
  <tile gid="0"/>
  <tile gid="0"/>
  <tile gid="0"/>
  <tile gid="0"/>
  <tile gid="0"/>
  <tile gid="0"/>
  <tile gid="0"/>
  <tile gid="0"/>
  <tile gid="0"/>
  <tile gid="0"/>
  <tile gid="0"/>
  <tile gid="0"/>
  <tile gid="0"/>
  <tile gid="0"/>
  <tile gid="0"/>
  <tile gid="0"/>
  <tile gid="0"/>
  <tile gid="0"/>
  <tile gid="0"/>
  <tile gid="0"/>
  <tile gid="0"/>
  <tile gid="0"/>
  <tile gid="0"/>
  <tile gid="0"/>
  <tile gid="0"/>
  <tile gid="0"/>
  <tile gid="0"/>
  <tile gid="0"/>
  <tile gid="0"/>
  <tile gid="0"/>
  <tile gid="0"/>
  <tile gid="0"/>
  <tile gid="0"/>
  <tile gid="0"/>
  <tile gid="0"/>
  <tile gid="0"/>
  <tile gid="0"/>
  <tile gid="0"/>
  <tile gid="0"/>
  <tile gid="0"/>
  <tile gid="0"/>
  <tile gid="0"/>
  <tile gid="0"/>
  <tile gid="0"/>
  <tile gid="0"/>
  <tile gid="0"/>
  <tile gid="0"/>
  <tile gid="0"/>
  <tile gid="0"/>
  <tile gid="0"/>
  <tile gid="0"/>
  <tile gid="0"/>
  <tile gid="0"/>
  <tile gid="0"/>
  <tile gid="0"/>
  <tile gid="0"/>
  <tile gid="0"/>
  <tile gid="0"/>
  <tile gid="0"/>
  <tile gid="0"/>
  <tile gid="0"/>
  <tile gid="0"/>
  <tile gid="0"/>
  <tile gid="0"/>
  <tile gid="0"/>
  <tile gid="0"/>
  <tile gid="0"/>
  <tile gid="0"/>
  <tile gid="0"/>
  <tile gid="0"/>
  <tile gid="0"/>
  <tile gid="0"/>
  <tile gid="0"/>
  <tile gid="0"/>
  <tile gid="0"/>
  <tile gid="0"/>
  <tile gid="0"/>
  <tile gid="0"/>
  <tile gid="0"/>
  <tile gid="0"/>
  <tile gid="0"/>
  <tile gid="0"/>
  <tile gid="0"/>
  <tile gid="0"/>
  <tile gid="0"/>
  <tile gid="0"/>
  <tile gid="0"/>
  <tile gid="0"/>
  <tile gid="0"/>
  <tile gid="0"/>
  <tile gid="0"/>
  <tile gid="0"/>
  <tile gid="0"/>
  <tile gid="0"/>
  <tile gid="0"/>
  <tile gid="0"/>
  <tile gid="0"/>
  <tile gid="0"/>
  <tile gid="0"/>
  <tile gid="0"/>
  <tile gid="0"/>
  <tile gid="0"/>
  <tile gid="0"/>
  <tile gid="0"/>
  <tile gid="0"/>
  <tile gid="0"/>
  <tile gid="0"/>
  <tile gid="0"/>
  <tile gid="0"/>
  <tile gid="0"/>
  <tile gid="0"/>
  <tile gid="0"/>
  <tile gid="0"/>
  <tile gid="0"/>
  <tile gid="0"/>
  <tile gid="0"/>
  <tile gid="0"/>
  <tile gid="0"/>
  <tile gid="0"/>
  <tile gid="0"/>
  <tile gid="0"/>
  <tile gid="0"/>
  <tile gid="0"/>
  <tile gid="0"/>
  <tile gid="0"/>
  <tile gid="0"/>
  <tile gid="0"/>
  <tile gid="0"/>
  <tile gid="0"/>
  <tile gid="0"/>
  <tile gid="0"/>
  <tile gid="0"/>
  <tile gid="0"/>
  <tile gid="0"/>
  <tile gid="0"/>
  <tile gid="0"/>
  <tile gid="0"/>
  <tile gid="0"/>
  <tile gid="0"/>
  <tile gid="0"/>
  <tile gid="0"/>
  <tile gid="0"/>
  <tile gid="0"/>
  <tile gid="0"/>
  <tile gid="0"/>
  <tile gid="0"/>
  <tile gid="0"/>
  <tile gid="0"/>
  <tile gid="0"/>
  <tile gid="0"/>
  <tile gid="0"/>
  <tile gid="0"/>
  <tile gid="0"/>
  <tile gid="0"/>
  <tile gid="0"/>
  <tile gid="0"/>
  <tile gid="0"/>
  <tile gid="0"/>
  <tile gid="0"/>
  <tile gid="0"/>
  <tile gid="0"/>
  <tile gid="0"/>
  <tile gid="0"/>
  <tile gid="0"/>
  <tile gid="0"/>
  <tile gid="0"/>
  <tile gid="0"/>
  <tile gid="0"/>
  <tile gid="0"/>
  <tile gid="0"/>
  <tile gid="0"/>
  <tile gid="0"/>
  <tile gid="0"/>
  <tile gid="0"/>
  <tile gid="0"/>
  <tile gid="0"/>
  <tile gid="0"/>
  <tile gid="0"/>
  <tile gid="0"/>
  <tile gid="0"/>
  <tile gid="0"/>
  <tile gid="0"/>
  <tile gid="0"/>
  <tile gid="0"/>
  <tile gid="0"/>
  <tile gid="0"/>
  <tile gid="0"/>
  <tile gid="0"/>
  <tile gid="0"/>
  <tile gid="0"/>
  <tile gid="0"/>
  <tile gid="0"/>
  <tile gid="0"/>
  <tile gid="0"/>
  <tile gid="0"/>
  <tile gid="0"/>
  <tile gid="0"/>
  <tile gid="0"/>
  <tile gid="0"/>
  <tile gid="0"/>
  <tile gid="0"/>
  <tile gid="0"/>
  <tile gid="0"/>
  <tile gid="0"/>
  <tile gid="0"/>
  <tile gid="0"/>
  <tile gid="0"/>
  <tile gid="0"/>
  <tile gid="0"/>
  <tile gid="0"/>
  <tile gid="0"/>
  <tile gid="0"/>
  <tile gid="0"/>
  <tile gid="0"/>
  <tile gid="0"/>
  <tile gid="0"/>
  <tile gid="0"/>
  <tile gid="0"/>
  <tile gid="0"/>
  <tile gid="0"/>
  <tile gid="0"/>
  <tile gid="0"/>
  <tile gid="0"/>
  <tile gid="0"/>
  <tile gid="0"/>
  <tile gid="0"/>
  <tile gid="0"/>
  <tile gid="0"/>
  <tile gid="0"/>
  <tile gid="0"/>
  <tile gid="0"/>
  <tile gid="0"/>
  <tile gid="0"/>
  <tile gid="0"/>
  <tile gid="0"/>
  <tile gid="0"/>
  <tile gid="0"/>
  <tile gid="0"/>
  <tile gid="0"/>
  <tile gid="0"/>
  <tile gid="0"/>
  <tile gid="0"/>
  <tile gid="0"/>
  <tile gid="0"/>
  <tile gid="0"/>
  <tile gid="0"/>
  <tile gid="0"/>
  <tile gid="0"/>
  <tile gid="0"/>
  <tile gid="0"/>
  <tile gid="0"/>
  <tile gid="0"/>
  <tile gid="0"/>
  <tile gid="0"/>
  <tile gid="0"/>
  <tile gid="0"/>
  <tile gid="0"/>
  <tile gid="0"/>
  <tile gid="0"/>
  <tile gid="0"/>
  <tile gid="0"/>
  <tile gid="0"/>
  <tile gid="0"/>
  <tile gid="0"/>
  <tile gid="0"/>
  <tile gid="0"/>
  <tile gid="0"/>
  <tile gid="0"/>
  <tile gid="0"/>
  <tile gid="0"/>
  <tile gid="0"/>
  <tile gid="0"/>
  <tile gid="0"/>
  <tile gid="0"/>
  <tile gid="0"/>
  <tile gid="0"/>
  <tile gid="0"/>
  <tile gid="0"/>
  <tile gid="0"/>
  <tile gid="0"/>
  <tile gid="0"/>
  <tile gid="0"/>
  <tile gid="0"/>
  <tile gid="0"/>
  <tile gid="0"/>
  <tile gid="0"/>
  <tile gid="0"/>
  <tile gid="0"/>
  <tile gid="0"/>
  <tile gid="0"/>
  <tile gid="0"/>
  <tile gid="0"/>
  <tile gid="0"/>
  <tile gid="0"/>
  <tile gid="0"/>
  <tile gid="0"/>
  <tile gid="0"/>
  <tile gid="0"/>
  <tile gid="0"/>
  <tile gid="0"/>
  <tile gid="0"/>
  <tile gid="0"/>
  <tile gid="0"/>
  <tile gid="0"/>
  <tile gid="0"/>
  <tile gid="0"/>
  <tile gid="0"/>
  <tile gid="0"/>
  <tile gid="0"/>
  <tile gid="0"/>
  <tile gid="0"/>
  <tile gid="0"/>
  <tile gid="0"/>
  <tile gid="0"/>
  <tile gid="0"/>
  <tile gid="0"/>
  <tile gid="0"/>
  <tile gid="0"/>
  <tile gid="0"/>
  <tile gid="0"/>
  <tile gid="0"/>
  <tile gid="0"/>
  <tile gid="0"/>
  <tile gid="0"/>
  <tile gid="0"/>
  <tile gid="0"/>
  <tile gid="0"/>
  <tile gid="0"/>
  <tile gid="0"/>
  <tile gid="0"/>
  <tile gid="0"/>
  <tile gid="0"/>
  <tile gid="0"/>
  <tile gid="0"/>
  <tile gid="0"/>
  <tile gid="0"/>
  <tile gid="0"/>
  <tile gid="0"/>
  <tile gid="0"/>
  <tile gid="0"/>
  <tile gid="0"/>
  <tile gid="0"/>
  <tile gid="0"/>
  <tile gid="0"/>
  <tile gid="0"/>
  <tile gid="0"/>
  <tile gid="0"/>
  <tile gid="0"/>
  <tile gid="0"/>
  <tile gid="0"/>
  <tile gid="0"/>
  <tile gid="0"/>
  <tile gid="0"/>
  <tile gid="0"/>
  <tile gid="0"/>
  <tile gid="0"/>
  <tile gid="0"/>
  <tile gid="0"/>
  <tile gid="0"/>
  <tile gid="0"/>
  <tile gid="0"/>
  <tile gid="0"/>
  <tile gid="0"/>
  <tile gid="0"/>
  <tile gid="0"/>
  <tile gid="0"/>
  <tile gid="0"/>
  <tile gid="0"/>
  <tile gid="0"/>
  <tile gid="0"/>
  <tile gid="0"/>
  <tile gid="0"/>
  <tile gid="0"/>
  <tile gid="0"/>
  <tile gid="0"/>
  <tile gid="0"/>
  <tile gid="0"/>
  <tile gid="0"/>
  <tile gid="0"/>
  <tile gid="0"/>
  <tile gid="0"/>
  <tile gid="0"/>
  <tile gid="0"/>
  <tile gid="0"/>
  <tile gid="0"/>
  <tile gid="0"/>
  <tile gid="0"/>
  <tile gid="0"/>
  <tile gid="0"/>
  <tile gid="0"/>
  <tile gid="0"/>
  <tile gid="0"/>
  <tile gid="0"/>
  <tile gid="0"/>
  <tile gid="0"/>
  <tile gid="0"/>
  <tile gid="0"/>
  <tile gid="0"/>
  <tile gid="0"/>
  <tile gid="0"/>
  <tile gid="0"/>
  <tile gid="0"/>
  <tile gid="0"/>
  <tile gid="0"/>
  <tile gid="0"/>
  <tile gid="0"/>
  <tile gid="0"/>
  <tile gid="0"/>
  <tile gid="0"/>
  <tile gid="0"/>
  <tile gid="0"/>
  <tile gid="0"/>
  <tile gid="0"/>
  <tile gid="0"/>
  <tile gid="0"/>
  <tile gid="0"/>
  <tile gid="0"/>
  <tile gid="0"/>
  <tile gid="0"/>
  <tile gid="0"/>
  <tile gid="0"/>
  <tile gid="0"/>
  <tile gid="0"/>
  <tile gid="0"/>
  <tile gid="0"/>
  <tile gid="0"/>
  <tile gid="0"/>
  <tile gid="0"/>
  <tile gid="0"/>
  <tile gid="0"/>
  <tile gid="0"/>
  <tile gid="0"/>
  <tile gid="0"/>
  <tile gid="0"/>
  <tile gid="0"/>
  <tile gid="0"/>
  <tile gid="0"/>
  <tile gid="0"/>
  <tile gid="0"/>
  <tile gid="0"/>
  <tile gid="0"/>
  <tile gid="0"/>
  <tile gid="0"/>
  <tile gid="0"/>
  <tile gid="0"/>
  <tile gid="0"/>
  <tile gid="0"/>
  <tile gid="0"/>
  <tile gid="0"/>
  </data>
 </layer>
 <layer name="Map Change 4" width="32" height="32">
  <properties>
   <property name="ID" value ="4"/>
   <property name="Height" value ="1"/>
   <property name="Width" value ="3"/>
   <property name="X" value ="27"/>
   <property name="Y" value ="17"/>
  </properties>
  <data>
  <tile gid="0"/>
  <tile gid="0"/>
  <tile gid="0"/>
  <tile gid="0"/>
  <tile gid="0"/>
  <tile gid="0"/>
  <tile gid="0"/>
  <tile gid="0"/>
  <tile gid="0"/>
  <tile gid="0"/>
  <tile gid="0"/>
  <tile gid="0"/>
  <tile gid="0"/>
  <tile gid="0"/>
  <tile gid="0"/>
  <tile gid="0"/>
  <tile gid="0"/>
  <tile gid="0"/>
  <tile gid="0"/>
  <tile gid="0"/>
  <tile gid="0"/>
  <tile gid="0"/>
  <tile gid="0"/>
  <tile gid="0"/>
  <tile gid="0"/>
  <tile gid="0"/>
  <tile gid="0"/>
  <tile gid="0"/>
  <tile gid="0"/>
  <tile gid="0"/>
  <tile gid="0"/>
  <tile gid="0"/>
  <tile gid="0"/>
  <tile gid="0"/>
  <tile gid="0"/>
  <tile gid="0"/>
  <tile gid="0"/>
  <tile gid="0"/>
  <tile gid="0"/>
  <tile gid="0"/>
  <tile gid="0"/>
  <tile gid="0"/>
  <tile gid="0"/>
  <tile gid="0"/>
  <tile gid="0"/>
  <tile gid="0"/>
  <tile gid="0"/>
  <tile gid="0"/>
  <tile gid="0"/>
  <tile gid="0"/>
  <tile gid="0"/>
  <tile gid="0"/>
  <tile gid="0"/>
  <tile gid="0"/>
  <tile gid="0"/>
  <tile gid="0"/>
  <tile gid="0"/>
  <tile gid="0"/>
  <tile gid="0"/>
  <tile gid="0"/>
  <tile gid="0"/>
  <tile gid="0"/>
  <tile gid="0"/>
  <tile gid="0"/>
  <tile gid="0"/>
  <tile gid="0"/>
  <tile gid="0"/>
  <tile gid="0"/>
  <tile gid="0"/>
  <tile gid="0"/>
  <tile gid="0"/>
  <tile gid="0"/>
  <tile gid="0"/>
  <tile gid="0"/>
  <tile gid="0"/>
  <tile gid="0"/>
  <tile gid="0"/>
  <tile gid="0"/>
  <tile gid="0"/>
  <tile gid="0"/>
  <tile gid="0"/>
  <tile gid="0"/>
  <tile gid="0"/>
  <tile gid="0"/>
  <tile gid="0"/>
  <tile gid="0"/>
  <tile gid="0"/>
  <tile gid="0"/>
  <tile gid="0"/>
  <tile gid="0"/>
  <tile gid="0"/>
  <tile gid="0"/>
  <tile gid="0"/>
  <tile gid="0"/>
  <tile gid="0"/>
  <tile gid="0"/>
  <tile gid="0"/>
  <tile gid="0"/>
  <tile gid="0"/>
  <tile gid="0"/>
  <tile gid="0"/>
  <tile gid="0"/>
  <tile gid="0"/>
  <tile gid="0"/>
  <tile gid="0"/>
  <tile gid="0"/>
  <tile gid="0"/>
  <tile gid="0"/>
  <tile gid="0"/>
  <tile gid="0"/>
  <tile gid="0"/>
  <tile gid="0"/>
  <tile gid="0"/>
  <tile gid="0"/>
  <tile gid="0"/>
  <tile gid="0"/>
  <tile gid="0"/>
  <tile gid="0"/>
  <tile gid="0"/>
  <tile gid="0"/>
  <tile gid="0"/>
  <tile gid="0"/>
  <tile gid="0"/>
  <tile gid="0"/>
  <tile gid="0"/>
  <tile gid="0"/>
  <tile gid="0"/>
  <tile gid="0"/>
  <tile gid="0"/>
  <tile gid="0"/>
  <tile gid="0"/>
  <tile gid="0"/>
  <tile gid="0"/>
  <tile gid="0"/>
  <tile gid="0"/>
  <tile gid="0"/>
  <tile gid="0"/>
  <tile gid="0"/>
  <tile gid="0"/>
  <tile gid="0"/>
  <tile gid="0"/>
  <tile gid="0"/>
  <tile gid="0"/>
  <tile gid="0"/>
  <tile gid="0"/>
  <tile gid="0"/>
  <tile gid="0"/>
  <tile gid="0"/>
  <tile gid="0"/>
  <tile gid="0"/>
  <tile gid="0"/>
  <tile gid="0"/>
  <tile gid="0"/>
  <tile gid="0"/>
  <tile gid="0"/>
  <tile gid="0"/>
  <tile gid="0"/>
  <tile gid="0"/>
  <tile gid="0"/>
  <tile gid="0"/>
  <tile gid="0"/>
  <tile gid="0"/>
  <tile gid="0"/>
  <tile gid="0"/>
  <tile gid="0"/>
  <tile gid="0"/>
  <tile gid="0"/>
  <tile gid="0"/>
  <tile gid="0"/>
  <tile gid="0"/>
  <tile gid="0"/>
  <tile gid="0"/>
  <tile gid="0"/>
  <tile gid="0"/>
  <tile gid="0"/>
  <tile gid="0"/>
  <tile gid="0"/>
  <tile gid="0"/>
  <tile gid="0"/>
  <tile gid="0"/>
  <tile gid="0"/>
  <tile gid="0"/>
  <tile gid="0"/>
  <tile gid="0"/>
  <tile gid="0"/>
  <tile gid="0"/>
  <tile gid="0"/>
  <tile gid="0"/>
  <tile gid="0"/>
  <tile gid="0"/>
  <tile gid="0"/>
  <tile gid="0"/>
  <tile gid="0"/>
  <tile gid="0"/>
  <tile gid="0"/>
  <tile gid="0"/>
  <tile gid="0"/>
  <tile gid="0"/>
  <tile gid="0"/>
  <tile gid="0"/>
  <tile gid="0"/>
  <tile gid="0"/>
  <tile gid="0"/>
  <tile gid="0"/>
  <tile gid="0"/>
  <tile gid="0"/>
  <tile gid="0"/>
  <tile gid="0"/>
  <tile gid="0"/>
  <tile gid="0"/>
  <tile gid="0"/>
  <tile gid="0"/>
  <tile gid="0"/>
  <tile gid="0"/>
  <tile gid="0"/>
  <tile gid="0"/>
  <tile gid="0"/>
  <tile gid="0"/>
  <tile gid="0"/>
  <tile gid="0"/>
  <tile gid="0"/>
  <tile gid="0"/>
  <tile gid="0"/>
  <tile gid="0"/>
  <tile gid="0"/>
  <tile gid="0"/>
  <tile gid="0"/>
  <tile gid="0"/>
  <tile gid="0"/>
  <tile gid="0"/>
  <tile gid="0"/>
  <tile gid="0"/>
  <tile gid="0"/>
  <tile gid="0"/>
  <tile gid="0"/>
  <tile gid="0"/>
  <tile gid="0"/>
  <tile gid="0"/>
  <tile gid="0"/>
  <tile gid="0"/>
  <tile gid="0"/>
  <tile gid="0"/>
  <tile gid="0"/>
  <tile gid="0"/>
  <tile gid="0"/>
  <tile gid="0"/>
  <tile gid="0"/>
  <tile gid="0"/>
  <tile gid="0"/>
  <tile gid="0"/>
  <tile gid="0"/>
  <tile gid="0"/>
  <tile gid="0"/>
  <tile gid="0"/>
  <tile gid="0"/>
  <tile gid="0"/>
  <tile gid="0"/>
  <tile gid="0"/>
  <tile gid="0"/>
  <tile gid="0"/>
  <tile gid="0"/>
  <tile gid="0"/>
  <tile gid="0"/>
  <tile gid="0"/>
  <tile gid="0"/>
  <tile gid="0"/>
  <tile gid="0"/>
  <tile gid="0"/>
  <tile gid="0"/>
  <tile gid="0"/>
  <tile gid="0"/>
  <tile gid="0"/>
  <tile gid="0"/>
  <tile gid="0"/>
  <tile gid="0"/>
  <tile gid="0"/>
  <tile gid="0"/>
  <tile gid="0"/>
  <tile gid="0"/>
  <tile gid="0"/>
  <tile gid="0"/>
  <tile gid="0"/>
  <tile gid="0"/>
  <tile gid="0"/>
  <tile gid="0"/>
  <tile gid="0"/>
  <tile gid="0"/>
  <tile gid="0"/>
  <tile gid="0"/>
  <tile gid="0"/>
  <tile gid="0"/>
  <tile gid="0"/>
  <tile gid="0"/>
  <tile gid="0"/>
  <tile gid="0"/>
  <tile gid="0"/>
  <tile gid="0"/>
  <tile gid="0"/>
  <tile gid="0"/>
  <tile gid="0"/>
  <tile gid="0"/>
  <tile gid="0"/>
  <tile gid="0"/>
  <tile gid="0"/>
  <tile gid="0"/>
  <tile gid="0"/>
  <tile gid="0"/>
  <tile gid="0"/>
  <tile gid="0"/>
  <tile gid="0"/>
  <tile gid="0"/>
  <tile gid="0"/>
  <tile gid="0"/>
  <tile gid="0"/>
  <tile gid="0"/>
  <tile gid="0"/>
  <tile gid="0"/>
  <tile gid="0"/>
  <tile gid="0"/>
  <tile gid="0"/>
  <tile gid="0"/>
  <tile gid="0"/>
  <tile gid="0"/>
  <tile gid="0"/>
  <tile gid="0"/>
  <tile gid="0"/>
  <tile gid="0"/>
  <tile gid="0"/>
  <tile gid="0"/>
  <tile gid="0"/>
  <tile gid="0"/>
  <tile gid="0"/>
  <tile gid="0"/>
  <tile gid="0"/>
  <tile gid="0"/>
  <tile gid="0"/>
  <tile gid="0"/>
  <tile gid="0"/>
  <tile gid="0"/>
  <tile gid="0"/>
  <tile gid="0"/>
  <tile gid="0"/>
  <tile gid="0"/>
  <tile gid="0"/>
  <tile gid="0"/>
  <tile gid="0"/>
  <tile gid="0"/>
  <tile gid="0"/>
  <tile gid="0"/>
  <tile gid="0"/>
  <tile gid="0"/>
  <tile gid="0"/>
  <tile gid="0"/>
  <tile gid="0"/>
  <tile gid="0"/>
  <tile gid="0"/>
  <tile gid="0"/>
  <tile gid="0"/>
  <tile gid="0"/>
  <tile gid="0"/>
  <tile gid="0"/>
  <tile gid="0"/>
  <tile gid="0"/>
  <tile gid="0"/>
  <tile gid="0"/>
  <tile gid="0"/>
  <tile gid="0"/>
  <tile gid="0"/>
  <tile gid="0"/>
  <tile gid="0"/>
  <tile gid="0"/>
  <tile gid="0"/>
  <tile gid="0"/>
  <tile gid="0"/>
  <tile gid="0"/>
  <tile gid="0"/>
  <tile gid="0"/>
  <tile gid="0"/>
  <tile gid="0"/>
  <tile gid="0"/>
  <tile gid="0"/>
  <tile gid="0"/>
  <tile gid="0"/>
  <tile gid="0"/>
  <tile gid="0"/>
  <tile gid="0"/>
  <tile gid="0"/>
  <tile gid="0"/>
  <tile gid="0"/>
  <tile gid="0"/>
  <tile gid="0"/>
  <tile gid="0"/>
  <tile gid="0"/>
  <tile gid="0"/>
  <tile gid="0"/>
  <tile gid="0"/>
  <tile gid="0"/>
  <tile gid="0"/>
  <tile gid="0"/>
  <tile gid="0"/>
  <tile gid="0"/>
  <tile gid="0"/>
  <tile gid="0"/>
  <tile gid="0"/>
  <tile gid="0"/>
  <tile gid="0"/>
  <tile gid="0"/>
  <tile gid="0"/>
  <tile gid="0"/>
  <tile gid="0"/>
  <tile gid="0"/>
  <tile gid="0"/>
  <tile gid="0"/>
  <tile gid="0"/>
  <tile gid="0"/>
  <tile gid="0"/>
  <tile gid="0"/>
  <tile gid="0"/>
  <tile gid="0"/>
  <tile gid="0"/>
  <tile gid="0"/>
  <tile gid="0"/>
  <tile gid="0"/>
  <tile gid="0"/>
  <tile gid="0"/>
  <tile gid="0"/>
  <tile gid="0"/>
  <tile gid="0"/>
  <tile gid="0"/>
  <tile gid="0"/>
  <tile gid="0"/>
  <tile gid="0"/>
  <tile gid="0"/>
  <tile gid="0"/>
  <tile gid="0"/>
  <tile gid="0"/>
  <tile gid="0"/>
  <tile gid="0"/>
  <tile gid="0"/>
  <tile gid="0"/>
  <tile gid="0"/>
  <tile gid="0"/>
  <tile gid="0"/>
  <tile gid="0"/>
  <tile gid="0"/>
  <tile gid="0"/>
  <tile gid="0"/>
  <tile gid="0"/>
  <tile gid="0"/>
  <tile gid="0"/>
  <tile gid="0"/>
  <tile gid="0"/>
  <tile gid="0"/>
  <tile gid="0"/>
  <tile gid="0"/>
  <tile gid="0"/>
  <tile gid="0"/>
  <tile gid="0"/>
  <tile gid="0"/>
  <tile gid="0"/>
  <tile gid="0"/>
  <tile gid="0"/>
  <tile gid="0"/>
  <tile gid="0"/>
  <tile gid="0"/>
  <tile gid="0"/>
  <tile gid="0"/>
  <tile gid="0"/>
  <tile gid="0"/>
  <tile gid="0"/>
  <tile gid="0"/>
  <tile gid="0"/>
  <tile gid="0"/>
  <tile gid="0"/>
  <tile gid="0"/>
  <tile gid="0"/>
  <tile gid="0"/>
  <tile gid="0"/>
  <tile gid="0"/>
  <tile gid="0"/>
  <tile gid="0"/>
  <tile gid="0"/>
  <tile gid="0"/>
  <tile gid="0"/>
  <tile gid="0"/>
  <tile gid="0"/>
  <tile gid="0"/>
  <tile gid="0"/>
  <tile gid="0"/>
  <tile gid="0"/>
  <tile gid="0"/>
  <tile gid="0"/>
  <tile gid="0"/>
  <tile gid="0"/>
  <tile gid="0"/>
  <tile gid="0"/>
  <tile gid="0"/>
  <tile gid="0"/>
  <tile gid="0"/>
  <tile gid="0"/>
  <tile gid="0"/>
  <tile gid="0"/>
  <tile gid="0"/>
  <tile gid="0"/>
  <tile gid="0"/>
  <tile gid="0"/>
  <tile gid="0"/>
  <tile gid="0"/>
  <tile gid="0"/>
  <tile gid="0"/>
  <tile gid="0"/>
  <tile gid="0"/>
  <tile gid="0"/>
  <tile gid="0"/>
  <tile gid="0"/>
  <tile gid="0"/>
  <tile gid="0"/>
  <tile gid="0"/>
  <tile gid="0"/>
  <tile gid="0"/>
  <tile gid="0"/>
  <tile gid="0"/>
  <tile gid="0"/>
  <tile gid="0"/>
  <tile gid="0"/>
  <tile gid="0"/>
  <tile gid="0"/>
  <tile gid="0"/>
  <tile gid="0"/>
  <tile gid="0"/>
  <tile gid="0"/>
  <tile gid="0"/>
  <tile gid="0"/>
  <tile gid="0"/>
  <tile gid="0"/>
  <tile gid="0"/>
  <tile gid="0"/>
  <tile gid="0"/>
  <tile gid="0"/>
  <tile gid="0"/>
  <tile gid="0"/>
  <tile gid="0"/>
  <tile gid="0"/>
  <tile gid="0"/>
  <tile gid="0"/>
  <tile gid="0"/>
  <tile gid="0"/>
  <tile gid="0"/>
  <tile gid="0"/>
  <tile gid="0"/>
  <tile gid="0"/>
  <tile gid="0"/>
  <tile gid="0"/>
  <tile gid="0"/>
  <tile gid="0"/>
  <tile gid="0"/>
  <tile gid="0"/>
  <tile gid="0"/>
  <tile gid="0"/>
  <tile gid="0"/>
  <tile gid="0"/>
  <tile gid="0"/>
  <tile gid="0"/>
  <tile gid="0"/>
  <tile gid="0"/>
  <tile gid="0"/>
  <tile gid="0"/>
  <tile gid="0"/>
  <tile gid="0"/>
  <tile gid="0"/>
  <tile gid="0"/>
  <tile gid="1"/>
  <tile gid="941"/>
  <tile gid="1"/>
  <tile gid="0"/>
  <tile gid="0"/>
  <tile gid="0"/>
  <tile gid="0"/>
  <tile gid="0"/>
  <tile gid="0"/>
  <tile gid="0"/>
  <tile gid="0"/>
  <tile gid="0"/>
  <tile gid="0"/>
  <tile gid="0"/>
  <tile gid="0"/>
  <tile gid="0"/>
  <tile gid="0"/>
  <tile gid="0"/>
  <tile gid="0"/>
  <tile gid="0"/>
  <tile gid="0"/>
  <tile gid="0"/>
  <tile gid="0"/>
  <tile gid="0"/>
  <tile gid="0"/>
  <tile gid="0"/>
  <tile gid="0"/>
  <tile gid="0"/>
  <tile gid="0"/>
  <tile gid="0"/>
  <tile gid="0"/>
  <tile gid="0"/>
  <tile gid="0"/>
  <tile gid="0"/>
  <tile gid="0"/>
  <tile gid="0"/>
  <tile gid="0"/>
  <tile gid="0"/>
  <tile gid="0"/>
  <tile gid="0"/>
  <tile gid="0"/>
  <tile gid="0"/>
  <tile gid="0"/>
  <tile gid="0"/>
  <tile gid="0"/>
  <tile gid="0"/>
  <tile gid="0"/>
  <tile gid="0"/>
  <tile gid="0"/>
  <tile gid="0"/>
  <tile gid="0"/>
  <tile gid="0"/>
  <tile gid="0"/>
  <tile gid="0"/>
  <tile gid="0"/>
  <tile gid="0"/>
  <tile gid="0"/>
  <tile gid="0"/>
  <tile gid="0"/>
  <tile gid="0"/>
  <tile gid="0"/>
  <tile gid="0"/>
  <tile gid="0"/>
  <tile gid="0"/>
  <tile gid="0"/>
  <tile gid="0"/>
  <tile gid="0"/>
  <tile gid="0"/>
  <tile gid="0"/>
  <tile gid="0"/>
  <tile gid="0"/>
  <tile gid="0"/>
  <tile gid="0"/>
  <tile gid="0"/>
  <tile gid="0"/>
  <tile gid="0"/>
  <tile gid="0"/>
  <tile gid="0"/>
  <tile gid="0"/>
  <tile gid="0"/>
  <tile gid="0"/>
  <tile gid="0"/>
  <tile gid="0"/>
  <tile gid="0"/>
  <tile gid="0"/>
  <tile gid="0"/>
  <tile gid="0"/>
  <tile gid="0"/>
  <tile gid="0"/>
  <tile gid="0"/>
  <tile gid="0"/>
  <tile gid="0"/>
  <tile gid="0"/>
  <tile gid="0"/>
  <tile gid="0"/>
  <tile gid="0"/>
  <tile gid="0"/>
  <tile gid="0"/>
  <tile gid="0"/>
  <tile gid="0"/>
  <tile gid="0"/>
  <tile gid="0"/>
  <tile gid="0"/>
  <tile gid="0"/>
  <tile gid="0"/>
  <tile gid="0"/>
  <tile gid="0"/>
  <tile gid="0"/>
  <tile gid="0"/>
  <tile gid="0"/>
  <tile gid="0"/>
  <tile gid="0"/>
  <tile gid="0"/>
  <tile gid="0"/>
  <tile gid="0"/>
  <tile gid="0"/>
  <tile gid="0"/>
  <tile gid="0"/>
  <tile gid="0"/>
  <tile gid="0"/>
  <tile gid="0"/>
  <tile gid="0"/>
  <tile gid="0"/>
  <tile gid="0"/>
  <tile gid="0"/>
  <tile gid="0"/>
  <tile gid="0"/>
  <tile gid="0"/>
  <tile gid="0"/>
  <tile gid="0"/>
  <tile gid="0"/>
  <tile gid="0"/>
  <tile gid="0"/>
  <tile gid="0"/>
  <tile gid="0"/>
  <tile gid="0"/>
  <tile gid="0"/>
  <tile gid="0"/>
  <tile gid="0"/>
  <tile gid="0"/>
  <tile gid="0"/>
  <tile gid="0"/>
  <tile gid="0"/>
  <tile gid="0"/>
  <tile gid="0"/>
  <tile gid="0"/>
  <tile gid="0"/>
  <tile gid="0"/>
  <tile gid="0"/>
  <tile gid="0"/>
  <tile gid="0"/>
  <tile gid="0"/>
  <tile gid="0"/>
  <tile gid="0"/>
  <tile gid="0"/>
  <tile gid="0"/>
  <tile gid="0"/>
  <tile gid="0"/>
  <tile gid="0"/>
  <tile gid="0"/>
  <tile gid="0"/>
  <tile gid="0"/>
  <tile gid="0"/>
  <tile gid="0"/>
  <tile gid="0"/>
  <tile gid="0"/>
  <tile gid="0"/>
  <tile gid="0"/>
  <tile gid="0"/>
  <tile gid="0"/>
  <tile gid="0"/>
  <tile gid="0"/>
  <tile gid="0"/>
  <tile gid="0"/>
  <tile gid="0"/>
  <tile gid="0"/>
  <tile gid="0"/>
  <tile gid="0"/>
  <tile gid="0"/>
  <tile gid="0"/>
  <tile gid="0"/>
  <tile gid="0"/>
  <tile gid="0"/>
  <tile gid="0"/>
  <tile gid="0"/>
  <tile gid="0"/>
  <tile gid="0"/>
  <tile gid="0"/>
  <tile gid="0"/>
  <tile gid="0"/>
  <tile gid="0"/>
  <tile gid="0"/>
  <tile gid="0"/>
  <tile gid="0"/>
  <tile gid="0"/>
  <tile gid="0"/>
  <tile gid="0"/>
  <tile gid="0"/>
  <tile gid="0"/>
  <tile gid="0"/>
  <tile gid="0"/>
  <tile gid="0"/>
  <tile gid="0"/>
  <tile gid="0"/>
  <tile gid="0"/>
  <tile gid="0"/>
  <tile gid="0"/>
  <tile gid="0"/>
  <tile gid="0"/>
  <tile gid="0"/>
  <tile gid="0"/>
  <tile gid="0"/>
  <tile gid="0"/>
  <tile gid="0"/>
  <tile gid="0"/>
  <tile gid="0"/>
  <tile gid="0"/>
  <tile gid="0"/>
  <tile gid="0"/>
  <tile gid="0"/>
  <tile gid="0"/>
  <tile gid="0"/>
  <tile gid="0"/>
  <tile gid="0"/>
  <tile gid="0"/>
  <tile gid="0"/>
  <tile gid="0"/>
  <tile gid="0"/>
  <tile gid="0"/>
  <tile gid="0"/>
  <tile gid="0"/>
  <tile gid="0"/>
  <tile gid="0"/>
  <tile gid="0"/>
  <tile gid="0"/>
  <tile gid="0"/>
  <tile gid="0"/>
  <tile gid="0"/>
  <tile gid="0"/>
  <tile gid="0"/>
  <tile gid="0"/>
  <tile gid="0"/>
  <tile gid="0"/>
  <tile gid="0"/>
  <tile gid="0"/>
  <tile gid="0"/>
  <tile gid="0"/>
  <tile gid="0"/>
  <tile gid="0"/>
  <tile gid="0"/>
  <tile gid="0"/>
  <tile gid="0"/>
  <tile gid="0"/>
  <tile gid="0"/>
  <tile gid="0"/>
  <tile gid="0"/>
  <tile gid="0"/>
  <tile gid="0"/>
  <tile gid="0"/>
  <tile gid="0"/>
  <tile gid="0"/>
  <tile gid="0"/>
  <tile gid="0"/>
  <tile gid="0"/>
  <tile gid="0"/>
  <tile gid="0"/>
  <tile gid="0"/>
  <tile gid="0"/>
  <tile gid="0"/>
  <tile gid="0"/>
  <tile gid="0"/>
  <tile gid="0"/>
  <tile gid="0"/>
  <tile gid="0"/>
  <tile gid="0"/>
  <tile gid="0"/>
  <tile gid="0"/>
  <tile gid="0"/>
  <tile gid="0"/>
  <tile gid="0"/>
  <tile gid="0"/>
  <tile gid="0"/>
  <tile gid="0"/>
  <tile gid="0"/>
  <tile gid="0"/>
  <tile gid="0"/>
  <tile gid="0"/>
  <tile gid="0"/>
  <tile gid="0"/>
  <tile gid="0"/>
  <tile gid="0"/>
  <tile gid="0"/>
  <tile gid="0"/>
  <tile gid="0"/>
  <tile gid="0"/>
  <tile gid="0"/>
  <tile gid="0"/>
  <tile gid="0"/>
  <tile gid="0"/>
  <tile gid="0"/>
  <tile gid="0"/>
  <tile gid="0"/>
  <tile gid="0"/>
  <tile gid="0"/>
  <tile gid="0"/>
  <tile gid="0"/>
  <tile gid="0"/>
  <tile gid="0"/>
  <tile gid="0"/>
  <tile gid="0"/>
  <tile gid="0"/>
  <tile gid="0"/>
  <tile gid="0"/>
  <tile gid="0"/>
  <tile gid="0"/>
  <tile gid="0"/>
  <tile gid="0"/>
  <tile gid="0"/>
  <tile gid="0"/>
  <tile gid="0"/>
  <tile gid="0"/>
  <tile gid="0"/>
  <tile gid="0"/>
  <tile gid="0"/>
  <tile gid="0"/>
  <tile gid="0"/>
  <tile gid="0"/>
  <tile gid="0"/>
  <tile gid="0"/>
  <tile gid="0"/>
  <tile gid="0"/>
  <tile gid="0"/>
  <tile gid="0"/>
  <tile gid="0"/>
  <tile gid="0"/>
  <tile gid="0"/>
  <tile gid="0"/>
  <tile gid="0"/>
  <tile gid="0"/>
  <tile gid="0"/>
  <tile gid="0"/>
  <tile gid="0"/>
  <tile gid="0"/>
  <tile gid="0"/>
  <tile gid="0"/>
  <tile gid="0"/>
  <tile gid="0"/>
  <tile gid="0"/>
  <tile gid="0"/>
  <tile gid="0"/>
  <tile gid="0"/>
  <tile gid="0"/>
  <tile gid="0"/>
  <tile gid="0"/>
  <tile gid="0"/>
  <tile gid="0"/>
  <tile gid="0"/>
  <tile gid="0"/>
  <tile gid="0"/>
  <tile gid="0"/>
  <tile gid="0"/>
  <tile gid="0"/>
  <tile gid="0"/>
  <tile gid="0"/>
  <tile gid="0"/>
  <tile gid="0"/>
  <tile gid="0"/>
  <tile gid="0"/>
  <tile gid="0"/>
  <tile gid="0"/>
  <tile gid="0"/>
  <tile gid="0"/>
  <tile gid="0"/>
  <tile gid="0"/>
  <tile gid="0"/>
  <tile gid="0"/>
  <tile gid="0"/>
  <tile gid="0"/>
  <tile gid="0"/>
  <tile gid="0"/>
  <tile gid="0"/>
  <tile gid="0"/>
  <tile gid="0"/>
  <tile gid="0"/>
  <tile gid="0"/>
  <tile gid="0"/>
  <tile gid="0"/>
  <tile gid="0"/>
  <tile gid="0"/>
  <tile gid="0"/>
  <tile gid="0"/>
  <tile gid="0"/>
  <tile gid="0"/>
  <tile gid="0"/>
  <tile gid="0"/>
  <tile gid="0"/>
  <tile gid="0"/>
  <tile gid="0"/>
  <tile gid="0"/>
  <tile gid="0"/>
  <tile gid="0"/>
  <tile gid="0"/>
  <tile gid="0"/>
  <tile gid="0"/>
  <tile gid="0"/>
  <tile gid="0"/>
  <tile gid="0"/>
  <tile gid="0"/>
  <tile gid="0"/>
  <tile gid="0"/>
  <tile gid="0"/>
  <tile gid="0"/>
  <tile gid="0"/>
  <tile gid="0"/>
  <tile gid="0"/>
  <tile gid="0"/>
  <tile gid="0"/>
  <tile gid="0"/>
  <tile gid="0"/>
  <tile gid="0"/>
  <tile gid="0"/>
  <tile gid="0"/>
  <tile gid="0"/>
  <tile gid="0"/>
  <tile gid="0"/>
  <tile gid="0"/>
  <tile gid="0"/>
  <tile gid="0"/>
  <tile gid="0"/>
  <tile gid="0"/>
  <tile gid="0"/>
  <tile gid="0"/>
  <tile gid="0"/>
  <tile gid="0"/>
  <tile gid="0"/>
  <tile gid="0"/>
  <tile gid="0"/>
  <tile gid="0"/>
  <tile gid="0"/>
  <tile gid="0"/>
  <tile gid="0"/>
  <tile gid="0"/>
  <tile gid="0"/>
  <tile gid="0"/>
  <tile gid="0"/>
  <tile gid="0"/>
  <tile gid="0"/>
  <tile gid="0"/>
  <tile gid="0"/>
  <tile gid="0"/>
  <tile gid="0"/>
  <tile gid="0"/>
  <tile gid="0"/>
  </data>
 </layer>
 <layer name="Map Change 5" width="32" height="32">
  <properties>
   <property name="ID" value ="5"/>
   <property name="Height" value ="1"/>
   <property name="Width" value ="3"/>
   <property name="X" value ="26"/>
   <property name="Y" value ="24"/>
  </properties>
  <data>
  <tile gid="0"/>
  <tile gid="0"/>
  <tile gid="0"/>
  <tile gid="0"/>
  <tile gid="0"/>
  <tile gid="0"/>
  <tile gid="0"/>
  <tile gid="0"/>
  <tile gid="0"/>
  <tile gid="0"/>
  <tile gid="0"/>
  <tile gid="0"/>
  <tile gid="0"/>
  <tile gid="0"/>
  <tile gid="0"/>
  <tile gid="0"/>
  <tile gid="0"/>
  <tile gid="0"/>
  <tile gid="0"/>
  <tile gid="0"/>
  <tile gid="0"/>
  <tile gid="0"/>
  <tile gid="0"/>
  <tile gid="0"/>
  <tile gid="0"/>
  <tile gid="0"/>
  <tile gid="0"/>
  <tile gid="0"/>
  <tile gid="0"/>
  <tile gid="0"/>
  <tile gid="0"/>
  <tile gid="0"/>
  <tile gid="0"/>
  <tile gid="0"/>
  <tile gid="0"/>
  <tile gid="0"/>
  <tile gid="0"/>
  <tile gid="0"/>
  <tile gid="0"/>
  <tile gid="0"/>
  <tile gid="0"/>
  <tile gid="0"/>
  <tile gid="0"/>
  <tile gid="0"/>
  <tile gid="0"/>
  <tile gid="0"/>
  <tile gid="0"/>
  <tile gid="0"/>
  <tile gid="0"/>
  <tile gid="0"/>
  <tile gid="0"/>
  <tile gid="0"/>
  <tile gid="0"/>
  <tile gid="0"/>
  <tile gid="0"/>
  <tile gid="0"/>
  <tile gid="0"/>
  <tile gid="0"/>
  <tile gid="0"/>
  <tile gid="0"/>
  <tile gid="0"/>
  <tile gid="0"/>
  <tile gid="0"/>
  <tile gid="0"/>
  <tile gid="0"/>
  <tile gid="0"/>
  <tile gid="0"/>
  <tile gid="0"/>
  <tile gid="0"/>
  <tile gid="0"/>
  <tile gid="0"/>
  <tile gid="0"/>
  <tile gid="0"/>
  <tile gid="0"/>
  <tile gid="0"/>
  <tile gid="0"/>
  <tile gid="0"/>
  <tile gid="0"/>
  <tile gid="0"/>
  <tile gid="0"/>
  <tile gid="0"/>
  <tile gid="0"/>
  <tile gid="0"/>
  <tile gid="0"/>
  <tile gid="0"/>
  <tile gid="0"/>
  <tile gid="0"/>
  <tile gid="0"/>
  <tile gid="0"/>
  <tile gid="0"/>
  <tile gid="0"/>
  <tile gid="0"/>
  <tile gid="0"/>
  <tile gid="0"/>
  <tile gid="0"/>
  <tile gid="0"/>
  <tile gid="0"/>
  <tile gid="0"/>
  <tile gid="0"/>
  <tile gid="0"/>
  <tile gid="0"/>
  <tile gid="0"/>
  <tile gid="0"/>
  <tile gid="0"/>
  <tile gid="0"/>
  <tile gid="0"/>
  <tile gid="0"/>
  <tile gid="0"/>
  <tile gid="0"/>
  <tile gid="0"/>
  <tile gid="0"/>
  <tile gid="0"/>
  <tile gid="0"/>
  <tile gid="0"/>
  <tile gid="0"/>
  <tile gid="0"/>
  <tile gid="0"/>
  <tile gid="0"/>
  <tile gid="0"/>
  <tile gid="0"/>
  <tile gid="0"/>
  <tile gid="0"/>
  <tile gid="0"/>
  <tile gid="0"/>
  <tile gid="0"/>
  <tile gid="0"/>
  <tile gid="0"/>
  <tile gid="0"/>
  <tile gid="0"/>
  <tile gid="0"/>
  <tile gid="0"/>
  <tile gid="0"/>
  <tile gid="0"/>
  <tile gid="0"/>
  <tile gid="0"/>
  <tile gid="0"/>
  <tile gid="0"/>
  <tile gid="0"/>
  <tile gid="0"/>
  <tile gid="0"/>
  <tile gid="0"/>
  <tile gid="0"/>
  <tile gid="0"/>
  <tile gid="0"/>
  <tile gid="0"/>
  <tile gid="0"/>
  <tile gid="0"/>
  <tile gid="0"/>
  <tile gid="0"/>
  <tile gid="0"/>
  <tile gid="0"/>
  <tile gid="0"/>
  <tile gid="0"/>
  <tile gid="0"/>
  <tile gid="0"/>
  <tile gid="0"/>
  <tile gid="0"/>
  <tile gid="0"/>
  <tile gid="0"/>
  <tile gid="0"/>
  <tile gid="0"/>
  <tile gid="0"/>
  <tile gid="0"/>
  <tile gid="0"/>
  <tile gid="0"/>
  <tile gid="0"/>
  <tile gid="0"/>
  <tile gid="0"/>
  <tile gid="0"/>
  <tile gid="0"/>
  <tile gid="0"/>
  <tile gid="0"/>
  <tile gid="0"/>
  <tile gid="0"/>
  <tile gid="0"/>
  <tile gid="0"/>
  <tile gid="0"/>
  <tile gid="0"/>
  <tile gid="0"/>
  <tile gid="0"/>
  <tile gid="0"/>
  <tile gid="0"/>
  <tile gid="0"/>
  <tile gid="0"/>
  <tile gid="0"/>
  <tile gid="0"/>
  <tile gid="0"/>
  <tile gid="0"/>
  <tile gid="0"/>
  <tile gid="0"/>
  <tile gid="0"/>
  <tile gid="0"/>
  <tile gid="0"/>
  <tile gid="0"/>
  <tile gid="0"/>
  <tile gid="0"/>
  <tile gid="0"/>
  <tile gid="0"/>
  <tile gid="0"/>
  <tile gid="0"/>
  <tile gid="0"/>
  <tile gid="0"/>
  <tile gid="0"/>
  <tile gid="0"/>
  <tile gid="0"/>
  <tile gid="0"/>
  <tile gid="0"/>
  <tile gid="0"/>
  <tile gid="0"/>
  <tile gid="0"/>
  <tile gid="0"/>
  <tile gid="0"/>
  <tile gid="0"/>
  <tile gid="0"/>
  <tile gid="0"/>
  <tile gid="0"/>
  <tile gid="0"/>
  <tile gid="0"/>
  <tile gid="0"/>
  <tile gid="0"/>
  <tile gid="0"/>
  <tile gid="0"/>
  <tile gid="0"/>
  <tile gid="0"/>
  <tile gid="0"/>
  <tile gid="0"/>
  <tile gid="0"/>
  <tile gid="0"/>
  <tile gid="0"/>
  <tile gid="0"/>
  <tile gid="0"/>
  <tile gid="0"/>
  <tile gid="0"/>
  <tile gid="0"/>
  <tile gid="0"/>
  <tile gid="0"/>
  <tile gid="0"/>
  <tile gid="0"/>
  <tile gid="0"/>
  <tile gid="0"/>
  <tile gid="0"/>
  <tile gid="0"/>
  <tile gid="0"/>
  <tile gid="0"/>
  <tile gid="0"/>
  <tile gid="0"/>
  <tile gid="0"/>
  <tile gid="0"/>
  <tile gid="0"/>
  <tile gid="0"/>
  <tile gid="0"/>
  <tile gid="0"/>
  <tile gid="0"/>
  <tile gid="0"/>
  <tile gid="0"/>
  <tile gid="0"/>
  <tile gid="0"/>
  <tile gid="0"/>
  <tile gid="0"/>
  <tile gid="0"/>
  <tile gid="0"/>
  <tile gid="0"/>
  <tile gid="0"/>
  <tile gid="0"/>
  <tile gid="0"/>
  <tile gid="0"/>
  <tile gid="0"/>
  <tile gid="0"/>
  <tile gid="0"/>
  <tile gid="0"/>
  <tile gid="0"/>
  <tile gid="0"/>
  <tile gid="0"/>
  <tile gid="0"/>
  <tile gid="0"/>
  <tile gid="0"/>
  <tile gid="0"/>
  <tile gid="0"/>
  <tile gid="0"/>
  <tile gid="0"/>
  <tile gid="0"/>
  <tile gid="0"/>
  <tile gid="0"/>
  <tile gid="0"/>
  <tile gid="0"/>
  <tile gid="0"/>
  <tile gid="0"/>
  <tile gid="0"/>
  <tile gid="0"/>
  <tile gid="0"/>
  <tile gid="0"/>
  <tile gid="0"/>
  <tile gid="0"/>
  <tile gid="0"/>
  <tile gid="0"/>
  <tile gid="0"/>
  <tile gid="0"/>
  <tile gid="0"/>
  <tile gid="0"/>
  <tile gid="0"/>
  <tile gid="0"/>
  <tile gid="0"/>
  <tile gid="0"/>
  <tile gid="0"/>
  <tile gid="0"/>
  <tile gid="0"/>
  <tile gid="0"/>
  <tile gid="0"/>
  <tile gid="0"/>
  <tile gid="0"/>
  <tile gid="0"/>
  <tile gid="0"/>
  <tile gid="0"/>
  <tile gid="0"/>
  <tile gid="0"/>
  <tile gid="0"/>
  <tile gid="0"/>
  <tile gid="0"/>
  <tile gid="0"/>
  <tile gid="0"/>
  <tile gid="0"/>
  <tile gid="0"/>
  <tile gid="0"/>
  <tile gid="0"/>
  <tile gid="0"/>
  <tile gid="0"/>
  <tile gid="0"/>
  <tile gid="0"/>
  <tile gid="0"/>
  <tile gid="0"/>
  <tile gid="0"/>
  <tile gid="0"/>
  <tile gid="0"/>
  <tile gid="0"/>
  <tile gid="0"/>
  <tile gid="0"/>
  <tile gid="0"/>
  <tile gid="0"/>
  <tile gid="0"/>
  <tile gid="0"/>
  <tile gid="0"/>
  <tile gid="0"/>
  <tile gid="0"/>
  <tile gid="0"/>
  <tile gid="0"/>
  <tile gid="0"/>
  <tile gid="0"/>
  <tile gid="0"/>
  <tile gid="0"/>
  <tile gid="0"/>
  <tile gid="0"/>
  <tile gid="0"/>
  <tile gid="0"/>
  <tile gid="0"/>
  <tile gid="0"/>
  <tile gid="0"/>
  <tile gid="0"/>
  <tile gid="0"/>
  <tile gid="0"/>
  <tile gid="0"/>
  <tile gid="0"/>
  <tile gid="0"/>
  <tile gid="0"/>
  <tile gid="0"/>
  <tile gid="0"/>
  <tile gid="0"/>
  <tile gid="0"/>
  <tile gid="0"/>
  <tile gid="0"/>
  <tile gid="0"/>
  <tile gid="0"/>
  <tile gid="0"/>
  <tile gid="0"/>
  <tile gid="0"/>
  <tile gid="0"/>
  <tile gid="0"/>
  <tile gid="0"/>
  <tile gid="0"/>
  <tile gid="0"/>
  <tile gid="0"/>
  <tile gid="0"/>
  <tile gid="0"/>
  <tile gid="0"/>
  <tile gid="0"/>
  <tile gid="0"/>
  <tile gid="0"/>
  <tile gid="0"/>
  <tile gid="0"/>
  <tile gid="0"/>
  <tile gid="0"/>
  <tile gid="0"/>
  <tile gid="0"/>
  <tile gid="0"/>
  <tile gid="0"/>
  <tile gid="0"/>
  <tile gid="0"/>
  <tile gid="0"/>
  <tile gid="0"/>
  <tile gid="0"/>
  <tile gid="0"/>
  <tile gid="0"/>
  <tile gid="0"/>
  <tile gid="0"/>
  <tile gid="0"/>
  <tile gid="0"/>
  <tile gid="0"/>
  <tile gid="0"/>
  <tile gid="0"/>
  <tile gid="0"/>
  <tile gid="0"/>
  <tile gid="0"/>
  <tile gid="0"/>
  <tile gid="0"/>
  <tile gid="0"/>
  <tile gid="0"/>
  <tile gid="0"/>
  <tile gid="0"/>
  <tile gid="0"/>
  <tile gid="0"/>
  <tile gid="0"/>
  <tile gid="0"/>
  <tile gid="0"/>
  <tile gid="0"/>
  <tile gid="0"/>
  <tile gid="0"/>
  <tile gid="0"/>
  <tile gid="0"/>
  <tile gid="0"/>
  <tile gid="0"/>
  <tile gid="0"/>
  <tile gid="0"/>
  <tile gid="0"/>
  <tile gid="0"/>
  <tile gid="0"/>
  <tile gid="0"/>
  <tile gid="0"/>
  <tile gid="0"/>
  <tile gid="0"/>
  <tile gid="0"/>
  <tile gid="0"/>
  <tile gid="0"/>
  <tile gid="0"/>
  <tile gid="0"/>
  <tile gid="0"/>
  <tile gid="0"/>
  <tile gid="0"/>
  <tile gid="0"/>
  <tile gid="0"/>
  <tile gid="0"/>
  <tile gid="0"/>
  <tile gid="0"/>
  <tile gid="0"/>
  <tile gid="0"/>
  <tile gid="0"/>
  <tile gid="0"/>
  <tile gid="0"/>
  <tile gid="0"/>
  <tile gid="0"/>
  <tile gid="0"/>
  <tile gid="0"/>
  <tile gid="0"/>
  <tile gid="0"/>
  <tile gid="0"/>
  <tile gid="0"/>
  <tile gid="0"/>
  <tile gid="0"/>
  <tile gid="0"/>
  <tile gid="0"/>
  <tile gid="0"/>
  <tile gid="0"/>
  <tile gid="0"/>
  <tile gid="0"/>
  <tile gid="0"/>
  <tile gid="0"/>
  <tile gid="0"/>
  <tile gid="0"/>
  <tile gid="0"/>
  <tile gid="0"/>
  <tile gid="0"/>
  <tile gid="0"/>
  <tile gid="0"/>
  <tile gid="0"/>
  <tile gid="0"/>
  <tile gid="0"/>
  <tile gid="0"/>
  <tile gid="0"/>
  <tile gid="0"/>
  <tile gid="0"/>
  <tile gid="0"/>
  <tile gid="0"/>
  <tile gid="0"/>
  <tile gid="0"/>
  <tile gid="0"/>
  <tile gid="0"/>
  <tile gid="0"/>
  <tile gid="0"/>
  <tile gid="0"/>
  <tile gid="0"/>
  <tile gid="0"/>
  <tile gid="0"/>
  <tile gid="0"/>
  <tile gid="0"/>
  <tile gid="0"/>
  <tile gid="0"/>
  <tile gid="0"/>
  <tile gid="0"/>
  <tile gid="0"/>
  <tile gid="0"/>
  <tile gid="0"/>
  <tile gid="0"/>
  <tile gid="0"/>
  <tile gid="0"/>
  <tile gid="0"/>
  <tile gid="0"/>
  <tile gid="0"/>
  <tile gid="0"/>
  <tile gid="0"/>
  <tile gid="0"/>
  <tile gid="0"/>
  <tile gid="0"/>
  <tile gid="0"/>
  <tile gid="0"/>
  <tile gid="0"/>
  <tile gid="0"/>
  <tile gid="0"/>
  <tile gid="0"/>
  <tile gid="0"/>
  <tile gid="0"/>
  <tile gid="0"/>
  <tile gid="0"/>
  <tile gid="0"/>
  <tile gid="0"/>
  <tile gid="0"/>
  <tile gid="0"/>
  <tile gid="0"/>
  <tile gid="0"/>
  <tile gid="0"/>
  <tile gid="0"/>
  <tile gid="0"/>
  <tile gid="0"/>
  <tile gid="0"/>
  <tile gid="0"/>
  <tile gid="0"/>
  <tile gid="0"/>
  <tile gid="0"/>
  <tile gid="0"/>
  <tile gid="0"/>
  <tile gid="0"/>
  <tile gid="0"/>
  <tile gid="0"/>
  <tile gid="0"/>
  <tile gid="0"/>
  <tile gid="0"/>
  <tile gid="0"/>
  <tile gid="0"/>
  <tile gid="0"/>
  <tile gid="0"/>
  <tile gid="0"/>
  <tile gid="0"/>
  <tile gid="0"/>
  <tile gid="0"/>
  <tile gid="0"/>
  <tile gid="0"/>
  <tile gid="0"/>
  <tile gid="0"/>
  <tile gid="0"/>
  <tile gid="0"/>
  <tile gid="0"/>
  <tile gid="0"/>
  <tile gid="0"/>
  <tile gid="0"/>
  <tile gid="0"/>
  <tile gid="0"/>
  <tile gid="0"/>
  <tile gid="0"/>
  <tile gid="0"/>
  <tile gid="0"/>
  <tile gid="0"/>
  <tile gid="0"/>
  <tile gid="0"/>
  <tile gid="0"/>
  <tile gid="0"/>
  <tile gid="0"/>
  <tile gid="0"/>
  <tile gid="0"/>
  <tile gid="0"/>
  <tile gid="0"/>
  <tile gid="0"/>
  <tile gid="0"/>
  <tile gid="0"/>
  <tile gid="0"/>
  <tile gid="0"/>
  <tile gid="0"/>
  <tile gid="0"/>
  <tile gid="0"/>
  <tile gid="0"/>
  <tile gid="0"/>
  <tile gid="0"/>
  <tile gid="0"/>
  <tile gid="0"/>
  <tile gid="0"/>
  <tile gid="0"/>
  <tile gid="0"/>
  <tile gid="0"/>
  <tile gid="0"/>
  <tile gid="0"/>
  <tile gid="0"/>
  <tile gid="0"/>
  <tile gid="0"/>
  <tile gid="0"/>
  <tile gid="0"/>
  <tile gid="0"/>
  <tile gid="0"/>
  <tile gid="0"/>
  <tile gid="0"/>
  <tile gid="0"/>
  <tile gid="0"/>
  <tile gid="0"/>
  <tile gid="0"/>
  <tile gid="0"/>
  <tile gid="0"/>
  <tile gid="0"/>
  <tile gid="0"/>
  <tile gid="0"/>
  <tile gid="0"/>
  <tile gid="0"/>
  <tile gid="0"/>
  <tile gid="0"/>
  <tile gid="0"/>
  <tile gid="0"/>
  <tile gid="0"/>
  <tile gid="0"/>
  <tile gid="0"/>
  <tile gid="0"/>
  <tile gid="0"/>
  <tile gid="0"/>
  <tile gid="0"/>
  <tile gid="0"/>
  <tile gid="0"/>
  <tile gid="0"/>
  <tile gid="0"/>
  <tile gid="0"/>
  <tile gid="0"/>
  <tile gid="0"/>
  <tile gid="0"/>
  <tile gid="0"/>
  <tile gid="0"/>
  <tile gid="0"/>
  <tile gid="0"/>
  <tile gid="0"/>
  <tile gid="0"/>
  <tile gid="0"/>
  <tile gid="0"/>
  <tile gid="0"/>
  <tile gid="0"/>
  <tile gid="0"/>
  <tile gid="0"/>
  <tile gid="0"/>
  <tile gid="0"/>
  <tile gid="0"/>
  <tile gid="0"/>
  <tile gid="0"/>
  <tile gid="0"/>
  <tile gid="0"/>
  <tile gid="0"/>
  <tile gid="0"/>
  <tile gid="0"/>
  <tile gid="0"/>
  <tile gid="0"/>
  <tile gid="0"/>
  <tile gid="0"/>
  <tile gid="0"/>
  <tile gid="0"/>
  <tile gid="0"/>
  <tile gid="0"/>
  <tile gid="0"/>
  <tile gid="0"/>
  <tile gid="0"/>
  <tile gid="0"/>
  <tile gid="0"/>
  <tile gid="0"/>
  <tile gid="0"/>
  <tile gid="0"/>
  <tile gid="0"/>
  <tile gid="0"/>
  <tile gid="0"/>
  <tile gid="0"/>
  <tile gid="0"/>
  <tile gid="0"/>
  <tile gid="0"/>
  <tile gid="0"/>
  <tile gid="0"/>
  <tile gid="0"/>
  <tile gid="0"/>
  <tile gid="0"/>
  <tile gid="0"/>
  <tile gid="0"/>
  <tile gid="0"/>
  <tile gid="0"/>
  <tile gid="0"/>
  <tile gid="0"/>
  <tile gid="0"/>
  <tile gid="0"/>
  <tile gid="0"/>
  <tile gid="0"/>
  <tile gid="0"/>
  <tile gid="0"/>
  <tile gid="0"/>
  <tile gid="0"/>
  <tile gid="0"/>
  <tile gid="0"/>
  <tile gid="0"/>
  <tile gid="0"/>
  <tile gid="0"/>
  <tile gid="0"/>
  <tile gid="0"/>
  <tile gid="0"/>
  <tile gid="0"/>
  <tile gid="0"/>
  <tile gid="0"/>
  <tile gid="0"/>
  <tile gid="0"/>
  <tile gid="0"/>
  <tile gid="0"/>
  <tile gid="0"/>
  <tile gid="0"/>
  <tile gid="0"/>
  <tile gid="0"/>
  <tile gid="0"/>
  <tile gid="0"/>
  <tile gid="0"/>
  <tile gid="0"/>
  <tile gid="0"/>
  <tile gid="0"/>
  <tile gid="0"/>
  <tile gid="0"/>
  <tile gid="0"/>
  <tile gid="0"/>
  <tile gid="0"/>
  <tile gid="0"/>
  <tile gid="0"/>
  <tile gid="0"/>
  <tile gid="0"/>
  <tile gid="0"/>
  <tile gid="0"/>
  <tile gid="0"/>
  <tile gid="0"/>
  <tile gid="0"/>
  <tile gid="0"/>
  <tile gid="0"/>
  <tile gid="0"/>
  <tile gid="0"/>
  <tile gid="0"/>
  <tile gid="0"/>
  <tile gid="0"/>
  <tile gid="0"/>
  <tile gid="0"/>
  <tile gid="0"/>
  <tile gid="0"/>
  <tile gid="0"/>
  <tile gid="0"/>
  <tile gid="0"/>
  <tile gid="0"/>
  <tile gid="0"/>
  <tile gid="0"/>
  <tile gid="0"/>
  <tile gid="0"/>
  <tile gid="0"/>
  <tile gid="0"/>
  <tile gid="0"/>
  <tile gid="0"/>
  <tile gid="0"/>
  <tile gid="0"/>
  <tile gid="0"/>
  <tile gid="0"/>
  <tile gid="0"/>
  <tile gid="0"/>
  <tile gid="0"/>
  <tile gid="0"/>
  <tile gid="0"/>
  <tile gid="0"/>
  <tile gid="0"/>
  <tile gid="0"/>
  <tile gid="0"/>
  <tile gid="0"/>
  <tile gid="0"/>
  <tile gid="0"/>
  <tile gid="0"/>
  <tile gid="0"/>
  <tile gid="0"/>
  <tile gid="0"/>
  <tile gid="0"/>
  <tile gid="0"/>
  <tile gid="0"/>
  <tile gid="1"/>
  <tile gid="941"/>
  <tile gid="1"/>
  <tile gid="0"/>
  <tile gid="0"/>
  <tile gid="0"/>
  <tile gid="0"/>
  <tile gid="0"/>
  <tile gid="0"/>
  <tile gid="0"/>
  <tile gid="0"/>
  <tile gid="0"/>
  <tile gid="0"/>
  <tile gid="0"/>
  <tile gid="0"/>
  <tile gid="0"/>
  <tile gid="0"/>
  <tile gid="0"/>
  <tile gid="0"/>
  <tile gid="0"/>
  <tile gid="0"/>
  <tile gid="0"/>
  <tile gid="0"/>
  <tile gid="0"/>
  <tile gid="0"/>
  <tile gid="0"/>
  <tile gid="0"/>
  <tile gid="0"/>
  <tile gid="0"/>
  <tile gid="0"/>
  <tile gid="0"/>
  <tile gid="0"/>
  <tile gid="0"/>
  <tile gid="0"/>
  <tile gid="0"/>
  <tile gid="0"/>
  <tile gid="0"/>
  <tile gid="0"/>
  <tile gid="0"/>
  <tile gid="0"/>
  <tile gid="0"/>
  <tile gid="0"/>
  <tile gid="0"/>
  <tile gid="0"/>
  <tile gid="0"/>
  <tile gid="0"/>
  <tile gid="0"/>
  <tile gid="0"/>
  <tile gid="0"/>
  <tile gid="0"/>
  <tile gid="0"/>
  <tile gid="0"/>
  <tile gid="0"/>
  <tile gid="0"/>
  <tile gid="0"/>
  <tile gid="0"/>
  <tile gid="0"/>
  <tile gid="0"/>
  <tile gid="0"/>
  <tile gid="0"/>
  <tile gid="0"/>
  <tile gid="0"/>
  <tile gid="0"/>
  <tile gid="0"/>
  <tile gid="0"/>
  <tile gid="0"/>
  <tile gid="0"/>
  <tile gid="0"/>
  <tile gid="0"/>
  <tile gid="0"/>
  <tile gid="0"/>
  <tile gid="0"/>
  <tile gid="0"/>
  <tile gid="0"/>
  <tile gid="0"/>
  <tile gid="0"/>
  <tile gid="0"/>
  <tile gid="0"/>
  <tile gid="0"/>
  <tile gid="0"/>
  <tile gid="0"/>
  <tile gid="0"/>
  <tile gid="0"/>
  <tile gid="0"/>
  <tile gid="0"/>
  <tile gid="0"/>
  <tile gid="0"/>
  <tile gid="0"/>
  <tile gid="0"/>
  <tile gid="0"/>
  <tile gid="0"/>
  <tile gid="0"/>
  <tile gid="0"/>
  <tile gid="0"/>
  <tile gid="0"/>
  <tile gid="0"/>
  <tile gid="0"/>
  <tile gid="0"/>
  <tile gid="0"/>
  <tile gid="0"/>
  <tile gid="0"/>
  <tile gid="0"/>
  <tile gid="0"/>
  <tile gid="0"/>
  <tile gid="0"/>
  <tile gid="0"/>
  <tile gid="0"/>
  <tile gid="0"/>
  <tile gid="0"/>
  <tile gid="0"/>
  <tile gid="0"/>
  <tile gid="0"/>
  <tile gid="0"/>
  <tile gid="0"/>
  <tile gid="0"/>
  <tile gid="0"/>
  <tile gid="0"/>
  <tile gid="0"/>
  <tile gid="0"/>
  <tile gid="0"/>
  <tile gid="0"/>
  <tile gid="0"/>
  <tile gid="0"/>
  <tile gid="0"/>
  <tile gid="0"/>
  <tile gid="0"/>
  <tile gid="0"/>
  <tile gid="0"/>
  <tile gid="0"/>
  <tile gid="0"/>
  <tile gid="0"/>
  <tile gid="0"/>
  <tile gid="0"/>
  <tile gid="0"/>
  <tile gid="0"/>
  <tile gid="0"/>
  <tile gid="0"/>
  <tile gid="0"/>
  <tile gid="0"/>
  <tile gid="0"/>
  <tile gid="0"/>
  <tile gid="0"/>
  <tile gid="0"/>
  <tile gid="0"/>
  <tile gid="0"/>
  <tile gid="0"/>
  <tile gid="0"/>
  <tile gid="0"/>
  <tile gid="0"/>
  <tile gid="0"/>
  <tile gid="0"/>
  <tile gid="0"/>
  <tile gid="0"/>
  <tile gid="0"/>
  <tile gid="0"/>
  <tile gid="0"/>
  <tile gid="0"/>
  <tile gid="0"/>
  <tile gid="0"/>
  <tile gid="0"/>
  <tile gid="0"/>
  <tile gid="0"/>
  <tile gid="0"/>
  <tile gid="0"/>
  <tile gid="0"/>
  <tile gid="0"/>
  <tile gid="0"/>
  <tile gid="0"/>
  <tile gid="0"/>
  <tile gid="0"/>
  <tile gid="0"/>
  <tile gid="0"/>
  <tile gid="0"/>
  <tile gid="0"/>
  <tile gid="0"/>
  <tile gid="0"/>
  <tile gid="0"/>
  <tile gid="0"/>
  <tile gid="0"/>
  <tile gid="0"/>
  <tile gid="0"/>
  <tile gid="0"/>
  <tile gid="0"/>
  <tile gid="0"/>
  <tile gid="0"/>
  <tile gid="0"/>
  <tile gid="0"/>
  <tile gid="0"/>
  <tile gid="0"/>
  <tile gid="0"/>
  <tile gid="0"/>
  <tile gid="0"/>
  <tile gid="0"/>
  <tile gid="0"/>
  <tile gid="0"/>
  <tile gid="0"/>
  <tile gid="0"/>
  <tile gid="0"/>
  <tile gid="0"/>
  <tile gid="0"/>
  <tile gid="0"/>
  <tile gid="0"/>
  <tile gid="0"/>
  <tile gid="0"/>
  <tile gid="0"/>
  <tile gid="0"/>
  <tile gid="0"/>
  <tile gid="0"/>
  <tile gid="0"/>
  <tile gid="0"/>
  <tile gid="0"/>
  <tile gid="0"/>
  <tile gid="0"/>
  <tile gid="0"/>
  <tile gid="0"/>
  <tile gid="0"/>
  <tile gid="0"/>
  <tile gid="0"/>
  <tile gid="0"/>
  <tile gid="0"/>
  <tile gid="0"/>
  <tile gid="0"/>
  <tile gid="0"/>
  <tile gid="0"/>
  <tile gid="0"/>
  <tile gid="0"/>
  <tile gid="0"/>
  <tile gid="0"/>
  <tile gid="0"/>
  <tile gid="0"/>
  </data>
 </layer>
</map>
