<?xml version="1.0" encoding="UTF-8"?>
<map version="1.0" orientation="orthogonal" width="32" height="25" tilewidth="16" tileheight="16">
 <tileset firstgid="1" name="0E000F10" tilewidth="16" tileheight="16">
  <image source="0E000F10.png" trans="ffffff"/>
 </tileset>
 <layer name="Tile Layer 1" width="32" height="25">
  <properties>
   <property name="Main" value =""/>
  </properties>
  <data>
  <tile gid="866"/>
  <tile gid="866"/>
  <tile gid="866"/>
  <tile gid="866"/>
  <tile gid="866"/>
  <tile gid="866"/>
  <tile gid="866"/>
  <tile gid="866"/>
  <tile gid="866"/>
  <tile gid="995"/>
  <tile gid="965"/>
  <tile gid="965"/>
  <tile gid="965"/>
  <tile gid="900"/>
  <tile gid="866"/>
  <tile gid="866"/>
  <tile gid="866"/>
  <tile gid="866"/>
  <tile gid="866"/>
  <tile gid="866"/>
  <tile gid="866"/>
  <tile gid="866"/>
  <tile gid="866"/>
  <tile gid="866"/>
  <tile gid="866"/>
  <tile gid="866"/>
  <tile gid="866"/>
  <tile gid="866"/>
  <tile gid="866"/>
  <tile gid="866"/>
  <tile gid="866"/>
  <tile gid="931"/>
  <tile gid="465"/>
  <tile gid="465"/>
  <tile gid="465"/>
  <tile gid="465"/>
  <tile gid="465"/>
  <tile gid="465"/>
  <tile gid="465"/>
  <tile gid="465"/>
  <tile gid="465"/>
  <tile gid="465"/>
  <tile gid="995"/>
  <tile gid="965"/>
  <tile gid="965"/>
  <tile gid="399"/>
  <tile gid="465"/>
  <tile gid="465"/>
  <tile gid="465"/>
  <tile gid="465"/>
  <tile gid="465"/>
  <tile gid="465"/>
  <tile gid="465"/>
  <tile gid="465"/>
  <tile gid="465"/>
  <tile gid="465"/>
  <tile gid="465"/>
  <tile gid="465"/>
  <tile gid="465"/>
  <tile gid="465"/>
  <tile gid="465"/>
  <tile gid="462"/>
  <tile gid="866"/>
  <tile gid="901"/>
  <tile gid="130"/>
  <tile gid="193"/>
  <tile gid="130"/>
  <tile gid="130"/>
  <tile gid="193"/>
  <tile gid="193"/>
  <tile gid="193"/>
  <tile gid="193"/>
  <tile gid="130"/>
  <tile gid="193"/>
  <tile gid="809"/>
  <tile gid="899"/>
  <tile gid="808"/>
  <tile gid="417"/>
  <tile gid="419"/>
  <tile gid="420"/>
  <tile gid="356"/>
  <tile gid="420"/>
  <tile gid="417"/>
  <tile gid="419"/>
  <tile gid="420"/>
  <tile gid="420"/>
  <tile gid="417"/>
  <tile gid="419"/>
  <tile gid="420"/>
  <tile gid="356"/>
  <tile gid="420"/>
  <tile gid="417"/>
  <tile gid="972"/>
  <tile gid="869"/>
  <tile gid="963"/>
  <tile gid="933"/>
  <tile gid="193"/>
  <tile gid="193"/>
  <tile gid="193"/>
  <tile gid="130"/>
  <tile gid="193"/>
  <tile gid="193"/>
  <tile gid="130"/>
  <tile gid="193"/>
  <tile gid="193"/>
  <tile gid="193"/>
  <tile gid="193"/>
  <tile gid="876"/>
  <tile gid="803"/>
  <tile gid="972"/>
  <tile gid="537"/>
  <tile gid="497"/>
  <tile gid="233"/>
  <tile gid="143"/>
  <tile gid="134"/>
  <tile gid="193"/>
  <tile gid="193"/>
  <tile gid="193"/>
  <tile gid="142"/>
  <tile gid="193"/>
  <tile gid="193"/>
  <tile gid="506"/>
  <tile gid="494"/>
  <tile gid="496"/>
  <tile gid="420"/>
  <tile gid="869"/>
  <tile gid="866"/>
  <tile gid="899"/>
  <tile gid="130"/>
  <tile gid="558"/>
  <tile gid="560"/>
  <tile gid="80"/>
  <tile gid="73"/>
  <tile gid="20"/>
  <tile gid="8"/>
  <tile gid="506"/>
  <tile gid="503"/>
  <tile gid="495"/>
  <tile gid="193"/>
  <tile gid="193"/>
  <tile gid="201"/>
  <tile gid="52"/>
  <tile gid="52"/>
  <tile gid="209"/>
  <tile gid="193"/>
  <tile gid="165"/>
  <tile gid="272"/>
  <tile gid="143"/>
  <tile gid="134"/>
  <tile gid="133"/>
  <tile gid="272"/>
  <tile gid="143"/>
  <tile gid="134"/>
  <tile gid="193"/>
  <tile gid="193"/>
  <tile gid="193"/>
  <tile gid="420"/>
  <tile gid="869"/>
  <tile gid="866"/>
  <tile gid="901"/>
  <tile gid="470"/>
  <tile gid="495"/>
  <tile gid="497"/>
  <tile gid="193"/>
  <tile gid="20"/>
  <tile gid="79"/>
  <tile gid="20"/>
  <tile gid="112"/>
  <tile gid="193"/>
  <tile gid="193"/>
  <tile gid="193"/>
  <tile gid="129"/>
  <tile gid="129"/>
  <tile gid="240"/>
  <tile gid="1004"/>
  <tile gid="1003"/>
  <tile gid="420"/>
  <tile gid="233"/>
  <tile gid="166"/>
  <tile gid="165"/>
  <tile gid="272"/>
  <tile gid="272"/>
  <tile gid="272"/>
  <tile gid="272"/>
  <tile gid="206"/>
  <tile gid="193"/>
  <tile gid="225"/>
  <tile gid="258"/>
  <tile gid="420"/>
  <tile gid="869"/>
  <tile gid="963"/>
  <tile gid="933"/>
  <tile gid="129"/>
  <tile gid="193"/>
  <tile gid="20"/>
  <tile gid="193"/>
  <tile gid="39"/>
  <tile gid="40"/>
  <tile gid="106"/>
  <tile gid="8"/>
  <tile gid="20"/>
  <tile gid="558"/>
  <tile gid="560"/>
  <tile gid="534"/>
  <tile gid="496"/>
  <tile gid="496"/>
  <tile gid="165"/>
  <tile gid="865"/>
  <tile gid="431"/>
  <tile gid="417"/>
  <tile gid="419"/>
  <tile gid="225"/>
  <tile gid="165"/>
  <tile gid="166"/>
  <tile gid="165"/>
  <tile gid="175"/>
  <tile gid="272"/>
  <tile gid="134"/>
  <tile gid="257"/>
  <tile gid="257"/>
  <tile gid="420"/>
  <tile gid="869"/>
  <tile gid="866"/>
  <tile gid="899"/>
  <tile gid="129"/>
  <tile gid="193"/>
  <tile gid="130"/>
  <tile gid="130"/>
  <tile gid="30"/>
  <tile gid="31"/>
  <tile gid="31"/>
  <tile gid="32"/>
  <tile gid="40"/>
  <tile gid="77"/>
  <tile gid="193"/>
  <tile gid="193"/>
  <tile gid="20"/>
  <tile gid="193"/>
  <tile gid="133"/>
  <tile gid="929"/>
  <tile gid="866"/>
  <tile gid="995"/>
  <tile gid="811"/>
  <tile gid="420"/>
  <tile gid="356"/>
  <tile gid="420"/>
  <tile gid="356"/>
  <tile gid="193"/>
  <tile gid="165"/>
  <tile gid="272"/>
  <tile gid="134"/>
  <tile gid="420"/>
  <tile gid="802"/>
  <tile gid="866"/>
  <tile gid="866"/>
  <tile gid="901"/>
  <tile gid="7"/>
  <tile gid="20"/>
  <tile gid="8"/>
  <tile gid="193"/>
  <tile gid="62"/>
  <tile gid="63"/>
  <tile gid="63"/>
  <tile gid="64"/>
  <tile gid="42"/>
  <tile gid="20"/>
  <tile gid="112"/>
  <tile gid="193"/>
  <tile gid="257"/>
  <tile gid="257"/>
  <tile gid="205"/>
  <tile gid="929"/>
  <tile gid="866"/>
  <tile gid="866"/>
  <tile gid="899"/>
  <tile gid="812"/>
  <tile gid="971"/>
  <tile gid="899"/>
  <tile gid="811"/>
  <tile gid="420"/>
  <tile gid="193"/>
  <tile gid="165"/>
  <tile gid="206"/>
  <tile gid="420"/>
  <tile gid="869"/>
  <tile gid="866"/>
  <tile gid="866"/>
  <tile gid="899"/>
  <tile gid="39"/>
  <tile gid="79"/>
  <tile gid="105"/>
  <tile gid="42"/>
  <tile gid="94"/>
  <tile gid="95"/>
  <tile gid="95"/>
  <tile gid="96"/>
  <tile gid="74"/>
  <tile gid="40"/>
  <tile gid="226"/>
  <tile gid="193"/>
  <tile gid="20"/>
  <tile gid="257"/>
  <tile gid="165"/>
  <tile gid="929"/>
  <tile gid="866"/>
  <tile gid="866"/>
  <tile gid="901"/>
  <tile gid="399"/>
  <tile gid="465"/>
  <tile gid="876"/>
  <tile gid="803"/>
  <tile gid="356"/>
  <tile gid="257"/>
  <tile gid="133"/>
  <tile gid="206"/>
  <tile gid="420"/>
  <tile gid="869"/>
  <tile gid="866"/>
  <tile gid="866"/>
  <tile gid="901"/>
  <tile gid="130"/>
  <tile gid="10"/>
  <tile gid="20"/>
  <tile gid="40"/>
  <tile gid="106"/>
  <tile gid="79"/>
  <tile gid="40"/>
  <tile gid="193"/>
  <tile gid="20"/>
  <tile gid="226"/>
  <tile gid="226"/>
  <tile gid="193"/>
  <tile gid="257"/>
  <tile gid="193"/>
  <tile gid="133"/>
  <tile gid="929"/>
  <tile gid="465"/>
  <tile gid="876"/>
  <tile gid="803"/>
  <tile gid="417"/>
  <tile gid="419"/>
  <tile gid="417"/>
  <tile gid="419"/>
  <tile gid="193"/>
  <tile gid="133"/>
  <tile gid="272"/>
  <tile gid="166"/>
  <tile gid="420"/>
  <tile gid="869"/>
  <tile gid="866"/>
  <tile gid="866"/>
  <tile gid="899"/>
  <tile gid="193"/>
  <tile gid="130"/>
  <tile gid="193"/>
  <tile gid="129"/>
  <tile gid="20"/>
  <tile gid="79"/>
  <tile gid="20"/>
  <tile gid="7"/>
  <tile gid="79"/>
  <tile gid="112"/>
  <tile gid="226"/>
  <tile gid="193"/>
  <tile gid="257"/>
  <tile gid="208"/>
  <tile gid="865"/>
  <tile gid="876"/>
  <tile gid="420"/>
  <tile gid="417"/>
  <tile gid="419"/>
  <tile gid="130"/>
  <tile gid="233"/>
  <tile gid="143"/>
  <tile gid="134"/>
  <tile gid="133"/>
  <tile gid="272"/>
  <tile gid="272"/>
  <tile gid="134"/>
  <tile gid="420"/>
  <tile gid="869"/>
  <tile gid="866"/>
  <tile gid="866"/>
  <tile gid="901"/>
  <tile gid="193"/>
  <tile gid="506"/>
  <tile gid="503"/>
  <tile gid="495"/>
  <tile gid="193"/>
  <tile gid="20"/>
  <tile gid="74"/>
  <tile gid="79"/>
  <tile gid="40"/>
  <tile gid="226"/>
  <tile gid="226"/>
  <tile gid="257"/>
  <tile gid="133"/>
  <tile gid="865"/>
  <tile gid="876"/>
  <tile gid="420"/>
  <tile gid="193"/>
  <tile gid="80"/>
  <tile gid="73"/>
  <tile gid="112"/>
  <tile gid="130"/>
  <tile gid="165"/>
  <tile gid="175"/>
  <tile gid="175"/>
  <tile gid="166"/>
  <tile gid="165"/>
  <tile gid="272"/>
  <tile gid="420"/>
  <tile gid="869"/>
  <tile gid="866"/>
  <tile gid="866"/>
  <tile gid="899"/>
  <tile gid="193"/>
  <tile gid="495"/>
  <tile gid="534"/>
  <tile gid="193"/>
  <tile gid="193"/>
  <tile gid="193"/>
  <tile gid="257"/>
  <tile gid="39"/>
  <tile gid="112"/>
  <tile gid="226"/>
  <tile gid="226"/>
  <tile gid="802"/>
  <tile gid="872"/>
  <tile gid="876"/>
  <tile gid="420"/>
  <tile gid="7"/>
  <tile gid="73"/>
  <tile gid="73"/>
  <tile gid="9"/>
  <tile gid="503"/>
  <tile gid="417"/>
  <tile gid="419"/>
  <tile gid="417"/>
  <tile gid="419"/>
  <tile gid="20"/>
  <tile gid="776"/>
  <tile gid="421"/>
  <tile gid="776"/>
  <tile gid="809"/>
  <tile gid="398"/>
  <tile gid="866"/>
  <tile gid="901"/>
  <tile gid="811"/>
  <tile gid="193"/>
  <tile gid="193"/>
  <tile gid="193"/>
  <tile gid="129"/>
  <tile gid="193"/>
  <tile gid="129"/>
  <tile gid="193"/>
  <tile gid="130"/>
  <tile gid="972"/>
  <tile gid="802"/>
  <tile gid="901"/>
  <tile gid="803"/>
  <tile gid="420"/>
  <tile gid="257"/>
  <tile gid="106"/>
  <tile gid="74"/>
  <tile gid="40"/>
  <tile gid="130"/>
  <tile gid="420"/>
  <tile gid="972"/>
  <tile gid="972"/>
  <tile gid="972"/>
  <tile gid="972"/>
  <tile gid="972"/>
  <tile gid="892"/>
  <tile gid="365"/>
  <tile gid="356"/>
  <tile gid="420"/>
  <tile gid="809"/>
  <tile gid="398"/>
  <tile gid="995"/>
  <tile gid="965"/>
  <tile gid="812"/>
  <tile gid="899"/>
  <tile gid="812"/>
  <tile gid="971"/>
  <tile gid="971"/>
  <tile gid="971"/>
  <tile gid="971"/>
  <tile gid="899"/>
  <tile gid="811"/>
  <tile gid="809"/>
  <tile gid="803"/>
  <tile gid="420"/>
  <tile gid="193"/>
  <tile gid="7"/>
  <tile gid="79"/>
  <tile gid="112"/>
  <tile gid="193"/>
  <tile gid="420"/>
  <tile gid="802"/>
  <tile gid="811"/>
  <tile gid="45"/>
  <tile gid="892"/>
  <tile gid="234"/>
  <tile gid="13"/>
  <tile gid="240"/>
  <tile gid="427"/>
  <tile gid="420"/>
  <tile gid="417"/>
  <tile gid="419"/>
  <tile gid="809"/>
  <tile gid="398"/>
  <tile gid="964"/>
  <tile gid="971"/>
  <tile gid="901"/>
  <tile gid="399"/>
  <tile gid="465"/>
  <tile gid="465"/>
  <tile gid="465"/>
  <tile gid="465"/>
  <tile gid="876"/>
  <tile gid="803"/>
  <tile gid="451"/>
  <tile gid="452"/>
  <tile gid="420"/>
  <tile gid="257"/>
  <tile gid="106"/>
  <tile gid="40"/>
  <tile gid="193"/>
  <tile gid="420"/>
  <tile gid="972"/>
  <tile gid="801"/>
  <tile gid="803"/>
  <tile gid="457"/>
  <tile gid="166"/>
  <tile gid="760"/>
  <tile gid="859"/>
  <tile gid="759"/>
  <tile gid="489"/>
  <tile gid="426"/>
  <tile gid="397"/>
  <tile gid="420"/>
  <tile gid="420"/>
  <tile gid="809"/>
  <tile gid="866"/>
  <tile gid="901"/>
  <tile gid="803"/>
  <tile gid="420"/>
  <tile gid="420"/>
  <tile gid="417"/>
  <tile gid="419"/>
  <tile gid="417"/>
  <tile gid="419"/>
  <tile gid="420"/>
  <tile gid="483"/>
  <tile gid="484"/>
  <tile gid="420"/>
  <tile gid="42"/>
  <tile gid="9"/>
  <tile gid="130"/>
  <tile gid="420"/>
  <tile gid="802"/>
  <tile gid="899"/>
  <tile gid="811"/>
  <tile gid="420"/>
  <tile gid="360"/>
  <tile gid="13"/>
  <tile gid="796"/>
  <tile gid="853"/>
  <tile gid="795"/>
  <tile gid="13"/>
  <tile gid="457"/>
  <tile gid="459"/>
  <tile gid="420"/>
  <tile gid="451"/>
  <tile gid="452"/>
  <tile gid="901"/>
  <tile gid="803"/>
  <tile gid="417"/>
  <tile gid="419"/>
  <tile gid="495"/>
  <tile gid="497"/>
  <tile gid="129"/>
  <tile gid="7"/>
  <tile gid="73"/>
  <tile gid="73"/>
  <tile gid="8"/>
  <tile gid="258"/>
  <tile gid="42"/>
  <tile gid="74"/>
  <tile gid="112"/>
  <tile gid="420"/>
  <tile gid="802"/>
  <tile gid="962"/>
  <tile gid="901"/>
  <tile gid="803"/>
  <tile gid="420"/>
  <tile gid="457"/>
  <tile gid="427"/>
  <tile gid="726"/>
  <tile gid="827"/>
  <tile gid="725"/>
  <tile gid="425"/>
  <tile gid="362"/>
  <tile gid="459"/>
  <tile gid="420"/>
  <tile gid="483"/>
  <tile gid="484"/>
  <tile gid="803"/>
  <tile gid="417"/>
  <tile gid="419"/>
  <tile gid="495"/>
  <tile gid="497"/>
  <tile gid="258"/>
  <tile gid="42"/>
  <tile gid="79"/>
  <tile gid="79"/>
  <tile gid="79"/>
  <tile gid="79"/>
  <tile gid="73"/>
  <tile gid="40"/>
  <tile gid="193"/>
  <tile gid="130"/>
  <tile gid="420"/>
  <tile gid="869"/>
  <tile gid="901"/>
  <tile gid="808"/>
  <tile gid="498"/>
  <tile gid="420"/>
  <tile gid="45"/>
  <tile gid="455"/>
  <tile gid="461"/>
  <tile gid="13"/>
  <tile gid="425"/>
  <tile gid="362"/>
  <tile gid="455"/>
  <tile gid="459"/>
  <tile gid="451"/>
  <tile gid="452"/>
  <tile gid="420"/>
  <tile gid="451"/>
  <tile gid="452"/>
  <tile gid="495"/>
  <tile gid="497"/>
  <tile gid="77"/>
  <tile gid="7"/>
  <tile gid="79"/>
  <tile gid="79"/>
  <tile gid="79"/>
  <tile gid="79"/>
  <tile gid="79"/>
  <tile gid="451"/>
  <tile gid="452"/>
  <tile gid="420"/>
  <tile gid="417"/>
  <tile gid="419"/>
  <tile gid="869"/>
  <tile gid="899"/>
  <tile gid="808"/>
  <tile gid="530"/>
  <tile gid="420"/>
  <tile gid="492"/>
  <tile gid="455"/>
  <tile gid="455"/>
  <tile gid="426"/>
  <tile gid="50"/>
  <tile gid="50"/>
  <tile gid="490"/>
  <tile gid="491"/>
  <tile gid="483"/>
  <tile gid="484"/>
  <tile gid="420"/>
  <tile gid="483"/>
  <tile gid="484"/>
  <tile gid="193"/>
  <tile gid="7"/>
  <tile gid="79"/>
  <tile gid="79"/>
  <tile gid="79"/>
  <tile gid="9"/>
  <tile gid="39"/>
  <tile gid="40"/>
  <tile gid="39"/>
  <tile gid="483"/>
  <tile gid="484"/>
  <tile gid="420"/>
  <tile gid="802"/>
  <tile gid="899"/>
  <tile gid="932"/>
  <tile gid="931"/>
  <tile gid="808"/>
  <tile gid="530"/>
  <tile gid="417"/>
  <tile gid="419"/>
  <tile gid="489"/>
  <tile gid="455"/>
  <tile gid="455"/>
  <tile gid="51"/>
  <tile gid="21"/>
  <tile gid="22"/>
  <tile gid="23"/>
  <tile gid="420"/>
  <tile gid="451"/>
  <tile gid="452"/>
  <tile gid="420"/>
  <tile gid="129"/>
  <tile gid="42"/>
  <tile gid="79"/>
  <tile gid="79"/>
  <tile gid="79"/>
  <tile gid="40"/>
  <tile gid="258"/>
  <tile gid="494"/>
  <tile gid="496"/>
  <tile gid="130"/>
  <tile gid="417"/>
  <tile gid="419"/>
  <tile gid="802"/>
  <tile gid="866"/>
  <tile gid="963"/>
  <tile gid="900"/>
  <tile gid="963"/>
  <tile gid="808"/>
  <tile gid="562"/>
  <tile gid="498"/>
  <tile gid="417"/>
  <tile gid="419"/>
  <tile gid="489"/>
  <tile gid="49"/>
  <tile gid="49"/>
  <tile gid="85"/>
  <tile gid="86"/>
  <tile gid="87"/>
  <tile gid="420"/>
  <tile gid="483"/>
  <tile gid="484"/>
  <tile gid="420"/>
  <tile gid="80"/>
  <tile gid="79"/>
  <tile gid="79"/>
  <tile gid="79"/>
  <tile gid="79"/>
  <tile gid="41"/>
  <tile gid="193"/>
  <tile gid="129"/>
  <tile gid="130"/>
  <tile gid="494"/>
  <tile gid="496"/>
  <tile gid="420"/>
  <tile gid="809"/>
  <tile gid="866"/>
  <tile gid="866"/>
  <tile gid="899"/>
  <tile gid="932"/>
  <tile gid="995"/>
  <tile gid="811"/>
  <tile gid="562"/>
  <tile gid="532"/>
  <tile gid="498"/>
  <tile gid="420"/>
  <tile gid="428"/>
  <tile gid="395"/>
  <tile gid="193"/>
  <tile gid="257"/>
  <tile gid="451"/>
  <tile gid="452"/>
  <tile gid="451"/>
  <tile gid="452"/>
  <tile gid="420"/>
  <tile gid="193"/>
  <tile gid="39"/>
  <tile gid="79"/>
  <tile gid="79"/>
  <tile gid="79"/>
  <tile gid="79"/>
  <tile gid="8"/>
  <tile gid="7"/>
  <tile gid="8"/>
  <tile gid="7"/>
  <tile gid="8"/>
  <tile gid="420"/>
  <tile gid="802"/>
  <tile gid="866"/>
  <tile gid="866"/>
  <tile gid="901"/>
  <tile gid="900"/>
  <tile gid="866"/>
  <tile gid="995"/>
  <tile gid="812"/>
  <tile gid="431"/>
  <tile gid="530"/>
  <tile gid="498"/>
  <tile gid="417"/>
  <tile gid="419"/>
  <tile gid="417"/>
  <tile gid="419"/>
  <tile gid="483"/>
  <tile gid="484"/>
  <tile gid="483"/>
  <tile gid="484"/>
  </data>
 </layer>
</map>
