<?xml version="1.0" encoding="UTF-8"?>
<map version="1.0" orientation="orthogonal" width="32" height="30" tilewidth="16" tileheight="16">
 <tileset firstgid="1" name="0E000F10" tilewidth="16" tileheight="16">
  <image source="0E000F10.png" trans="ffffff"/>
 </tileset>
 <layer name="Tile Layer 1" width="32" height="30">
  <properties>
   <property name="Main" value =""/>
  </properties>
  <data>
  <tile gid="451"/>
  <tile gid="452"/>
  <tile gid="420"/>
  <tile gid="356"/>
  <tile gid="420"/>
  <tile gid="356"/>
  <tile gid="420"/>
  <tile gid="417"/>
  <tile gid="419"/>
  <tile gid="193"/>
  <tile gid="193"/>
  <tile gid="226"/>
  <tile gid="7"/>
  <tile gid="79"/>
  <tile gid="79"/>
  <tile gid="79"/>
  <tile gid="79"/>
  <tile gid="79"/>
  <tile gid="79"/>
  <tile gid="79"/>
  <tile gid="79"/>
  <tile gid="79"/>
  <tile gid="9"/>
  <tile gid="417"/>
  <tile gid="419"/>
  <tile gid="420"/>
  <tile gid="420"/>
  <tile gid="451"/>
  <tile gid="452"/>
  <tile gid="321"/>
  <tile gid="322"/>
  <tile gid="323"/>
  <tile gid="483"/>
  <tile gid="484"/>
  <tile gid="425"/>
  <tile gid="426"/>
  <tile gid="461"/>
  <tile gid="13"/>
  <tile gid="417"/>
  <tile gid="419"/>
  <tile gid="193"/>
  <tile gid="193"/>
  <tile gid="226"/>
  <tile gid="42"/>
  <tile gid="79"/>
  <tile gid="79"/>
  <tile gid="79"/>
  <tile gid="79"/>
  <tile gid="79"/>
  <tile gid="74"/>
  <tile gid="74"/>
  <tile gid="40"/>
  <tile gid="39"/>
  <tile gid="105"/>
  <tile gid="194"/>
  <tile gid="77"/>
  <tile gid="193"/>
  <tile gid="420"/>
  <tile gid="420"/>
  <tile gid="483"/>
  <tile gid="484"/>
  <tile gid="353"/>
  <tile gid="354"/>
  <tile gid="355"/>
  <tile gid="420"/>
  <tile gid="356"/>
  <tile gid="457"/>
  <tile gid="49"/>
  <tile gid="50"/>
  <tile gid="461"/>
  <tile gid="226"/>
  <tile gid="193"/>
  <tile gid="226"/>
  <tile gid="7"/>
  <tile gid="73"/>
  <tile gid="79"/>
  <tile gid="79"/>
  <tile gid="9"/>
  <tile gid="39"/>
  <tile gid="74"/>
  <tile gid="9"/>
  <tile gid="417"/>
  <tile gid="419"/>
  <tile gid="420"/>
  <tile gid="225"/>
  <tile gid="106"/>
  <tile gid="73"/>
  <tile gid="79"/>
  <tile gid="41"/>
  <tile gid="130"/>
  <tile gid="194"/>
  <tile gid="420"/>
  <tile gid="420"/>
  <tile gid="385"/>
  <tile gid="386"/>
  <tile gid="387"/>
  <tile gid="417"/>
  <tile gid="419"/>
  <tile gid="489"/>
  <tile gid="490"/>
  <tile gid="490"/>
  <tile gid="491"/>
  <tile gid="80"/>
  <tile gid="8"/>
  <tile gid="42"/>
  <tile gid="79"/>
  <tile gid="79"/>
  <tile gid="74"/>
  <tile gid="40"/>
  <tile gid="194"/>
  <tile gid="129"/>
  <tile gid="356"/>
  <tile gid="420"/>
  <tile gid="802"/>
  <tile gid="899"/>
  <tile gid="811"/>
  <tile gid="420"/>
  <tile gid="39"/>
  <tile gid="74"/>
  <tile gid="79"/>
  <tile gid="74"/>
  <tile gid="41"/>
  <tile gid="193"/>
  <tile gid="77"/>
  <tile gid="129"/>
  <tile gid="420"/>
  <tile gid="451"/>
  <tile gid="452"/>
  <tile gid="321"/>
  <tile gid="322"/>
  <tile gid="323"/>
  <tile gid="356"/>
  <tile gid="420"/>
  <tile gid="226"/>
  <tile gid="193"/>
  <tile gid="106"/>
  <tile gid="79"/>
  <tile gid="79"/>
  <tile gid="9"/>
  <tile gid="417"/>
  <tile gid="419"/>
  <tile gid="451"/>
  <tile gid="452"/>
  <tile gid="417"/>
  <tile gid="419"/>
  <tile gid="869"/>
  <tile gid="963"/>
  <tile gid="933"/>
  <tile gid="811"/>
  <tile gid="417"/>
  <tile gid="419"/>
  <tile gid="78"/>
  <tile gid="420"/>
  <tile gid="39"/>
  <tile gid="73"/>
  <tile gid="79"/>
  <tile gid="8"/>
  <tile gid="225"/>
  <tile gid="483"/>
  <tile gid="484"/>
  <tile gid="353"/>
  <tile gid="354"/>
  <tile gid="355"/>
  <tile gid="226"/>
  <tile gid="193"/>
  <tile gid="561"/>
  <tile gid="193"/>
  <tile gid="39"/>
  <tile gid="79"/>
  <tile gid="105"/>
  <tile gid="321"/>
  <tile gid="322"/>
  <tile gid="323"/>
  <tile gid="483"/>
  <tile gid="484"/>
  <tile gid="420"/>
  <tile gid="802"/>
  <tile gid="866"/>
  <tile gid="866"/>
  <tile gid="899"/>
  <tile gid="808"/>
  <tile gid="451"/>
  <tile gid="452"/>
  <tile gid="356"/>
  <tile gid="420"/>
  <tile gid="129"/>
  <tile gid="106"/>
  <tile gid="79"/>
  <tile gid="79"/>
  <tile gid="112"/>
  <tile gid="356"/>
  <tile gid="420"/>
  <tile gid="385"/>
  <tile gid="386"/>
  <tile gid="387"/>
  <tile gid="193"/>
  <tile gid="193"/>
  <tile gid="193"/>
  <tile gid="129"/>
  <tile gid="42"/>
  <tile gid="79"/>
  <tile gid="40"/>
  <tile gid="353"/>
  <tile gid="354"/>
  <tile gid="355"/>
  <tile gid="420"/>
  <tile gid="802"/>
  <tile gid="899"/>
  <tile gid="900"/>
  <tile gid="866"/>
  <tile gid="866"/>
  <tile gid="931"/>
  <tile gid="808"/>
  <tile gid="483"/>
  <tile gid="484"/>
  <tile gid="420"/>
  <tile gid="356"/>
  <tile gid="420"/>
  <tile gid="106"/>
  <tile gid="79"/>
  <tile gid="9"/>
  <tile gid="225"/>
  <tile gid="194"/>
  <tile gid="356"/>
  <tile gid="356"/>
  <tile gid="802"/>
  <tile gid="971"/>
  <tile gid="899"/>
  <tile gid="811"/>
  <tile gid="226"/>
  <tile gid="193"/>
  <tile gid="39"/>
  <tile gid="40"/>
  <tile gid="420"/>
  <tile gid="385"/>
  <tile gid="386"/>
  <tile gid="387"/>
  <tile gid="802"/>
  <tile gid="866"/>
  <tile gid="931"/>
  <tile gid="934"/>
  <tile gid="866"/>
  <tile gid="866"/>
  <tile gid="901"/>
  <tile gid="933"/>
  <tile gid="811"/>
  <tile gid="417"/>
  <tile gid="419"/>
  <tile gid="130"/>
  <tile gid="130"/>
  <tile gid="39"/>
  <tile gid="105"/>
  <tile gid="130"/>
  <tile gid="417"/>
  <tile gid="419"/>
  <tile gid="420"/>
  <tile gid="802"/>
  <tile gid="866"/>
  <tile gid="866"/>
  <tile gid="931"/>
  <tile gid="964"/>
  <tile gid="971"/>
  <tile gid="971"/>
  <tile gid="899"/>
  <tile gid="812"/>
  <tile gid="971"/>
  <tile gid="971"/>
  <tile gid="899"/>
  <tile gid="812"/>
  <tile gid="866"/>
  <tile gid="866"/>
  <tile gid="963"/>
  <tile gid="933"/>
  <tile gid="900"/>
  <tile gid="901"/>
  <tile gid="837"/>
  <tile gid="899"/>
  <tile gid="808"/>
  <tile gid="972"/>
  <tile gid="420"/>
  <tile gid="356"/>
  <tile gid="225"/>
  <tile gid="7"/>
  <tile gid="79"/>
  <tile gid="41"/>
  <tile gid="225"/>
  <tile gid="451"/>
  <tile gid="452"/>
  <tile gid="901"/>
  <tile gid="900"/>
  <tile gid="465"/>
  <tile gid="876"/>
  <tile gid="399"/>
  <tile gid="398"/>
  <tile gid="866"/>
  <tile gid="901"/>
  <tile gid="837"/>
  <tile gid="866"/>
  <tile gid="866"/>
  <tile gid="931"/>
  <tile gid="900"/>
  <tile gid="866"/>
  <tile gid="866"/>
  <tile gid="866"/>
  <tile gid="899"/>
  <tile gid="934"/>
  <tile gid="899"/>
  <tile gid="964"/>
  <tile gid="901"/>
  <tile gid="808"/>
  <tile gid="451"/>
  <tile gid="452"/>
  <tile gid="420"/>
  <tile gid="7"/>
  <tile gid="79"/>
  <tile gid="79"/>
  <tile gid="79"/>
  <tile gid="41"/>
  <tile gid="483"/>
  <tile gid="484"/>
  <tile gid="933"/>
  <tile gid="803"/>
  <tile gid="126"/>
  <tile gid="127"/>
  <tile gid="128"/>
  <tile gid="809"/>
  <tile gid="398"/>
  <tile gid="899"/>
  <tile gid="933"/>
  <tile gid="900"/>
  <tile gid="465"/>
  <tile gid="876"/>
  <tile gid="803"/>
  <tile gid="809"/>
  <tile gid="866"/>
  <tile gid="866"/>
  <tile gid="931"/>
  <tile gid="964"/>
  <tile gid="901"/>
  <tile gid="932"/>
  <tile gid="899"/>
  <tile gid="803"/>
  <tile gid="483"/>
  <tile gid="484"/>
  <tile gid="194"/>
  <tile gid="106"/>
  <tile gid="356"/>
  <tile gid="79"/>
  <tile gid="79"/>
  <tile gid="79"/>
  <tile gid="8"/>
  <tile gid="129"/>
  <tile gid="808"/>
  <tile gid="972"/>
  <tile gid="158"/>
  <tile gid="159"/>
  <tile gid="160"/>
  <tile gid="97"/>
  <tile gid="809"/>
  <tile gid="876"/>
  <tile gid="807"/>
  <tile gid="803"/>
  <tile gid="7"/>
  <tile gid="8"/>
  <tile gid="356"/>
  <tile gid="420"/>
  <tile gid="809"/>
  <tile gid="866"/>
  <tile gid="901"/>
  <tile gid="900"/>
  <tile gid="899"/>
  <tile gid="900"/>
  <tile gid="876"/>
  <tile gid="417"/>
  <tile gid="419"/>
  <tile gid="420"/>
  <tile gid="129"/>
  <tile gid="106"/>
  <tile gid="79"/>
  <tile gid="420"/>
  <tile gid="79"/>
  <tile gid="79"/>
  <tile gid="420"/>
  <tile gid="112"/>
  <tile gid="808"/>
  <tile gid="972"/>
  <tile gid="190"/>
  <tile gid="191"/>
  <tile gid="192"/>
  <tile gid="193"/>
  <tile gid="226"/>
  <tile gid="226"/>
  <tile gid="193"/>
  <tile gid="80"/>
  <tile gid="74"/>
  <tile gid="105"/>
  <tile gid="129"/>
  <tile gid="129"/>
  <tile gid="420"/>
  <tile gid="809"/>
  <tile gid="937"/>
  <tile gid="399"/>
  <tile gid="876"/>
  <tile gid="803"/>
  <tile gid="451"/>
  <tile gid="452"/>
  <tile gid="420"/>
  <tile gid="193"/>
  <tile gid="7"/>
  <tile gid="79"/>
  <tile gid="356"/>
  <tile gid="79"/>
  <tile gid="356"/>
  <tile gid="79"/>
  <tile gid="105"/>
  <tile gid="193"/>
  <tile gid="808"/>
  <tile gid="972"/>
  <tile gid="20"/>
  <tile gid="194"/>
  <tile gid="20"/>
  <tile gid="97"/>
  <tile gid="802"/>
  <tile gid="811"/>
  <tile gid="129"/>
  <tile gid="129"/>
  <tile gid="7"/>
  <tile gid="9"/>
  <tile gid="356"/>
  <tile gid="420"/>
  <tile gid="504"/>
  <tile gid="505"/>
  <tile gid="420"/>
  <tile gid="417"/>
  <tile gid="419"/>
  <tile gid="420"/>
  <tile gid="483"/>
  <tile gid="484"/>
  <tile gid="130"/>
  <tile gid="356"/>
  <tile gid="106"/>
  <tile gid="79"/>
  <tile gid="420"/>
  <tile gid="79"/>
  <tile gid="79"/>
  <tile gid="356"/>
  <tile gid="79"/>
  <tile gid="8"/>
  <tile gid="933"/>
  <tile gid="811"/>
  <tile gid="972"/>
  <tile gid="972"/>
  <tile gid="972"/>
  <tile gid="802"/>
  <tile gid="901"/>
  <tile gid="808"/>
  <tile gid="129"/>
  <tile gid="42"/>
  <tile gid="79"/>
  <tile gid="420"/>
  <tile gid="495"/>
  <tile gid="495"/>
  <tile gid="356"/>
  <tile gid="473"/>
  <tile gid="226"/>
  <tile gid="420"/>
  <tile gid="534"/>
  <tile gid="503"/>
  <tile gid="558"/>
  <tile gid="560"/>
  <tile gid="467"/>
  <tile gid="7"/>
  <tile gid="79"/>
  <tile gid="79"/>
  <tile gid="79"/>
  <tile gid="79"/>
  <tile gid="420"/>
  <tile gid="79"/>
  <tile gid="79"/>
  <tile gid="420"/>
  <tile gid="995"/>
  <tile gid="964"/>
  <tile gid="899"/>
  <tile gid="812"/>
  <tile gid="971"/>
  <tile gid="901"/>
  <tile gid="933"/>
  <tile gid="803"/>
  <tile gid="226"/>
  <tile gid="106"/>
  <tile gid="420"/>
  <tile gid="356"/>
  <tile gid="225"/>
  <tile gid="420"/>
  <tile gid="130"/>
  <tile gid="194"/>
  <tile gid="194"/>
  <tile gid="194"/>
  <tile gid="194"/>
  <tile gid="420"/>
  <tile gid="7"/>
  <tile gid="356"/>
  <tile gid="420"/>
  <tile gid="79"/>
  <tile gid="79"/>
  <tile gid="420"/>
  <tile gid="79"/>
  <tile gid="356"/>
  <tile gid="420"/>
  <tile gid="79"/>
  <tile gid="451"/>
  <tile gid="452"/>
  <tile gid="809"/>
  <tile gid="398"/>
  <tile gid="931"/>
  <tile gid="837"/>
  <tile gid="901"/>
  <tile gid="807"/>
  <tile gid="803"/>
  <tile gid="129"/>
  <tile gid="417"/>
  <tile gid="419"/>
  <tile gid="451"/>
  <tile gid="452"/>
  <tile gid="417"/>
  <tile gid="419"/>
  <tile gid="972"/>
  <tile gid="356"/>
  <tile gid="420"/>
  <tile gid="226"/>
  <tile gid="356"/>
  <tile gid="73"/>
  <tile gid="79"/>
  <tile gid="420"/>
  <tile gid="79"/>
  <tile gid="420"/>
  <tile gid="79"/>
  <tile gid="79"/>
  <tile gid="79"/>
  <tile gid="420"/>
  <tile gid="79"/>
  <tile gid="420"/>
  <tile gid="483"/>
  <tile gid="484"/>
  <tile gid="420"/>
  <tile gid="809"/>
  <tile gid="876"/>
  <tile gid="807"/>
  <tile gid="803"/>
  <tile gid="130"/>
  <tile gid="129"/>
  <tile gid="7"/>
  <tile gid="79"/>
  <tile gid="79"/>
  <tile gid="483"/>
  <tile gid="484"/>
  <tile gid="802"/>
  <tile gid="899"/>
  <tile gid="812"/>
  <tile gid="995"/>
  <tile gid="812"/>
  <tile gid="995"/>
  <tile gid="811"/>
  <tile gid="39"/>
  <tile gid="417"/>
  <tile gid="419"/>
  <tile gid="79"/>
  <tile gid="356"/>
  <tile gid="79"/>
  <tile gid="79"/>
  <tile gid="79"/>
  <tile gid="79"/>
  <tile gid="356"/>
  <tile gid="79"/>
  <tile gid="417"/>
  <tile gid="419"/>
  <tile gid="420"/>
  <tile gid="417"/>
  <tile gid="419"/>
  <tile gid="194"/>
  <tile gid="77"/>
  <tile gid="356"/>
  <tile gid="73"/>
  <tile gid="79"/>
  <tile gid="417"/>
  <tile gid="419"/>
  <tile gid="420"/>
  <tile gid="802"/>
  <tile gid="866"/>
  <tile gid="901"/>
  <tile gid="837"/>
  <tile gid="866"/>
  <tile gid="995"/>
  <tile gid="900"/>
  <tile gid="995"/>
  <tile gid="811"/>
  <tile gid="39"/>
  <tile gid="356"/>
  <tile gid="20"/>
  <tile gid="79"/>
  <tile gid="420"/>
  <tile gid="79"/>
  <tile gid="356"/>
  <tile gid="79"/>
  <tile gid="79"/>
  <tile gid="105"/>
  <tile gid="193"/>
  <tile gid="356"/>
  <tile gid="321"/>
  <tile gid="322"/>
  <tile gid="323"/>
  <tile gid="420"/>
  <tile gid="39"/>
  <tile gid="74"/>
  <tile gid="79"/>
  <tile gid="420"/>
  <tile gid="79"/>
  <tile gid="420"/>
  <tile gid="802"/>
  <tile gid="866"/>
  <tile gid="901"/>
  <tile gid="737"/>
  <tile gid="646"/>
  <tile gid="644"/>
  <tile gid="644"/>
  <tile gid="738"/>
  <tile gid="900"/>
  <tile gid="899"/>
  <tile gid="811"/>
  <tile gid="420"/>
  <tile gid="79"/>
  <tile gid="79"/>
  <tile gid="79"/>
  <tile gid="79"/>
  <tile gid="79"/>
  <tile gid="79"/>
  <tile gid="79"/>
  <tile gid="79"/>
  <tile gid="420"/>
  <tile gid="129"/>
  <tile gid="353"/>
  <tile gid="354"/>
  <tile gid="355"/>
  <tile gid="417"/>
  <tile gid="419"/>
  <tile gid="130"/>
  <tile gid="356"/>
  <tile gid="79"/>
  <tile gid="105"/>
  <tile gid="802"/>
  <tile gid="866"/>
  <tile gid="866"/>
  <tile gid="737"/>
  <tile gid="772"/>
  <tile gid="912"/>
  <tile gid="33"/>
  <tile gid="912"/>
  <tile gid="769"/>
  <tile gid="738"/>
  <tile gid="901"/>
  <tile gid="933"/>
  <tile gid="811"/>
  <tile gid="420"/>
  <tile gid="74"/>
  <tile gid="79"/>
  <tile gid="79"/>
  <tile gid="79"/>
  <tile gid="79"/>
  <tile gid="79"/>
  <tile gid="79"/>
  <tile gid="356"/>
  <tile gid="8"/>
  <tile gid="385"/>
  <tile gid="386"/>
  <tile gid="387"/>
  <tile gid="451"/>
  <tile gid="452"/>
  <tile gid="420"/>
  <tile gid="226"/>
  <tile gid="106"/>
  <tile gid="420"/>
  <tile gid="869"/>
  <tile gid="866"/>
  <tile gid="776"/>
  <tile gid="679"/>
  <tile gid="912"/>
  <tile gid="945"/>
  <tile gid="776"/>
  <tile gid="944"/>
  <tile gid="945"/>
  <tile gid="679"/>
  <tile gid="776"/>
  <tile gid="933"/>
  <tile gid="808"/>
  <tile gid="420"/>
  <tile gid="417"/>
  <tile gid="419"/>
  <tile gid="79"/>
  <tile gid="79"/>
  <tile gid="79"/>
  <tile gid="79"/>
  <tile gid="79"/>
  <tile gid="79"/>
  <tile gid="105"/>
  <tile gid="420"/>
  <tile gid="972"/>
  <tile gid="420"/>
  <tile gid="483"/>
  <tile gid="484"/>
  <tile gid="129"/>
  <tile gid="225"/>
  <tile gid="39"/>
  <tile gid="8"/>
  <tile gid="869"/>
  <tile gid="866"/>
  <tile gid="866"/>
  <tile gid="769"/>
  <tile gid="738"/>
  <tile gid="944"/>
  <tile gid="913"/>
  <tile gid="945"/>
  <tile gid="737"/>
  <tile gid="772"/>
  <tile gid="933"/>
  <tile gid="933"/>
  <tile gid="808"/>
  <tile gid="417"/>
  <tile gid="419"/>
  <tile gid="226"/>
  <tile gid="106"/>
  <tile gid="79"/>
  <tile gid="20"/>
  <tile gid="79"/>
  <tile gid="79"/>
  <tile gid="417"/>
  <tile gid="419"/>
  <tile gid="899"/>
  <tile gid="811"/>
  <tile gid="356"/>
  <tile gid="972"/>
  <tile gid="417"/>
  <tile gid="419"/>
  <tile gid="129"/>
  <tile gid="7"/>
  <tile gid="105"/>
  <tile gid="809"/>
  <tile gid="866"/>
  <tile gid="866"/>
  <tile gid="866"/>
  <tile gid="679"/>
  <tile gid="944"/>
  <tile gid="945"/>
  <tile gid="945"/>
  <tile gid="679"/>
  <tile gid="933"/>
  <tile gid="933"/>
  <tile gid="933"/>
  <tile gid="803"/>
  <tile gid="420"/>
  <tile gid="129"/>
  <tile gid="129"/>
  <tile gid="106"/>
  <tile gid="79"/>
  <tile gid="79"/>
  <tile gid="356"/>
  <tile gid="79"/>
  <tile gid="451"/>
  <tile gid="452"/>
  <tile gid="963"/>
  <tile gid="933"/>
  <tile gid="811"/>
  <tile gid="417"/>
  <tile gid="419"/>
  <tile gid="417"/>
  <tile gid="419"/>
  <tile gid="39"/>
  <tile gid="105"/>
  <tile gid="129"/>
  <tile gid="809"/>
  <tile gid="866"/>
  <tile gid="866"/>
  <tile gid="769"/>
  <tile gid="738"/>
  <tile gid="944"/>
  <tile gid="737"/>
  <tile gid="772"/>
  <tile gid="933"/>
  <tile gid="933"/>
  <tile gid="803"/>
  <tile gid="417"/>
  <tile gid="419"/>
  <tile gid="420"/>
  <tile gid="7"/>
  <tile gid="356"/>
  <tile gid="79"/>
  <tile gid="356"/>
  <tile gid="79"/>
  <tile gid="74"/>
  <tile gid="483"/>
  <tile gid="484"/>
  <tile gid="866"/>
  <tile gid="899"/>
  <tile gid="933"/>
  <tile gid="811"/>
  <tile gid="420"/>
  <tile gid="972"/>
  <tile gid="972"/>
  <tile gid="356"/>
  <tile gid="78"/>
  <tile gid="420"/>
  <tile gid="20"/>
  <tile gid="809"/>
  <tile gid="465"/>
  <tile gid="465"/>
  <tile gid="741"/>
  <tile gid="777"/>
  <tile gid="741"/>
  <tile gid="807"/>
  <tile gid="807"/>
  <tile gid="803"/>
  <tile gid="417"/>
  <tile gid="419"/>
  <tile gid="193"/>
  <tile gid="417"/>
  <tile gid="419"/>
  <tile gid="79"/>
  <tile gid="79"/>
  <tile gid="79"/>
  <tile gid="356"/>
  <tile gid="420"/>
  <tile gid="451"/>
  <tile gid="452"/>
  <tile gid="866"/>
  <tile gid="901"/>
  <tile gid="933"/>
  <tile gid="964"/>
  <tile gid="899"/>
  <tile gid="811"/>
  <tile gid="420"/>
  <tile gid="451"/>
  <tile gid="452"/>
  <tile gid="420"/>
  <tile gid="534"/>
  <tile gid="503"/>
  <tile gid="467"/>
  <tile gid="420"/>
  <tile gid="713"/>
  <tile gid="777"/>
  <tile gid="713"/>
  <tile gid="417"/>
  <tile gid="419"/>
  <tile gid="420"/>
  <tile gid="130"/>
  <tile gid="193"/>
  <tile gid="420"/>
  <tile gid="129"/>
  <tile gid="20"/>
  <tile gid="79"/>
  <tile gid="79"/>
  <tile gid="420"/>
  <tile gid="417"/>
  <tile gid="419"/>
  <tile gid="483"/>
  <tile gid="484"/>
  <tile gid="901"/>
  <tile gid="933"/>
  <tile gid="964"/>
  <tile gid="866"/>
  <tile gid="931"/>
  <tile gid="808"/>
  <tile gid="356"/>
  <tile gid="483"/>
  <tile gid="484"/>
  <tile gid="321"/>
  <tile gid="322"/>
  <tile gid="323"/>
  <tile gid="356"/>
  <tile gid="495"/>
  <tile gid="504"/>
  <tile gid="193"/>
  <tile gid="193"/>
  <tile gid="356"/>
  <tile gid="130"/>
  <tile gid="129"/>
  <tile gid="417"/>
  <tile gid="419"/>
  <tile gid="226"/>
  <tile gid="130"/>
  <tile gid="77"/>
  <tile gid="106"/>
  <tile gid="40"/>
  <tile gid="356"/>
  <tile gid="194"/>
  <tile gid="420"/>
  <tile gid="193"/>
  <tile gid="420"/>
  <tile gid="933"/>
  <tile gid="964"/>
  <tile gid="866"/>
  <tile gid="866"/>
  <tile gid="901"/>
  <tile gid="808"/>
  <tile gid="420"/>
  <tile gid="972"/>
  <tile gid="420"/>
  <tile gid="353"/>
  <tile gid="354"/>
  <tile gid="355"/>
  <tile gid="420"/>
  <tile gid="129"/>
  <tile gid="130"/>
  <tile gid="468"/>
  <tile gid="497"/>
  <tile gid="504"/>
  <tile gid="420"/>
  <tile gid="193"/>
  <tile gid="420"/>
  <tile gid="8"/>
  <tile gid="7"/>
  <tile gid="73"/>
  <tile gid="356"/>
  <tile gid="105"/>
  <tile gid="417"/>
  <tile gid="419"/>
  <tile gid="356"/>
  <tile gid="417"/>
  <tile gid="419"/>
  <tile gid="193"/>
  <tile gid="933"/>
  <tile gid="900"/>
  <tile gid="866"/>
  <tile gid="901"/>
  <tile gid="933"/>
  <tile gid="964"/>
  <tile gid="899"/>
  <tile gid="811"/>
  <tile gid="420"/>
  <tile gid="385"/>
  <tile gid="386"/>
  <tile gid="387"/>
  <tile gid="130"/>
  <tile gid="420"/>
  <tile gid="129"/>
  <tile gid="356"/>
  <tile gid="194"/>
  <tile gid="420"/>
  <tile gid="130"/>
  <tile gid="356"/>
  <tile gid="79"/>
  <tile gid="105"/>
  <tile gid="420"/>
  <tile gid="40"/>
  <tile gid="39"/>
  <tile gid="417"/>
  <tile gid="419"/>
  <tile gid="495"/>
  <tile gid="420"/>
  <tile gid="420"/>
  <tile gid="193"/>
  <tile gid="356"/>
  </data>
 </layer>
</map>
