<?xml version="1.0" encoding="UTF-8"?>
<map version="1.0" orientation="orthogonal" width="22" height="32" tilewidth="16" tileheight="16">
 <tileset firstgid="1" name="0E000F10" tilewidth="16" tileheight="16">
  <image source="0E000F10.png" trans="ffffff"/>
 </tileset>
 <layer name="Tile Layer 1" width="22" height="32">
  <properties>
   <property name="Main" value =""/>
  </properties>
  <data>
  <tile gid="885"/>
  <tile gid="885"/>
  <tile gid="888"/>
  <tile gid="853"/>
  <tile gid="759"/>
  <tile gid="226"/>
  <tile gid="226"/>
  <tile gid="106"/>
  <tile gid="79"/>
  <tile gid="79"/>
  <tile gid="79"/>
  <tile gid="79"/>
  <tile gid="79"/>
  <tile gid="79"/>
  <tile gid="74"/>
  <tile gid="79"/>
  <tile gid="8"/>
  <tile gid="226"/>
  <tile gid="869"/>
  <tile gid="866"/>
  <tile gid="901"/>
  <tile gid="812"/>
  <tile gid="885"/>
  <tile gid="888"/>
  <tile gid="853"/>
  <tile gid="853"/>
  <tile gid="729"/>
  <tile gid="226"/>
  <tile gid="226"/>
  <tile gid="106"/>
  <tile gid="79"/>
  <tile gid="79"/>
  <tile gid="79"/>
  <tile gid="219"/>
  <tile gid="220"/>
  <tile gid="221"/>
  <tile gid="8"/>
  <tile gid="106"/>
  <tile gid="105"/>
  <tile gid="226"/>
  <tile gid="809"/>
  <tile gid="462"/>
  <tile gid="995"/>
  <tile gid="933"/>
  <tile gid="888"/>
  <tile gid="853"/>
  <tile gid="853"/>
  <tile gid="853"/>
  <tile gid="759"/>
  <tile gid="193"/>
  <tile gid="7"/>
  <tile gid="79"/>
  <tile gid="79"/>
  <tile gid="79"/>
  <tile gid="79"/>
  <tile gid="251"/>
  <tile gid="252"/>
  <tile gid="253"/>
  <tile gid="105"/>
  <tile gid="39"/>
  <tile gid="40"/>
  <tile gid="226"/>
  <tile gid="226"/>
  <tile gid="809"/>
  <tile gid="866"/>
  <tile gid="899"/>
  <tile gid="853"/>
  <tile gid="827"/>
  <tile gid="853"/>
  <tile gid="853"/>
  <tile gid="729"/>
  <tile gid="193"/>
  <tile gid="106"/>
  <tile gid="79"/>
  <tile gid="40"/>
  <tile gid="39"/>
  <tile gid="79"/>
  <tile gid="283"/>
  <tile gid="284"/>
  <tile gid="285"/>
  <tile gid="40"/>
  <tile gid="226"/>
  <tile gid="495"/>
  <tile gid="504"/>
  <tile gid="505"/>
  <tile gid="802"/>
  <tile gid="866"/>
  <tile gid="901"/>
  <tile gid="729"/>
  <tile gid="193"/>
  <tile gid="728"/>
  <tile gid="853"/>
  <tile gid="759"/>
  <tile gid="226"/>
  <tile gid="106"/>
  <tile gid="9"/>
  <tile gid="226"/>
  <tile gid="226"/>
  <tile gid="78"/>
  <tile gid="106"/>
  <tile gid="105"/>
  <tile gid="226"/>
  <tile gid="226"/>
  <tile gid="420"/>
  <tile gid="226"/>
  <tile gid="226"/>
  <tile gid="226"/>
  <tile gid="869"/>
  <tile gid="901"/>
  <tile gid="933"/>
  <tile gid="193"/>
  <tile gid="20"/>
  <tile gid="193"/>
  <tile gid="796"/>
  <tile gid="729"/>
  <tile gid="80"/>
  <tile gid="20"/>
  <tile gid="8"/>
  <tile gid="20"/>
  <tile gid="193"/>
  <tile gid="226"/>
  <tile gid="106"/>
  <tile gid="79"/>
  <tile gid="112"/>
  <tile gid="417"/>
  <tile gid="419"/>
  <tile gid="226"/>
  <tile gid="226"/>
  <tile gid="802"/>
  <tile gid="866"/>
  <tile gid="995"/>
  <tile gid="933"/>
  <tile gid="193"/>
  <tile gid="173"/>
  <tile gid="760"/>
  <tile gid="795"/>
  <tile gid="226"/>
  <tile gid="226"/>
  <tile gid="39"/>
  <tile gid="40"/>
  <tile gid="226"/>
  <tile gid="226"/>
  <tile gid="7"/>
  <tile gid="79"/>
  <tile gid="79"/>
  <tile gid="8"/>
  <tile gid="420"/>
  <tile gid="451"/>
  <tile gid="452"/>
  <tile gid="226"/>
  <tile gid="809"/>
  <tile gid="465"/>
  <tile gid="462"/>
  <tile gid="899"/>
  <tile gid="664"/>
  <tile gid="760"/>
  <tile gid="853"/>
  <tile gid="1011"/>
  <tile gid="983"/>
  <tile gid="982"/>
  <tile gid="983"/>
  <tile gid="602"/>
  <tile gid="982"/>
  <tile gid="917"/>
  <tile gid="106"/>
  <tile gid="79"/>
  <tile gid="79"/>
  <tile gid="420"/>
  <tile gid="420"/>
  <tile gid="483"/>
  <tile gid="484"/>
  <tile gid="226"/>
  <tile gid="226"/>
  <tile gid="226"/>
  <tile gid="809"/>
  <tile gid="876"/>
  <tile gid="853"/>
  <tile gid="853"/>
  <tile gid="853"/>
  <tile gid="795"/>
  <tile gid="226"/>
  <tile gid="226"/>
  <tile gid="226"/>
  <tile gid="77"/>
  <tile gid="226"/>
  <tile gid="952"/>
  <tile gid="78"/>
  <tile gid="106"/>
  <tile gid="79"/>
  <tile gid="451"/>
  <tile gid="452"/>
  <tile gid="417"/>
  <tile gid="419"/>
  <tile gid="226"/>
  <tile gid="21"/>
  <tile gid="22"/>
  <tile gid="23"/>
  <tile gid="226"/>
  <tile gid="726"/>
  <tile gid="853"/>
  <tile gid="853"/>
  <tile gid="853"/>
  <tile gid="759"/>
  <tile gid="226"/>
  <tile gid="226"/>
  <tile gid="106"/>
  <tile gid="112"/>
  <tile gid="952"/>
  <tile gid="226"/>
  <tile gid="78"/>
  <tile gid="106"/>
  <tile gid="483"/>
  <tile gid="484"/>
  <tile gid="420"/>
  <tile gid="420"/>
  <tile gid="8"/>
  <tile gid="85"/>
  <tile gid="296"/>
  <tile gid="87"/>
  <tile gid="516"/>
  <tile gid="193"/>
  <tile gid="728"/>
  <tile gid="853"/>
  <tile gid="853"/>
  <tile gid="853"/>
  <tile gid="759"/>
  <tile gid="226"/>
  <tile gid="39"/>
  <tile gid="8"/>
  <tile gid="948"/>
  <tile gid="917"/>
  <tile gid="42"/>
  <tile gid="9"/>
  <tile gid="39"/>
  <tile gid="417"/>
  <tile gid="419"/>
  <tile gid="39"/>
  <tile gid="74"/>
  <tile gid="112"/>
  <tile gid="226"/>
  <tile gid="226"/>
  <tile gid="972"/>
  <tile gid="495"/>
  <tile gid="506"/>
  <tile gid="726"/>
  <tile gid="853"/>
  <tile gid="853"/>
  <tile gid="729"/>
  <tile gid="226"/>
  <tile gid="80"/>
  <tile gid="74"/>
  <tile gid="8"/>
  <tile gid="952"/>
  <tile gid="39"/>
  <tile gid="112"/>
  <tile gid="226"/>
  <tile gid="802"/>
  <tile gid="971"/>
  <tile gid="899"/>
  <tile gid="811"/>
  <tile gid="226"/>
  <tile gid="130"/>
  <tile gid="972"/>
  <tile gid="972"/>
  <tile gid="193"/>
  <tile gid="20"/>
  <tile gid="760"/>
  <tile gid="853"/>
  <tile gid="853"/>
  <tile gid="759"/>
  <tile gid="226"/>
  <tile gid="226"/>
  <tile gid="7"/>
  <tile gid="105"/>
  <tile gid="601"/>
  <tile gid="257"/>
  <tile gid="226"/>
  <tile gid="972"/>
  <tile gid="869"/>
  <tile gid="866"/>
  <tile gid="963"/>
  <tile gid="934"/>
  <tile gid="995"/>
  <tile gid="812"/>
  <tile gid="995"/>
  <tile gid="812"/>
  <tile gid="193"/>
  <tile gid="193"/>
  <tile gid="726"/>
  <tile gid="853"/>
  <tile gid="853"/>
  <tile gid="729"/>
  <tile gid="495"/>
  <tile gid="497"/>
  <tile gid="106"/>
  <tile gid="40"/>
  <tile gid="952"/>
  <tile gid="226"/>
  <tile gid="226"/>
  <tile gid="226"/>
  <tile gid="809"/>
  <tile gid="465"/>
  <tile gid="398"/>
  <tile gid="995"/>
  <tile gid="902"/>
  <tile gid="995"/>
  <tile gid="902"/>
  <tile gid="995"/>
  <tile gid="193"/>
  <tile gid="20"/>
  <tile gid="760"/>
  <tile gid="853"/>
  <tile gid="729"/>
  <tile gid="495"/>
  <tile gid="497"/>
  <tile gid="20"/>
  <tile gid="74"/>
  <tile gid="8"/>
  <tile gid="948"/>
  <tile gid="982"/>
  <tile gid="917"/>
  <tile gid="161"/>
  <tile gid="161"/>
  <tile gid="226"/>
  <tile gid="809"/>
  <tile gid="398"/>
  <tile gid="995"/>
  <tile gid="902"/>
  <tile gid="995"/>
  <tile gid="902"/>
  <tile gid="193"/>
  <tile gid="760"/>
  <tile gid="853"/>
  <tile gid="853"/>
  <tile gid="759"/>
  <tile gid="226"/>
  <tile gid="7"/>
  <tile gid="73"/>
  <tile gid="73"/>
  <tile gid="79"/>
  <tile gid="73"/>
  <tile gid="8"/>
  <tile gid="952"/>
  <tile gid="226"/>
  <tile gid="21"/>
  <tile gid="22"/>
  <tile gid="23"/>
  <tile gid="869"/>
  <tile gid="866"/>
  <tile gid="995"/>
  <tile gid="902"/>
  <tile gid="995"/>
  <tile gid="760"/>
  <tile gid="853"/>
  <tile gid="853"/>
  <tile gid="853"/>
  <tile gid="729"/>
  <tile gid="80"/>
  <tile gid="79"/>
  <tile gid="40"/>
  <tile gid="39"/>
  <tile gid="74"/>
  <tile gid="79"/>
  <tile gid="40"/>
  <tile gid="952"/>
  <tile gid="226"/>
  <tile gid="85"/>
  <tile gid="296"/>
  <tile gid="87"/>
  <tile gid="809"/>
  <tile gid="398"/>
  <tile gid="866"/>
  <tile gid="995"/>
  <tile gid="902"/>
  <tile gid="856"/>
  <tile gid="853"/>
  <tile gid="853"/>
  <tile gid="795"/>
  <tile gid="494"/>
  <tile gid="496"/>
  <tile gid="78"/>
  <tile gid="226"/>
  <tile gid="916"/>
  <tile gid="983"/>
  <tile gid="602"/>
  <tile gid="982"/>
  <tile gid="955"/>
  <tile gid="226"/>
  <tile gid="226"/>
  <tile gid="161"/>
  <tile gid="226"/>
  <tile gid="226"/>
  <tile gid="809"/>
  <tile gid="465"/>
  <tile gid="398"/>
  <tile gid="899"/>
  <tile gid="885"/>
  <tile gid="856"/>
  <tile gid="853"/>
  <tile gid="1011"/>
  <tile gid="982"/>
  <tile gid="983"/>
  <tile gid="982"/>
  <tile gid="982"/>
  <tile gid="949"/>
  <tile gid="7"/>
  <tile gid="105"/>
  <tile gid="258"/>
  <tile gid="948"/>
  <tile gid="983"/>
  <tile gid="982"/>
  <tile gid="982"/>
  <tile gid="917"/>
  <tile gid="226"/>
  <tile gid="226"/>
  <tile gid="226"/>
  <tile gid="809"/>
  <tile gid="398"/>
  <tile gid="885"/>
  <tile gid="888"/>
  <tile gid="853"/>
  <tile gid="795"/>
  <tile gid="497"/>
  <tile gid="258"/>
  <tile gid="226"/>
  <tile gid="7"/>
  <tile gid="73"/>
  <tile gid="79"/>
  <tile gid="105"/>
  <tile gid="226"/>
  <tile gid="226"/>
  <tile gid="226"/>
  <tile gid="226"/>
  <tile gid="226"/>
  <tile gid="952"/>
  <tile gid="664"/>
  <tile gid="226"/>
  <tile gid="161"/>
  <tile gid="161"/>
  <tile gid="809"/>
  <tile gid="888"/>
  <tile gid="853"/>
  <tile gid="853"/>
  <tile gid="853"/>
  <tile gid="759"/>
  <tile gid="226"/>
  <tile gid="80"/>
  <tile gid="74"/>
  <tile gid="79"/>
  <tile gid="105"/>
  <tile gid="78"/>
  <tile gid="226"/>
  <tile gid="420"/>
  <tile gid="226"/>
  <tile gid="226"/>
  <tile gid="664"/>
  <tile gid="954"/>
  <tile gid="986"/>
  <tile gid="984"/>
  <tile gid="602"/>
  <tile gid="983"/>
  <tile gid="982"/>
  <tile gid="728"/>
  <tile gid="853"/>
  <tile gid="853"/>
  <tile gid="853"/>
  <tile gid="853"/>
  <tile gid="759"/>
  <tile gid="226"/>
  <tile gid="226"/>
  <tile gid="39"/>
  <tile gid="451"/>
  <tile gid="452"/>
  <tile gid="495"/>
  <tile gid="497"/>
  <tile gid="226"/>
  <tile gid="696"/>
  <tile gid="986"/>
  <tile gid="949"/>
  <tile gid="663"/>
  <tile gid="663"/>
  <tile gid="226"/>
  <tile gid="226"/>
  <tile gid="20"/>
  <tile gid="193"/>
  <tile gid="726"/>
  <tile gid="853"/>
  <tile gid="853"/>
  <tile gid="853"/>
  <tile gid="729"/>
  <tile gid="226"/>
  <tile gid="226"/>
  <tile gid="420"/>
  <tile gid="483"/>
  <tile gid="484"/>
  <tile gid="8"/>
  <tile gid="161"/>
  <tile gid="226"/>
  <tile gid="226"/>
  <tile gid="952"/>
  <tile gid="161"/>
  <tile gid="161"/>
  <tile gid="161"/>
  <tile gid="802"/>
  <tile gid="995"/>
  <tile gid="812"/>
  <tile gid="533"/>
  <tile gid="495"/>
  <tile gid="728"/>
  <tile gid="853"/>
  <tile gid="853"/>
  <tile gid="759"/>
  <tile gid="226"/>
  <tile gid="193"/>
  <tile gid="39"/>
  <tile gid="79"/>
  <tile gid="105"/>
  <tile gid="106"/>
  <tile gid="73"/>
  <tile gid="8"/>
  <tile gid="916"/>
  <tile gid="949"/>
  <tile gid="161"/>
  <tile gid="226"/>
  <tile gid="226"/>
  <tile gid="869"/>
  <tile gid="962"/>
  <tile gid="899"/>
  <tile gid="193"/>
  <tile gid="495"/>
  <tile gid="506"/>
  <tile gid="726"/>
  <tile gid="853"/>
  <tile gid="853"/>
  <tile gid="759"/>
  <tile gid="226"/>
  <tile gid="226"/>
  <tile gid="106"/>
  <tile gid="40"/>
  <tile gid="78"/>
  <tile gid="39"/>
  <tile gid="40"/>
  <tile gid="952"/>
  <tile gid="226"/>
  <tile gid="226"/>
  <tile gid="226"/>
  <tile gid="226"/>
  <tile gid="809"/>
  <tile gid="465"/>
  <tile gid="876"/>
  <tile gid="8"/>
  <tile gid="20"/>
  <tile gid="193"/>
  <tile gid="696"/>
  <tile gid="853"/>
  <tile gid="853"/>
  <tile gid="1011"/>
  <tile gid="982"/>
  <tile gid="982"/>
  <tile gid="602"/>
  <tile gid="983"/>
  <tile gid="982"/>
  <tile gid="982"/>
  <tile gid="983"/>
  <tile gid="949"/>
  <tile gid="226"/>
  <tile gid="802"/>
  <tile gid="899"/>
  <tile gid="812"/>
  <tile gid="971"/>
  <tile gid="899"/>
  <tile gid="812"/>
  <tile gid="79"/>
  <tile gid="9"/>
  <tile gid="193"/>
  <tile gid="760"/>
  <tile gid="853"/>
  <tile gid="853"/>
  <tile gid="729"/>
  <tile gid="226"/>
  <tile gid="226"/>
  <tile gid="161"/>
  <tile gid="226"/>
  <tile gid="226"/>
  <tile gid="226"/>
  <tile gid="226"/>
  <tile gid="226"/>
  <tile gid="226"/>
  <tile gid="869"/>
  <tile gid="931"/>
  <tile gid="932"/>
  <tile gid="866"/>
  <tile gid="963"/>
  <tile gid="837"/>
  <tile gid="40"/>
  <tile gid="193"/>
  <tile gid="760"/>
  <tile gid="853"/>
  <tile gid="853"/>
  <tile gid="853"/>
  <tile gid="759"/>
  <tile gid="226"/>
  <tile gid="80"/>
  <tile gid="73"/>
  <tile gid="8"/>
  <tile gid="77"/>
  <tile gid="226"/>
  <tile gid="226"/>
  <tile gid="7"/>
  <tile gid="112"/>
  <tile gid="809"/>
  <tile gid="876"/>
  <tile gid="932"/>
  <tile gid="901"/>
  <tile gid="932"/>
  <tile gid="899"/>
  <tile gid="193"/>
  <tile gid="760"/>
  <tile gid="853"/>
  <tile gid="853"/>
  <tile gid="853"/>
  <tile gid="827"/>
  <tile gid="729"/>
  <tile gid="226"/>
  <tile gid="7"/>
  <tile gid="79"/>
  <tile gid="79"/>
  <tile gid="451"/>
  <tile gid="452"/>
  <tile gid="451"/>
  <tile gid="452"/>
  <tile gid="420"/>
  <tile gid="226"/>
  <tile gid="226"/>
  <tile gid="869"/>
  <tile gid="899"/>
  <tile gid="900"/>
  <tile gid="901"/>
  <tile gid="859"/>
  <tile gid="853"/>
  <tile gid="853"/>
  <tile gid="853"/>
  <tile gid="729"/>
  <tile gid="226"/>
  <tile gid="161"/>
  <tile gid="7"/>
  <tile gid="79"/>
  <tile gid="79"/>
  <tile gid="420"/>
  <tile gid="483"/>
  <tile gid="484"/>
  <tile gid="483"/>
  <tile gid="484"/>
  <tile gid="7"/>
  <tile gid="73"/>
  <tile gid="8"/>
  <tile gid="809"/>
  <tile gid="876"/>
  <tile gid="807"/>
  <tile gid="964"/>
  <tile gid="856"/>
  <tile gid="853"/>
  <tile gid="853"/>
  <tile gid="729"/>
  <tile gid="226"/>
  <tile gid="226"/>
  <tile gid="80"/>
  <tile gid="79"/>
  <tile gid="79"/>
  <tile gid="20"/>
  <tile gid="79"/>
  <tile gid="8"/>
  <tile gid="39"/>
  <tile gid="105"/>
  <tile gid="39"/>
  <tile gid="74"/>
  <tile gid="40"/>
  <tile gid="106"/>
  <tile gid="112"/>
  <tile gid="226"/>
  <tile gid="226"/>
  <tile gid="809"/>
  <tile gid="885"/>
  <tile gid="885"/>
  <tile gid="856"/>
  <tile gid="759"/>
  <tile gid="226"/>
  <tile gid="226"/>
  <tile gid="7"/>
  <tile gid="79"/>
  <tile gid="79"/>
  <tile gid="79"/>
  <tile gid="79"/>
  <tile gid="105"/>
  <tile gid="226"/>
  <tile gid="106"/>
  <tile gid="8"/>
  <tile gid="77"/>
  <tile gid="226"/>
  <tile gid="78"/>
  <tile gid="161"/>
  <tile gid="161"/>
  <tile gid="161"/>
  <tile gid="161"/>
  </data>
 </layer>
</map>
