<?xml version="1.0" encoding="UTF-8"?>
<map version="1.0" orientation="orthogonal" width="15" height="10" tilewidth="16" tileheight="16">
 <tileset firstgid="1" name="0E000F10" tilewidth="16" tileheight="16">
  <image source="0E000F10.png" trans="ffffff"/>
 </tileset>
 <layer name="Tile Layer 1" width="15" height="10">
  <properties>
   <property name="Anims1" value="0x12"/>
   <property name="Anims2" value="0x0"/>
   <property name="ChapterID" value="0x3d"/>
   <property name="Main" value=""/>
   <property name="MapChangesID" value="0x0"/>
   <property name="MapID" value="0xe4"/>
   <property name="ObjectType" value="0xe"/>
   <property name="PaletteID" value="0xf"/>
   <property name="TileConfig" value="0x10"/>
  </properties>
  <data>
  <tile gid="272"/>
  <tile gid="272"/>
  <tile gid="272"/>
  <tile gid="298"/>
  <tile gid="420"/>
  <tile gid="356"/>
  <tile gid="483"/>
  <tile gid="484"/>
  <tile gid="420"/>
  <tile gid="451"/>
  <tile gid="802"/>
  <tile gid="899"/>
  <tile gid="902"/>
  <tile gid="930"/>
  <tile gid="930"/>
  <tile gid="303"/>
  <tile gid="272"/>
  <tile gid="175"/>
  <tile gid="272"/>
  <tile gid="134"/>
  <tile gid="356"/>
  <tile gid="420"/>
  <tile gid="420"/>
  <tile gid="356"/>
  <tile gid="483"/>
  <tile gid="869"/>
  <tile gid="901"/>
  <tile gid="399"/>
  <tile gid="962"/>
  <tile gid="930"/>
  <tile gid="356"/>
  <tile gid="173"/>
  <tile gid="356"/>
  <tile gid="165"/>
  <tile gid="272"/>
  <tile gid="198"/>
  <tile gid="207"/>
  <tile gid="204"/>
  <tile gid="193"/>
  <tile gid="356"/>
  <tile gid="801"/>
  <tile gid="803"/>
  <tile gid="972"/>
  <tile gid="869"/>
  <tile gid="962"/>
  <tile gid="356"/>
  <tile gid="420"/>
  <tile gid="258"/>
  <tile gid="420"/>
  <tile gid="235"/>
  <tile gid="167"/>
  <tile gid="272"/>
  <tile gid="206"/>
  <tile gid="201"/>
  <tile gid="305"/>
  <tile gid="202"/>
  <tile gid="356"/>
  <tile gid="97"/>
  <tile gid="801"/>
  <tile gid="962"/>
  <tile gid="417"/>
  <tile gid="419"/>
  <tile gid="420"/>
  <tile gid="290"/>
  <tile gid="356"/>
  <tile gid="169"/>
  <tile gid="239"/>
  <tile gid="229"/>
  <tile gid="134"/>
  <tile gid="417"/>
  <tile gid="419"/>
  <tile gid="97"/>
  <tile gid="972"/>
  <tile gid="972"/>
  <tile gid="801"/>
  <tile gid="97"/>
  <tile gid="356"/>
  <tile gid="289"/>
  <tile gid="257"/>
  <tile gid="225"/>
  <tile gid="226"/>
  <tile gid="194"/>
  <tile gid="193"/>
  <tile gid="165"/>
  <tile gid="305"/>
  <tile gid="134"/>
  <tile gid="356"/>
  <tile gid="356"/>
  <tile gid="98"/>
  <tile gid="99"/>
  <tile gid="451"/>
  <tile gid="452"/>
  <tile gid="356"/>
  <tile gid="289"/>
  <tile gid="225"/>
  <tile gid="225"/>
  <tile gid="420"/>
  <tile gid="290"/>
  <tile gid="290"/>
  <tile gid="139"/>
  <tile gid="272"/>
  <tile gid="198"/>
  <tile gid="207"/>
  <tile gid="204"/>
  <tile gid="194"/>
  <tile gid="483"/>
  <tile gid="484"/>
  <tile gid="356"/>
  <tile gid="194"/>
  <tile gid="257"/>
  <tile gid="420"/>
  <tile gid="356"/>
  <tile gid="290"/>
  <tile gid="194"/>
  <tile gid="169"/>
  <tile gid="239"/>
  <tile gid="229"/>
  <tile gid="272"/>
  <tile gid="272"/>
  <tile gid="134"/>
  <tile gid="356"/>
  <tile gid="972"/>
  <tile gid="356"/>
  <tile gid="356"/>
  <tile gid="417"/>
  <tile gid="419"/>
  <tile gid="504"/>
  <tile gid="225"/>
  <tile gid="225"/>
  <tile gid="226"/>
  <tile gid="420"/>
  <tile gid="194"/>
  <tile gid="165"/>
  <tile gid="272"/>
  <tile gid="272"/>
  <tile gid="972"/>
  <tile gid="420"/>
  <tile gid="451"/>
  <tile gid="452"/>
  <tile gid="420"/>
  <tile gid="504"/>
  <tile gid="694"/>
  <tile gid="501"/>
  <tile gid="420"/>
  <tile gid="356"/>
  <tile gid="226"/>
  <tile gid="97"/>
  <tile gid="133"/>
  <tile gid="272"/>
  <tile gid="272"/>
  </data>
 </layer>
</map>
