<?xml version="1.0" encoding="UTF-8"?>
<map version="1.0" orientation="orthogonal" width="19" height="17" tilewidth="16" tileheight="16">
 <tileset firstgid="1" name="1800481A" tilewidth="16" tileheight="16">
  <image source="1800481A.png" trans="ffffff"/>
 </tileset>
 <layer name="Tile Layer 1" width="19" height="17">
  <properties>
   <property name="Main" value =""/>
  </properties>
  <data>
  <tile gid="786"/>
  <tile gid="459"/>
  <tile gid="623"/>
  <tile gid="626"/>
  <tile gid="626"/>
  <tile gid="626"/>
  <tile gid="629"/>
  <tile gid="553"/>
  <tile gid="522"/>
  <tile gid="623"/>
  <tile gid="626"/>
  <tile gid="626"/>
  <tile gid="627"/>
  <tile gid="802"/>
  <tile gid="785"/>
  <tile gid="722"/>
  <tile gid="786"/>
  <tile gid="722"/>
  <tile gid="521"/>
  <tile gid="722"/>
  <tile gid="553"/>
  <tile gid="522"/>
  <tile gid="623"/>
  <tile gid="626"/>
  <tile gid="626"/>
  <tile gid="660"/>
  <tile gid="658"/>
  <tile gid="459"/>
  <tile gid="655"/>
  <tile gid="628"/>
  <tile gid="628"/>
  <tile gid="688"/>
  <tile gid="834"/>
  <tile gid="721"/>
  <tile gid="786"/>
  <tile gid="722"/>
  <tile gid="786"/>
  <tile gid="459"/>
  <tile gid="786"/>
  <tile gid="722"/>
  <tile gid="467"/>
  <tile gid="623"/>
  <tile gid="626"/>
  <tile gid="626"/>
  <tile gid="626"/>
  <tile gid="629"/>
  <tile gid="553"/>
  <tile gid="427"/>
  <tile gid="427"/>
  <tile gid="427"/>
  <tile gid="449"/>
  <tile gid="427"/>
  <tile gid="427"/>
  <tile gid="427"/>
  <tile gid="427"/>
  <tile gid="427"/>
  <tile gid="522"/>
  <tile gid="721"/>
  <tile gid="786"/>
  <tile gid="723"/>
  <tile gid="597"/>
  <tile gid="626"/>
  <tile gid="626"/>
  <tile gid="626"/>
  <tile gid="660"/>
  <tile gid="596"/>
  <tile gid="596"/>
  <tile gid="596"/>
  <tile gid="596"/>
  <tile gid="596"/>
  <tile gid="596"/>
  <tile gid="596"/>
  <tile gid="596"/>
  <tile gid="658"/>
  <tile gid="787"/>
  <tile gid="459"/>
  <tile gid="522"/>
  <tile gid="721"/>
  <tile gid="786"/>
  <tile gid="597"/>
  <tile gid="626"/>
  <tile gid="626"/>
  <tile gid="626"/>
  <tile gid="626"/>
  <tile gid="626"/>
  <tile gid="626"/>
  <tile gid="626"/>
  <tile gid="626"/>
  <tile gid="626"/>
  <tile gid="626"/>
  <tile gid="626"/>
  <tile gid="626"/>
  <tile gid="629"/>
  <tile gid="521"/>
  <tile gid="584"/>
  <tile gid="553"/>
  <tile gid="522"/>
  <tile gid="721"/>
  <tile gid="597"/>
  <tile gid="626"/>
  <tile gid="626"/>
  <tile gid="626"/>
  <tile gid="626"/>
  <tile gid="626"/>
  <tile gid="626"/>
  <tile gid="626"/>
  <tile gid="626"/>
  <tile gid="626"/>
  <tile gid="626"/>
  <tile gid="626"/>
  <tile gid="626"/>
  <tile gid="629"/>
  <tile gid="459"/>
  <tile gid="680"/>
  <tile gid="787"/>
  <tile gid="553"/>
  <tile gid="462"/>
  <tile gid="902"/>
  <tile gid="522"/>
  <tile gid="1007"/>
  <tile gid="626"/>
  <tile gid="521"/>
  <tile gid="902"/>
  <tile gid="522"/>
  <tile gid="1007"/>
  <tile gid="626"/>
  <tile gid="626"/>
  <tile gid="626"/>
  <tile gid="626"/>
  <tile gid="626"/>
  <tile gid="629"/>
  <tile gid="459"/>
  <tile gid="712"/>
  <tile gid="721"/>
  <tile gid="787"/>
  <tile gid="459"/>
  <tile gid="868"/>
  <tile gid="459"/>
  <tile gid="229"/>
  <tile gid="628"/>
  <tile gid="459"/>
  <tile gid="868"/>
  <tile gid="459"/>
  <tile gid="229"/>
  <tile gid="628"/>
  <tile gid="628"/>
  <tile gid="628"/>
  <tile gid="628"/>
  <tile gid="628"/>
  <tile gid="982"/>
  <tile gid="459"/>
  <tile gid="821"/>
  <tile gid="427"/>
  <tile gid="427"/>
  <tile gid="584"/>
  <tile gid="963"/>
  <tile gid="584"/>
  <tile gid="453"/>
  <tile gid="454"/>
  <tile gid="584"/>
  <tile gid="963"/>
  <tile gid="584"/>
  <tile gid="434"/>
  <tile gid="427"/>
  <tile gid="427"/>
  <tile gid="427"/>
  <tile gid="522"/>
  <tile gid="721"/>
  <tile gid="786"/>
  <tile gid="459"/>
  <tile gid="821"/>
  <tile gid="867"/>
  <tile gid="867"/>
  <tile gid="680"/>
  <tile gid="312"/>
  <tile gid="680"/>
  <tile gid="453"/>
  <tile gid="454"/>
  <tile gid="680"/>
  <tile gid="312"/>
  <tile gid="680"/>
  <tile gid="868"/>
  <tile gid="867"/>
  <tile gid="867"/>
  <tile gid="867"/>
  <tile gid="584"/>
  <tile gid="434"/>
  <tile gid="427"/>
  <tile gid="584"/>
  <tile gid="821"/>
  <tile gid="898"/>
  <tile gid="899"/>
  <tile gid="712"/>
  <tile gid="344"/>
  <tile gid="712"/>
  <tile gid="453"/>
  <tile gid="454"/>
  <tile gid="712"/>
  <tile gid="344"/>
  <tile gid="712"/>
  <tile gid="897"/>
  <tile gid="898"/>
  <tile gid="898"/>
  <tile gid="899"/>
  <tile gid="680"/>
  <tile gid="868"/>
  <tile gid="867"/>
  <tile gid="680"/>
  <tile gid="821"/>
  <tile gid="825"/>
  <tile gid="825"/>
  <tile gid="825"/>
  <tile gid="825"/>
  <tile gid="825"/>
  <tile gid="825"/>
  <tile gid="825"/>
  <tile gid="825"/>
  <tile gid="825"/>
  <tile gid="825"/>
  <tile gid="825"/>
  <tile gid="825"/>
  <tile gid="825"/>
  <tile gid="825"/>
  <tile gid="712"/>
  <tile gid="897"/>
  <tile gid="899"/>
  <tile gid="712"/>
  <tile gid="821"/>
  <tile gid="822"/>
  <tile gid="822"/>
  <tile gid="822"/>
  <tile gid="311"/>
  <tile gid="313"/>
  <tile gid="822"/>
  <tile gid="822"/>
  <tile gid="311"/>
  <tile gid="313"/>
  <tile gid="822"/>
  <tile gid="822"/>
  <tile gid="822"/>
  <tile gid="822"/>
  <tile gid="822"/>
  <tile gid="825"/>
  <tile gid="825"/>
  <tile gid="825"/>
  <tile gid="825"/>
  <tile gid="822"/>
  <tile gid="312"/>
  <tile gid="312"/>
  <tile gid="312"/>
  <tile gid="533"/>
  <tile gid="218"/>
  <tile gid="822"/>
  <tile gid="822"/>
  <tile gid="219"/>
  <tile gid="534"/>
  <tile gid="312"/>
  <tile gid="312"/>
  <tile gid="312"/>
  <tile gid="312"/>
  <tile gid="312"/>
  <tile gid="312"/>
  <tile gid="312"/>
  <tile gid="312"/>
  <tile gid="312"/>
  <tile gid="312"/>
  <tile gid="214"/>
  <tile gid="214"/>
  <tile gid="214"/>
  <tile gid="214"/>
  <tile gid="218"/>
  <tile gid="822"/>
  <tile gid="822"/>
  <tile gid="219"/>
  <tile gid="214"/>
  <tile gid="214"/>
  <tile gid="214"/>
  <tile gid="214"/>
  <tile gid="214"/>
  <tile gid="214"/>
  <tile gid="214"/>
  <tile gid="214"/>
  <tile gid="214"/>
  <tile gid="214"/>
  <tile gid="214"/>
  <tile gid="344"/>
  <tile gid="344"/>
  <tile gid="344"/>
  <tile gid="344"/>
  <tile gid="345"/>
  <tile gid="822"/>
  <tile gid="822"/>
  <tile gid="343"/>
  <tile gid="344"/>
  <tile gid="344"/>
  <tile gid="344"/>
  <tile gid="344"/>
  <tile gid="344"/>
  <tile gid="287"/>
  <tile gid="214"/>
  <tile gid="214"/>
  <tile gid="214"/>
  <tile gid="214"/>
  <tile gid="214"/>
  <tile gid="822"/>
  <tile gid="822"/>
  <tile gid="822"/>
  <tile gid="822"/>
  <tile gid="822"/>
  <tile gid="822"/>
  <tile gid="822"/>
  <tile gid="822"/>
  <tile gid="822"/>
  <tile gid="822"/>
  <tile gid="822"/>
  <tile gid="822"/>
  <tile gid="822"/>
  <tile gid="219"/>
  <tile gid="214"/>
  <tile gid="214"/>
  <tile gid="214"/>
  <tile gid="214"/>
  <tile gid="214"/>
  </data>
 </layer>
</map>
