<?xml version="1.0" encoding="UTF-8"?>
<map version="1.0" orientation="orthogonal" width="16" height="24" tilewidth="16" tileheight="16">
 <tileset firstgid="1" name="1800481A" tilewidth="16" tileheight="16">
  <image source="1800481A.png" trans="ffffff"/>
 </tileset>
 <layer name="Tile Layer 1" width="16" height="24">
  <properties>
   <property name="Main" value =""/>
  </properties>
  <data>
  <tile gid="219"/>
  <tile gid="214"/>
  <tile gid="214"/>
  <tile gid="278"/>
  <tile gid="457"/>
  <tile gid="552"/>
  <tile gid="902"/>
  <tile gid="427"/>
  <tile gid="427"/>
  <tile gid="427"/>
  <tile gid="427"/>
  <tile gid="427"/>
  <tile gid="427"/>
  <tile gid="427"/>
  <tile gid="551"/>
  <tile gid="425"/>
  <tile gid="219"/>
  <tile gid="214"/>
  <tile gid="278"/>
  <tile gid="213"/>
  <tile gid="457"/>
  <tile gid="458"/>
  <tile gid="815"/>
  <tile gid="779"/>
  <tile gid="779"/>
  <tile gid="913"/>
  <tile gid="914"/>
  <tile gid="915"/>
  <tile gid="815"/>
  <tile gid="779"/>
  <tile gid="457"/>
  <tile gid="425"/>
  <tile gid="219"/>
  <tile gid="278"/>
  <tile gid="213"/>
  <tile gid="213"/>
  <tile gid="457"/>
  <tile gid="458"/>
  <tile gid="527"/>
  <tile gid="596"/>
  <tile gid="596"/>
  <tile gid="945"/>
  <tile gid="946"/>
  <tile gid="947"/>
  <tile gid="197"/>
  <tile gid="658"/>
  <tile gid="457"/>
  <tile gid="425"/>
  <tile gid="427"/>
  <tile gid="427"/>
  <tile gid="427"/>
  <tile gid="427"/>
  <tile gid="427"/>
  <tile gid="554"/>
  <tile gid="623"/>
  <tile gid="626"/>
  <tile gid="626"/>
  <tile gid="487"/>
  <tile gid="455"/>
  <tile gid="454"/>
  <tile gid="1007"/>
  <tile gid="629"/>
  <tile gid="457"/>
  <tile gid="425"/>
  <tile gid="596"/>
  <tile gid="596"/>
  <tile gid="596"/>
  <tile gid="596"/>
  <tile gid="596"/>
  <tile gid="596"/>
  <tile gid="659"/>
  <tile gid="626"/>
  <tile gid="626"/>
  <tile gid="976"/>
  <tile gid="976"/>
  <tile gid="976"/>
  <tile gid="626"/>
  <tile gid="629"/>
  <tile gid="457"/>
  <tile gid="425"/>
  <tile gid="626"/>
  <tile gid="626"/>
  <tile gid="626"/>
  <tile gid="626"/>
  <tile gid="626"/>
  <tile gid="626"/>
  <tile gid="626"/>
  <tile gid="626"/>
  <tile gid="626"/>
  <tile gid="626"/>
  <tile gid="626"/>
  <tile gid="626"/>
  <tile gid="626"/>
  <tile gid="629"/>
  <tile gid="457"/>
  <tile gid="425"/>
  <tile gid="626"/>
  <tile gid="626"/>
  <tile gid="626"/>
  <tile gid="626"/>
  <tile gid="626"/>
  <tile gid="626"/>
  <tile gid="626"/>
  <tile gid="626"/>
  <tile gid="626"/>
  <tile gid="626"/>
  <tile gid="626"/>
  <tile gid="626"/>
  <tile gid="626"/>
  <tile gid="629"/>
  <tile gid="457"/>
  <tile gid="425"/>
  <tile gid="628"/>
  <tile gid="628"/>
  <tile gid="628"/>
  <tile gid="628"/>
  <tile gid="628"/>
  <tile gid="628"/>
  <tile gid="691"/>
  <tile gid="626"/>
  <tile gid="626"/>
  <tile gid="626"/>
  <tile gid="626"/>
  <tile gid="626"/>
  <tile gid="626"/>
  <tile gid="629"/>
  <tile gid="457"/>
  <tile gid="425"/>
  <tile gid="427"/>
  <tile gid="427"/>
  <tile gid="427"/>
  <tile gid="427"/>
  <tile gid="551"/>
  <tile gid="458"/>
  <tile gid="655"/>
  <tile gid="628"/>
  <tile gid="628"/>
  <tile gid="628"/>
  <tile gid="628"/>
  <tile gid="628"/>
  <tile gid="628"/>
  <tile gid="690"/>
  <tile gid="485"/>
  <tile gid="434"/>
  <tile gid="311"/>
  <tile gid="312"/>
  <tile gid="312"/>
  <tile gid="313"/>
  <tile gid="553"/>
  <tile gid="427"/>
  <tile gid="427"/>
  <tile gid="462"/>
  <tile gid="902"/>
  <tile gid="554"/>
  <tile gid="417"/>
  <tile gid="553"/>
  <tile gid="427"/>
  <tile gid="522"/>
  <tile gid="811"/>
  <tile gid="615"/>
  <tile gid="219"/>
  <tile gid="214"/>
  <tile gid="246"/>
  <tile gid="534"/>
  <tile gid="312"/>
  <tile gid="312"/>
  <tile gid="313"/>
  <tile gid="459"/>
  <tile gid="527"/>
  <tile gid="596"/>
  <tile gid="596"/>
  <tile gid="596"/>
  <tile gid="658"/>
  <tile gid="459"/>
  <tile gid="311"/>
  <tile gid="312"/>
  <tile gid="219"/>
  <tile gid="214"/>
  <tile gid="214"/>
  <tile gid="213"/>
  <tile gid="213"/>
  <tile gid="213"/>
  <tile gid="218"/>
  <tile gid="459"/>
  <tile gid="623"/>
  <tile gid="626"/>
  <tile gid="626"/>
  <tile gid="626"/>
  <tile gid="629"/>
  <tile gid="459"/>
  <tile gid="219"/>
  <tile gid="213"/>
  <tile gid="219"/>
  <tile gid="214"/>
  <tile gid="214"/>
  <tile gid="214"/>
  <tile gid="214"/>
  <tile gid="213"/>
  <tile gid="218"/>
  <tile gid="459"/>
  <tile gid="623"/>
  <tile gid="626"/>
  <tile gid="626"/>
  <tile gid="626"/>
  <tile gid="629"/>
  <tile gid="459"/>
  <tile gid="219"/>
  <tile gid="213"/>
  <tile gid="219"/>
  <tile gid="214"/>
  <tile gid="214"/>
  <tile gid="214"/>
  <tile gid="214"/>
  <tile gid="214"/>
  <tile gid="218"/>
  <tile gid="459"/>
  <tile gid="623"/>
  <tile gid="626"/>
  <tile gid="626"/>
  <tile gid="626"/>
  <tile gid="629"/>
  <tile gid="459"/>
  <tile gid="219"/>
  <tile gid="213"/>
  <tile gid="219"/>
  <tile gid="214"/>
  <tile gid="214"/>
  <tile gid="214"/>
  <tile gid="214"/>
  <tile gid="246"/>
  <tile gid="218"/>
  <tile gid="459"/>
  <tile gid="623"/>
  <tile gid="626"/>
  <tile gid="626"/>
  <tile gid="626"/>
  <tile gid="629"/>
  <tile gid="459"/>
  <tile gid="219"/>
  <tile gid="213"/>
  <tile gid="219"/>
  <tile gid="214"/>
  <tile gid="214"/>
  <tile gid="214"/>
  <tile gid="214"/>
  <tile gid="214"/>
  <tile gid="218"/>
  <tile gid="459"/>
  <tile gid="623"/>
  <tile gid="626"/>
  <tile gid="626"/>
  <tile gid="626"/>
  <tile gid="629"/>
  <tile gid="459"/>
  <tile gid="219"/>
  <tile gid="213"/>
  <tile gid="219"/>
  <tile gid="214"/>
  <tile gid="214"/>
  <tile gid="214"/>
  <tile gid="213"/>
  <tile gid="213"/>
  <tile gid="218"/>
  <tile gid="459"/>
  <tile gid="623"/>
  <tile gid="626"/>
  <tile gid="626"/>
  <tile gid="626"/>
  <tile gid="629"/>
  <tile gid="459"/>
  <tile gid="219"/>
  <tile gid="213"/>
  <tile gid="485"/>
  <tile gid="431"/>
  <tile gid="427"/>
  <tile gid="427"/>
  <tile gid="427"/>
  <tile gid="427"/>
  <tile gid="427"/>
  <tile gid="554"/>
  <tile gid="623"/>
  <tile gid="626"/>
  <tile gid="626"/>
  <tile gid="626"/>
  <tile gid="629"/>
  <tile gid="459"/>
  <tile gid="219"/>
  <tile gid="213"/>
  <tile gid="459"/>
  <tile gid="815"/>
  <tile gid="779"/>
  <tile gid="779"/>
  <tile gid="779"/>
  <tile gid="779"/>
  <tile gid="779"/>
  <tile gid="782"/>
  <tile gid="623"/>
  <tile gid="626"/>
  <tile gid="626"/>
  <tile gid="626"/>
  <tile gid="629"/>
  <tile gid="459"/>
  <tile gid="219"/>
  <tile gid="213"/>
  <tile gid="459"/>
  <tile gid="959"/>
  <tile gid="596"/>
  <tile gid="596"/>
  <tile gid="596"/>
  <tile gid="596"/>
  <tile gid="596"/>
  <tile gid="596"/>
  <tile gid="659"/>
  <tile gid="626"/>
  <tile gid="626"/>
  <tile gid="626"/>
  <tile gid="629"/>
  <tile gid="459"/>
  <tile gid="219"/>
  <tile gid="213"/>
  <tile gid="459"/>
  <tile gid="623"/>
  <tile gid="626"/>
  <tile gid="626"/>
  <tile gid="626"/>
  <tile gid="626"/>
  <tile gid="626"/>
  <tile gid="459"/>
  <tile gid="1007"/>
  <tile gid="626"/>
  <tile gid="626"/>
  <tile gid="626"/>
  <tile gid="629"/>
  <tile gid="459"/>
  <tile gid="219"/>
  <tile gid="213"/>
  <tile gid="485"/>
  <tile gid="623"/>
  <tile gid="485"/>
  <tile gid="431"/>
  <tile gid="427"/>
  <tile gid="427"/>
  <tile gid="427"/>
  <tile gid="427"/>
  <tile gid="427"/>
  <tile gid="427"/>
  <tile gid="427"/>
  <tile gid="427"/>
  <tile gid="427"/>
  <tile gid="485"/>
  <tile gid="219"/>
  <tile gid="213"/>
  <tile gid="459"/>
  <tile gid="623"/>
  <tile gid="517"/>
  <tile gid="815"/>
  <tile gid="779"/>
  <tile gid="779"/>
  <tile gid="779"/>
  <tile gid="779"/>
  <tile gid="779"/>
  <tile gid="779"/>
  <tile gid="779"/>
  <tile gid="779"/>
  <tile gid="779"/>
  <tile gid="517"/>
  <tile gid="219"/>
  <tile gid="213"/>
  <tile gid="459"/>
  <tile gid="623"/>
  <tile gid="976"/>
  <tile gid="976"/>
  <tile gid="976"/>
  <tile gid="976"/>
  <tile gid="976"/>
  <tile gid="976"/>
  <tile gid="976"/>
  <tile gid="976"/>
  <tile gid="976"/>
  <tile gid="976"/>
  <tile gid="1012"/>
  <tile gid="459"/>
  <tile gid="219"/>
  <tile gid="213"/>
  </data>
 </layer>
 <layer name="Map Change 0" width="16" height="24">
  <properties>
   <property name="ID" value ="0"/>
   <property name="Height" value ="1"/>
   <property name="Width" value ="3"/>
   <property name="X" value ="9"/>
   <property name="Y" value ="9"/>
  </properties>
  <data>
  <tile gid="0"/>
  <tile gid="0"/>
  <tile gid="0"/>
  <tile gid="0"/>
  <tile gid="0"/>
  <tile gid="0"/>
  <tile gid="0"/>
  <tile gid="0"/>
  <tile gid="0"/>
  <tile gid="0"/>
  <tile gid="0"/>
  <tile gid="0"/>
  <tile gid="0"/>
  <tile gid="0"/>
  <tile gid="0"/>
  <tile gid="0"/>
  <tile gid="0"/>
  <tile gid="0"/>
  <tile gid="0"/>
  <tile gid="0"/>
  <tile gid="0"/>
  <tile gid="0"/>
  <tile gid="0"/>
  <tile gid="0"/>
  <tile gid="0"/>
  <tile gid="0"/>
  <tile gid="0"/>
  <tile gid="0"/>
  <tile gid="0"/>
  <tile gid="0"/>
  <tile gid="0"/>
  <tile gid="0"/>
  <tile gid="0"/>
  <tile gid="0"/>
  <tile gid="0"/>
  <tile gid="0"/>
  <tile gid="0"/>
  <tile gid="0"/>
  <tile gid="0"/>
  <tile gid="0"/>
  <tile gid="0"/>
  <tile gid="0"/>
  <tile gid="0"/>
  <tile gid="0"/>
  <tile gid="0"/>
  <tile gid="0"/>
  <tile gid="0"/>
  <tile gid="0"/>
  <tile gid="0"/>
  <tile gid="0"/>
  <tile gid="0"/>
  <tile gid="0"/>
  <tile gid="0"/>
  <tile gid="0"/>
  <tile gid="0"/>
  <tile gid="0"/>
  <tile gid="0"/>
  <tile gid="0"/>
  <tile gid="0"/>
  <tile gid="0"/>
  <tile gid="0"/>
  <tile gid="0"/>
  <tile gid="0"/>
  <tile gid="0"/>
  <tile gid="0"/>
  <tile gid="0"/>
  <tile gid="0"/>
  <tile gid="0"/>
  <tile gid="0"/>
  <tile gid="0"/>
  <tile gid="0"/>
  <tile gid="0"/>
  <tile gid="0"/>
  <tile gid="0"/>
  <tile gid="0"/>
  <tile gid="0"/>
  <tile gid="0"/>
  <tile gid="0"/>
  <tile gid="0"/>
  <tile gid="0"/>
  <tile gid="0"/>
  <tile gid="0"/>
  <tile gid="0"/>
  <tile gid="0"/>
  <tile gid="0"/>
  <tile gid="0"/>
  <tile gid="0"/>
  <tile gid="0"/>
  <tile gid="0"/>
  <tile gid="0"/>
  <tile gid="0"/>
  <tile gid="0"/>
  <tile gid="0"/>
  <tile gid="0"/>
  <tile gid="0"/>
  <tile gid="0"/>
  <tile gid="0"/>
  <tile gid="0"/>
  <tile gid="0"/>
  <tile gid="0"/>
  <tile gid="0"/>
  <tile gid="0"/>
  <tile gid="0"/>
  <tile gid="0"/>
  <tile gid="0"/>
  <tile gid="0"/>
  <tile gid="0"/>
  <tile gid="0"/>
  <tile gid="0"/>
  <tile gid="0"/>
  <tile gid="0"/>
  <tile gid="0"/>
  <tile gid="0"/>
  <tile gid="0"/>
  <tile gid="0"/>
  <tile gid="0"/>
  <tile gid="0"/>
  <tile gid="0"/>
  <tile gid="0"/>
  <tile gid="0"/>
  <tile gid="0"/>
  <tile gid="0"/>
  <tile gid="0"/>
  <tile gid="0"/>
  <tile gid="0"/>
  <tile gid="0"/>
  <tile gid="0"/>
  <tile gid="0"/>
  <tile gid="0"/>
  <tile gid="0"/>
  <tile gid="0"/>
  <tile gid="0"/>
  <tile gid="0"/>
  <tile gid="0"/>
  <tile gid="0"/>
  <tile gid="0"/>
  <tile gid="0"/>
  <tile gid="0"/>
  <tile gid="0"/>
  <tile gid="0"/>
  <tile gid="0"/>
  <tile gid="0"/>
  <tile gid="0"/>
  <tile gid="0"/>
  <tile gid="0"/>
  <tile gid="0"/>
  <tile gid="0"/>
  <tile gid="0"/>
  <tile gid="0"/>
  <tile gid="0"/>
  <tile gid="0"/>
  <tile gid="0"/>
  <tile gid="0"/>
  <tile gid="1"/>
  <tile gid="821"/>
  <tile gid="553"/>
  <tile gid="0"/>
  <tile gid="0"/>
  <tile gid="0"/>
  <tile gid="0"/>
  <tile gid="0"/>
  <tile gid="0"/>
  <tile gid="0"/>
  <tile gid="0"/>
  <tile gid="0"/>
  <tile gid="0"/>
  <tile gid="0"/>
  <tile gid="0"/>
  <tile gid="0"/>
  <tile gid="0"/>
  <tile gid="0"/>
  <tile gid="0"/>
  <tile gid="0"/>
  <tile gid="0"/>
  <tile gid="0"/>
  <tile gid="0"/>
  <tile gid="0"/>
  <tile gid="0"/>
  <tile gid="0"/>
  <tile gid="0"/>
  <tile gid="0"/>
  <tile gid="0"/>
  <tile gid="0"/>
  <tile gid="0"/>
  <tile gid="0"/>
  <tile gid="0"/>
  <tile gid="0"/>
  <tile gid="0"/>
  <tile gid="0"/>
  <tile gid="0"/>
  <tile gid="0"/>
  <tile gid="0"/>
  <tile gid="0"/>
  <tile gid="0"/>
  <tile gid="0"/>
  <tile gid="0"/>
  <tile gid="0"/>
  <tile gid="0"/>
  <tile gid="0"/>
  <tile gid="0"/>
  <tile gid="0"/>
  <tile gid="0"/>
  <tile gid="0"/>
  <tile gid="0"/>
  <tile gid="0"/>
  <tile gid="0"/>
  <tile gid="0"/>
  <tile gid="0"/>
  <tile gid="0"/>
  <tile gid="0"/>
  <tile gid="0"/>
  <tile gid="0"/>
  <tile gid="0"/>
  <tile gid="0"/>
  <tile gid="0"/>
  <tile gid="0"/>
  <tile gid="0"/>
  <tile gid="0"/>
  <tile gid="0"/>
  <tile gid="0"/>
  <tile gid="0"/>
  <tile gid="0"/>
  <tile gid="0"/>
  <tile gid="0"/>
  <tile gid="0"/>
  <tile gid="0"/>
  <tile gid="0"/>
  <tile gid="0"/>
  <tile gid="0"/>
  <tile gid="0"/>
  <tile gid="0"/>
  <tile gid="0"/>
  <tile gid="0"/>
  <tile gid="0"/>
  <tile gid="0"/>
  <tile gid="0"/>
  <tile gid="0"/>
  <tile gid="0"/>
  <tile gid="0"/>
  <tile gid="0"/>
  <tile gid="0"/>
  <tile gid="0"/>
  <tile gid="0"/>
  <tile gid="0"/>
  <tile gid="0"/>
  <tile gid="0"/>
  <tile gid="0"/>
  <tile gid="0"/>
  <tile gid="0"/>
  <tile gid="0"/>
  <tile gid="0"/>
  <tile gid="0"/>
  <tile gid="0"/>
  <tile gid="0"/>
  <tile gid="0"/>
  <tile gid="0"/>
  <tile gid="0"/>
  <tile gid="0"/>
  <tile gid="0"/>
  <tile gid="0"/>
  <tile gid="0"/>
  <tile gid="0"/>
  <tile gid="0"/>
  <tile gid="0"/>
  <tile gid="0"/>
  <tile gid="0"/>
  <tile gid="0"/>
  <tile gid="0"/>
  <tile gid="0"/>
  <tile gid="0"/>
  <tile gid="0"/>
  <tile gid="0"/>
  <tile gid="0"/>
  <tile gid="0"/>
  <tile gid="0"/>
  <tile gid="0"/>
  <tile gid="0"/>
  <tile gid="0"/>
  <tile gid="0"/>
  <tile gid="0"/>
  <tile gid="0"/>
  <tile gid="0"/>
  <tile gid="0"/>
  <tile gid="0"/>
  <tile gid="0"/>
  <tile gid="0"/>
  <tile gid="0"/>
  <tile gid="0"/>
  <tile gid="0"/>
  <tile gid="0"/>
  <tile gid="0"/>
  <tile gid="0"/>
  <tile gid="0"/>
  <tile gid="0"/>
  <tile gid="0"/>
  <tile gid="0"/>
  <tile gid="0"/>
  <tile gid="0"/>
  <tile gid="0"/>
  <tile gid="0"/>
  <tile gid="0"/>
  <tile gid="0"/>
  <tile gid="0"/>
  <tile gid="0"/>
  <tile gid="0"/>
  <tile gid="0"/>
  <tile gid="0"/>
  <tile gid="0"/>
  <tile gid="0"/>
  <tile gid="0"/>
  <tile gid="0"/>
  <tile gid="0"/>
  <tile gid="0"/>
  <tile gid="0"/>
  <tile gid="0"/>
  <tile gid="0"/>
  <tile gid="0"/>
  <tile gid="0"/>
  <tile gid="0"/>
  <tile gid="0"/>
  <tile gid="0"/>
  <tile gid="0"/>
  <tile gid="0"/>
  <tile gid="0"/>
  <tile gid="0"/>
  <tile gid="0"/>
  <tile gid="0"/>
  <tile gid="0"/>
  <tile gid="0"/>
  <tile gid="0"/>
  <tile gid="0"/>
  <tile gid="0"/>
  <tile gid="0"/>
  <tile gid="0"/>
  <tile gid="0"/>
  <tile gid="0"/>
  <tile gid="0"/>
  <tile gid="0"/>
  <tile gid="0"/>
  <tile gid="0"/>
  <tile gid="0"/>
  <tile gid="0"/>
  <tile gid="0"/>
  <tile gid="0"/>
  <tile gid="0"/>
  <tile gid="0"/>
  <tile gid="0"/>
  <tile gid="0"/>
  <tile gid="0"/>
  <tile gid="0"/>
  <tile gid="0"/>
  <tile gid="0"/>
  <tile gid="0"/>
  <tile gid="0"/>
  <tile gid="0"/>
  <tile gid="0"/>
  <tile gid="0"/>
  <tile gid="0"/>
  <tile gid="0"/>
  <tile gid="0"/>
  <tile gid="0"/>
  <tile gid="0"/>
  <tile gid="0"/>
  <tile gid="0"/>
  <tile gid="0"/>
  <tile gid="0"/>
  <tile gid="0"/>
  <tile gid="0"/>
  <tile gid="0"/>
  <tile gid="0"/>
  <tile gid="0"/>
  <tile gid="0"/>
  <tile gid="0"/>
  <tile gid="0"/>
  <tile gid="0"/>
  <tile gid="0"/>
  <tile gid="0"/>
  <tile gid="0"/>
  <tile gid="0"/>
  <tile gid="0"/>
  <tile gid="0"/>
  <tile gid="0"/>
  <tile gid="0"/>
  <tile gid="0"/>
  </data>
 </layer>
</map>
