<?xml version="1.0" encoding="UTF-8"?>
<map version="1.0" orientation="orthogonal" width="21" height="32" tilewidth="16" tileheight="16">
 <tileset firstgid="1" name="0E000F10" tilewidth="16" tileheight="16">
  <image source="0E000F10.png" trans="ffffff"/>
 </tileset>
 <layer name="Tile Layer 1" width="21" height="32">
  <properties>
   <property name="Anims1" value="0x12"/>
   <property name="Anims2" value="0x0"/>
   <property name="ChapterID" value="0x3"/>
   <property name="Main" value=""/>
   <property name="MapChangesID" value="0x13"/>
   <property name="MapID" value="0x11"/>
   <property name="ObjectType" value="0xe"/>
   <property name="PaletteID" value="0xf"/>
   <property name="TileConfig" value="0x10"/>
  </properties>
  <data>
  <tile gid="193"/>
  <tile gid="193"/>
  <tile gid="730"/>
  <tile gid="853"/>
  <tile gid="886"/>
  <tile gid="885"/>
  <tile gid="885"/>
  <tile gid="885"/>
  <tile gid="885"/>
  <tile gid="888"/>
  <tile gid="761"/>
  <tile gid="193"/>
  <tile gid="11"/>
  <tile gid="79"/>
  <tile gid="79"/>
  <tile gid="79"/>
  <tile gid="79"/>
  <tile gid="40"/>
  <tile gid="193"/>
  <tile gid="193"/>
  <tile gid="258"/>
  <tile gid="258"/>
  <tile gid="193"/>
  <tile gid="193"/>
  <tile gid="730"/>
  <tile gid="853"/>
  <tile gid="886"/>
  <tile gid="885"/>
  <tile gid="885"/>
  <tile gid="888"/>
  <tile gid="853"/>
  <tile gid="827"/>
  <tile gid="695"/>
  <tile gid="11"/>
  <tile gid="79"/>
  <tile gid="79"/>
  <tile gid="79"/>
  <tile gid="105"/>
  <tile gid="495"/>
  <tile gid="497"/>
  <tile gid="258"/>
  <tile gid="258"/>
  <tile gid="258"/>
  <tile gid="193"/>
  <tile gid="193"/>
  <tile gid="696"/>
  <tile gid="853"/>
  <tile gid="853"/>
  <tile gid="853"/>
  <tile gid="729"/>
  <tile gid="730"/>
  <tile gid="853"/>
  <tile gid="695"/>
  <tile gid="193"/>
  <tile gid="43"/>
  <tile gid="79"/>
  <tile gid="79"/>
  <tile gid="79"/>
  <tile gid="40"/>
  <tile gid="451"/>
  <tile gid="452"/>
  <tile gid="420"/>
  <tile gid="193"/>
  <tile gid="258"/>
  <tile gid="193"/>
  <tile gid="193"/>
  <tile gid="696"/>
  <tile gid="853"/>
  <tile gid="795"/>
  <tile gid="663"/>
  <tile gid="495"/>
  <tile gid="497"/>
  <tile gid="663"/>
  <tile gid="193"/>
  <tile gid="193"/>
  <tile gid="7"/>
  <tile gid="79"/>
  <tile gid="79"/>
  <tile gid="105"/>
  <tile gid="193"/>
  <tile gid="483"/>
  <tile gid="484"/>
  <tile gid="420"/>
  <tile gid="258"/>
  <tile gid="258"/>
  <tile gid="258"/>
  <tile gid="193"/>
  <tile gid="193"/>
  <tile gid="730"/>
  <tile gid="795"/>
  <tile gid="193"/>
  <tile gid="193"/>
  <tile gid="516"/>
  <tile gid="21"/>
  <tile gid="22"/>
  <tile gid="23"/>
  <tile gid="74"/>
  <tile gid="79"/>
  <tile gid="79"/>
  <tile gid="79"/>
  <tile gid="8"/>
  <tile gid="420"/>
  <tile gid="417"/>
  <tile gid="419"/>
  <tile gid="193"/>
  <tile gid="193"/>
  <tile gid="258"/>
  <tile gid="7"/>
  <tile gid="8"/>
  <tile gid="193"/>
  <tile gid="730"/>
  <tile gid="761"/>
  <tile gid="193"/>
  <tile gid="516"/>
  <tile gid="85"/>
  <tile gid="86"/>
  <tile gid="87"/>
  <tile gid="193"/>
  <tile gid="39"/>
  <tile gid="74"/>
  <tile gid="79"/>
  <tile gid="79"/>
  <tile gid="8"/>
  <tile gid="470"/>
  <tile gid="561"/>
  <tile gid="495"/>
  <tile gid="75"/>
  <tile gid="7"/>
  <tile gid="79"/>
  <tile gid="105"/>
  <tile gid="193"/>
  <tile gid="193"/>
  <tile gid="730"/>
  <tile gid="761"/>
  <tile gid="664"/>
  <tile gid="664"/>
  <tile gid="173"/>
  <tile gid="193"/>
  <tile gid="193"/>
  <tile gid="258"/>
  <tile gid="258"/>
  <tile gid="106"/>
  <tile gid="79"/>
  <tile gid="105"/>
  <tile gid="258"/>
  <tile gid="193"/>
  <tile gid="193"/>
  <tile gid="79"/>
  <tile gid="79"/>
  <tile gid="79"/>
  <tile gid="40"/>
  <tile gid="495"/>
  <tile gid="497"/>
  <tile gid="193"/>
  <tile gid="730"/>
  <tile gid="853"/>
  <tile gid="853"/>
  <tile gid="761"/>
  <tile gid="193"/>
  <tile gid="258"/>
  <tile gid="258"/>
  <tile gid="193"/>
  <tile gid="39"/>
  <tile gid="74"/>
  <tile gid="74"/>
  <tile gid="112"/>
  <tile gid="258"/>
  <tile gid="258"/>
  <tile gid="79"/>
  <tile gid="74"/>
  <tile gid="40"/>
  <tile gid="193"/>
  <tile gid="20"/>
  <tile gid="258"/>
  <tile gid="258"/>
  <tile gid="193"/>
  <tile gid="730"/>
  <tile gid="853"/>
  <tile gid="853"/>
  <tile gid="761"/>
  <tile gid="664"/>
  <tile gid="664"/>
  <tile gid="132"/>
  <tile gid="193"/>
  <tile gid="20"/>
  <tile gid="20"/>
  <tile gid="20"/>
  <tile gid="193"/>
  <tile gid="258"/>
  <tile gid="79"/>
  <tile gid="8"/>
  <tile gid="258"/>
  <tile gid="193"/>
  <tile gid="193"/>
  <tile gid="495"/>
  <tile gid="497"/>
  <tile gid="193"/>
  <tile gid="762"/>
  <tile gid="853"/>
  <tile gid="853"/>
  <tile gid="853"/>
  <tile gid="853"/>
  <tile gid="853"/>
  <tile gid="761"/>
  <tile gid="132"/>
  <tile gid="173"/>
  <tile gid="173"/>
  <tile gid="173"/>
  <tile gid="193"/>
  <tile gid="258"/>
  <tile gid="79"/>
  <tile gid="79"/>
  <tile gid="8"/>
  <tile gid="193"/>
  <tile gid="258"/>
  <tile gid="258"/>
  <tile gid="193"/>
  <tile gid="193"/>
  <tile gid="796"/>
  <tile gid="853"/>
  <tile gid="854"/>
  <tile gid="885"/>
  <tile gid="856"/>
  <tile gid="853"/>
  <tile gid="853"/>
  <tile gid="761"/>
  <tile gid="664"/>
  <tile gid="634"/>
  <tile gid="664"/>
  <tile gid="664"/>
  <tile gid="664"/>
  <tile gid="79"/>
  <tile gid="79"/>
  <tile gid="40"/>
  <tile gid="258"/>
  <tile gid="20"/>
  <tile gid="193"/>
  <tile gid="193"/>
  <tile gid="762"/>
  <tile gid="853"/>
  <tile gid="853"/>
  <tile gid="885"/>
  <tile gid="885"/>
  <tile gid="885"/>
  <tile gid="856"/>
  <tile gid="853"/>
  <tile gid="853"/>
  <tile gid="853"/>
  <tile gid="698"/>
  <tile gid="853"/>
  <tile gid="853"/>
  <tile gid="853"/>
  <tile gid="79"/>
  <tile gid="79"/>
  <tile gid="8"/>
  <tile gid="193"/>
  <tile gid="193"/>
  <tile gid="193"/>
  <tile gid="258"/>
  <tile gid="796"/>
  <tile gid="853"/>
  <tile gid="854"/>
  <tile gid="885"/>
  <tile gid="885"/>
  <tile gid="737"/>
  <tile gid="646"/>
  <tile gid="644"/>
  <tile gid="644"/>
  <tile gid="772"/>
  <tile gid="851"/>
  <tile gid="769"/>
  <tile gid="644"/>
  <tile gid="738"/>
  <tile gid="79"/>
  <tile gid="79"/>
  <tile gid="79"/>
  <tile gid="8"/>
  <tile gid="193"/>
  <tile gid="258"/>
  <tile gid="762"/>
  <tile gid="853"/>
  <tile gid="853"/>
  <tile gid="885"/>
  <tile gid="885"/>
  <tile gid="885"/>
  <tile gid="709"/>
  <tile gid="909"/>
  <tile gid="974"/>
  <tile gid="910"/>
  <tile gid="974"/>
  <tile gid="910"/>
  <tile gid="974"/>
  <tile gid="910"/>
  <tile gid="709"/>
  <tile gid="79"/>
  <tile gid="79"/>
  <tile gid="79"/>
  <tile gid="40"/>
  <tile gid="193"/>
  <tile gid="258"/>
  <tile gid="796"/>
  <tile gid="853"/>
  <tile gid="854"/>
  <tile gid="885"/>
  <tile gid="885"/>
  <tile gid="888"/>
  <tile gid="709"/>
  <tile gid="1005"/>
  <tile gid="942"/>
  <tile gid="1006"/>
  <tile gid="942"/>
  <tile gid="1006"/>
  <tile gid="942"/>
  <tile gid="1006"/>
  <tile gid="709"/>
  <tile gid="79"/>
  <tile gid="79"/>
  <tile gid="105"/>
  <tile gid="258"/>
  <tile gid="258"/>
  <tile gid="193"/>
  <tile gid="796"/>
  <tile gid="853"/>
  <tile gid="885"/>
  <tile gid="885"/>
  <tile gid="888"/>
  <tile gid="853"/>
  <tile gid="709"/>
  <tile gid="941"/>
  <tile gid="1006"/>
  <tile gid="942"/>
  <tile gid="1006"/>
  <tile gid="942"/>
  <tile gid="1006"/>
  <tile gid="942"/>
  <tile gid="709"/>
  <tile gid="79"/>
  <tile gid="79"/>
  <tile gid="40"/>
  <tile gid="258"/>
  <tile gid="193"/>
  <tile gid="762"/>
  <tile gid="853"/>
  <tile gid="854"/>
  <tile gid="885"/>
  <tile gid="888"/>
  <tile gid="853"/>
  <tile gid="853"/>
  <tile gid="709"/>
  <tile gid="1005"/>
  <tile gid="942"/>
  <tile gid="1006"/>
  <tile gid="942"/>
  <tile gid="1006"/>
  <tile gid="942"/>
  <tile gid="1006"/>
  <tile gid="709"/>
  <tile gid="79"/>
  <tile gid="40"/>
  <tile gid="193"/>
  <tile gid="193"/>
  <tile gid="193"/>
  <tile gid="796"/>
  <tile gid="853"/>
  <tile gid="885"/>
  <tile gid="888"/>
  <tile gid="795"/>
  <tile gid="737"/>
  <tile gid="646"/>
  <tile gid="772"/>
  <tile gid="941"/>
  <tile gid="1006"/>
  <tile gid="942"/>
  <tile gid="1006"/>
  <tile gid="942"/>
  <tile gid="1006"/>
  <tile gid="942"/>
  <tile gid="709"/>
  <tile gid="40"/>
  <tile gid="193"/>
  <tile gid="193"/>
  <tile gid="193"/>
  <tile gid="193"/>
  <tile gid="796"/>
  <tile gid="854"/>
  <tile gid="885"/>
  <tile gid="856"/>
  <tile gid="795"/>
  <tile gid="709"/>
  <tile gid="909"/>
  <tile gid="974"/>
  <tile gid="1006"/>
  <tile gid="942"/>
  <tile gid="1006"/>
  <tile gid="942"/>
  <tile gid="1006"/>
  <tile gid="737"/>
  <tile gid="646"/>
  <tile gid="772"/>
  <tile gid="664"/>
  <tile gid="664"/>
  <tile gid="664"/>
  <tile gid="664"/>
  <tile gid="762"/>
  <tile gid="853"/>
  <tile gid="885"/>
  <tile gid="885"/>
  <tile gid="888"/>
  <tile gid="795"/>
  <tile gid="709"/>
  <tile gid="1005"/>
  <tile gid="942"/>
  <tile gid="942"/>
  <tile gid="1006"/>
  <tile gid="942"/>
  <tile gid="1006"/>
  <tile gid="942"/>
  <tile gid="709"/>
  <tile gid="712"/>
  <tile gid="716"/>
  <tile gid="853"/>
  <tile gid="853"/>
  <tile gid="853"/>
  <tile gid="853"/>
  <tile gid="853"/>
  <tile gid="853"/>
  <tile gid="886"/>
  <tile gid="888"/>
  <tile gid="853"/>
  <tile gid="795"/>
  <tile gid="709"/>
  <tile gid="941"/>
  <tile gid="1006"/>
  <tile gid="1006"/>
  <tile gid="942"/>
  <tile gid="1006"/>
  <tile gid="942"/>
  <tile gid="1006"/>
  <tile gid="709"/>
  <tile gid="762"/>
  <tile gid="826"/>
  <tile gid="853"/>
  <tile gid="853"/>
  <tile gid="853"/>
  <tile gid="853"/>
  <tile gid="853"/>
  <tile gid="853"/>
  <tile gid="853"/>
  <tile gid="853"/>
  <tile gid="853"/>
  <tile gid="795"/>
  <tile gid="709"/>
  <tile gid="1005"/>
  <tile gid="942"/>
  <tile gid="942"/>
  <tile gid="1006"/>
  <tile gid="942"/>
  <tile gid="1006"/>
  <tile gid="942"/>
  <tile gid="709"/>
  <tile gid="796"/>
  <tile gid="853"/>
  <tile gid="663"/>
  <tile gid="663"/>
  <tile gid="663"/>
  <tile gid="663"/>
  <tile gid="663"/>
  <tile gid="663"/>
  <tile gid="730"/>
  <tile gid="853"/>
  <tile gid="853"/>
  <tile gid="795"/>
  <tile gid="709"/>
  <tile gid="941"/>
  <tile gid="942"/>
  <tile gid="1006"/>
  <tile gid="942"/>
  <tile gid="1006"/>
  <tile gid="942"/>
  <tile gid="1006"/>
  <tile gid="709"/>
  <tile gid="796"/>
  <tile gid="853"/>
  <tile gid="77"/>
  <tile gid="193"/>
  <tile gid="193"/>
  <tile gid="193"/>
  <tile gid="7"/>
  <tile gid="8"/>
  <tile gid="13"/>
  <tile gid="730"/>
  <tile gid="853"/>
  <tile gid="795"/>
  <tile gid="769"/>
  <tile gid="644"/>
  <tile gid="644"/>
  <tile gid="772"/>
  <tile gid="851"/>
  <tile gid="769"/>
  <tile gid="644"/>
  <tile gid="644"/>
  <tile gid="772"/>
  <tile gid="796"/>
  <tile gid="853"/>
  <tile gid="79"/>
  <tile gid="8"/>
  <tile gid="451"/>
  <tile gid="452"/>
  <tile gid="39"/>
  <tile gid="79"/>
  <tile gid="112"/>
  <tile gid="193"/>
  <tile gid="730"/>
  <tile gid="795"/>
  <tile gid="714"/>
  <tile gid="715"/>
  <tile gid="715"/>
  <tile gid="716"/>
  <tile gid="941"/>
  <tile gid="714"/>
  <tile gid="715"/>
  <tile gid="715"/>
  <tile gid="716"/>
  <tile gid="796"/>
  <tile gid="854"/>
  <tile gid="79"/>
  <tile gid="79"/>
  <tile gid="483"/>
  <tile gid="484"/>
  <tile gid="420"/>
  <tile gid="40"/>
  <tile gid="258"/>
  <tile gid="193"/>
  <tile gid="193"/>
  <tile gid="730"/>
  <tile gid="825"/>
  <tile gid="825"/>
  <tile gid="825"/>
  <tile gid="825"/>
  <tile gid="634"/>
  <tile gid="826"/>
  <tile gid="826"/>
  <tile gid="826"/>
  <tile gid="826"/>
  <tile gid="853"/>
  <tile gid="885"/>
  <tile gid="74"/>
  <tile gid="79"/>
  <tile gid="79"/>
  <tile gid="12"/>
  <tile gid="417"/>
  <tile gid="419"/>
  <tile gid="258"/>
  <tile gid="258"/>
  <tile gid="193"/>
  <tile gid="193"/>
  <tile gid="663"/>
  <tile gid="663"/>
  <tile gid="730"/>
  <tile gid="853"/>
  <tile gid="698"/>
  <tile gid="730"/>
  <tile gid="853"/>
  <tile gid="853"/>
  <tile gid="853"/>
  <tile gid="854"/>
  <tile gid="885"/>
  <tile gid="193"/>
  <tile gid="107"/>
  <tile gid="107"/>
  <tile gid="44"/>
  <tile gid="417"/>
  <tile gid="419"/>
  <tile gid="495"/>
  <tile gid="497"/>
  <tile gid="193"/>
  <tile gid="193"/>
  <tile gid="258"/>
  <tile gid="193"/>
  <tile gid="193"/>
  <tile gid="663"/>
  <tile gid="193"/>
  <tile gid="696"/>
  <tile gid="853"/>
  <tile gid="853"/>
  <tile gid="853"/>
  <tile gid="886"/>
  <tile gid="885"/>
  <tile gid="193"/>
  <tile gid="193"/>
  <tile gid="451"/>
  <tile gid="452"/>
  <tile gid="420"/>
  <tile gid="495"/>
  <tile gid="497"/>
  <tile gid="258"/>
  <tile gid="420"/>
  <tile gid="417"/>
  <tile gid="419"/>
  <tile gid="193"/>
  <tile gid="193"/>
  <tile gid="258"/>
  <tile gid="77"/>
  <tile gid="696"/>
  <tile gid="853"/>
  <tile gid="853"/>
  <tile gid="853"/>
  <tile gid="853"/>
  <tile gid="886"/>
  <tile gid="258"/>
  <tile gid="193"/>
  <tile gid="483"/>
  <tile gid="484"/>
  <tile gid="193"/>
  <tile gid="193"/>
  <tile gid="7"/>
  <tile gid="73"/>
  <tile gid="40"/>
  <tile gid="451"/>
  <tile gid="452"/>
  <tile gid="420"/>
  <tile gid="193"/>
  <tile gid="7"/>
  <tile gid="105"/>
  <tile gid="193"/>
  <tile gid="663"/>
  <tile gid="663"/>
  <tile gid="663"/>
  <tile gid="663"/>
  <tile gid="730"/>
  <tile gid="258"/>
  <tile gid="495"/>
  <tile gid="497"/>
  <tile gid="258"/>
  <tile gid="193"/>
  <tile gid="193"/>
  <tile gid="39"/>
  <tile gid="79"/>
  <tile gid="8"/>
  <tile gid="483"/>
  <tile gid="484"/>
  <tile gid="420"/>
  <tile gid="420"/>
  <tile gid="20"/>
  <tile gid="420"/>
  <tile gid="13"/>
  <tile gid="258"/>
  <tile gid="258"/>
  <tile gid="420"/>
  <tile gid="193"/>
  <tile gid="762"/>
  <tile gid="193"/>
  <tile gid="193"/>
  <tile gid="558"/>
  <tile gid="559"/>
  <tile gid="560"/>
  <tile gid="258"/>
  <tile gid="193"/>
  <tile gid="39"/>
  <tile gid="79"/>
  <tile gid="420"/>
  <tile gid="417"/>
  <tile gid="419"/>
  <tile gid="79"/>
  <tile gid="79"/>
  <tile gid="8"/>
  <tile gid="258"/>
  <tile gid="193"/>
  <tile gid="193"/>
  <tile gid="193"/>
  <tile gid="762"/>
  <tile gid="853"/>
  </data>
 </layer>
 <layer name="Map Change 0" width="21" height="32">
  <properties>
   <property name="ID" value ="0"/>
   <property name="Height" value ="1"/>
   <property name="Width" value ="3"/>
   <property name="X" value ="16"/>
   <property name="Y" value ="12"/>
  </properties>
  <data>
  <tile gid="0"/>
  <tile gid="0"/>
  <tile gid="0"/>
  <tile gid="0"/>
  <tile gid="0"/>
  <tile gid="0"/>
  <tile gid="0"/>
  <tile gid="0"/>
  <tile gid="0"/>
  <tile gid="0"/>
  <tile gid="0"/>
  <tile gid="0"/>
  <tile gid="0"/>
  <tile gid="0"/>
  <tile gid="0"/>
  <tile gid="0"/>
  <tile gid="0"/>
  <tile gid="0"/>
  <tile gid="0"/>
  <tile gid="0"/>
  <tile gid="0"/>
  <tile gid="0"/>
  <tile gid="0"/>
  <tile gid="0"/>
  <tile gid="0"/>
  <tile gid="0"/>
  <tile gid="0"/>
  <tile gid="0"/>
  <tile gid="0"/>
  <tile gid="0"/>
  <tile gid="0"/>
  <tile gid="0"/>
  <tile gid="0"/>
  <tile gid="0"/>
  <tile gid="0"/>
  <tile gid="0"/>
  <tile gid="0"/>
  <tile gid="0"/>
  <tile gid="0"/>
  <tile gid="0"/>
  <tile gid="0"/>
  <tile gid="0"/>
  <tile gid="0"/>
  <tile gid="0"/>
  <tile gid="0"/>
  <tile gid="0"/>
  <tile gid="0"/>
  <tile gid="0"/>
  <tile gid="0"/>
  <tile gid="0"/>
  <tile gid="0"/>
  <tile gid="0"/>
  <tile gid="0"/>
  <tile gid="0"/>
  <tile gid="0"/>
  <tile gid="0"/>
  <tile gid="0"/>
  <tile gid="0"/>
  <tile gid="0"/>
  <tile gid="0"/>
  <tile gid="0"/>
  <tile gid="0"/>
  <tile gid="0"/>
  <tile gid="0"/>
  <tile gid="0"/>
  <tile gid="0"/>
  <tile gid="0"/>
  <tile gid="0"/>
  <tile gid="0"/>
  <tile gid="0"/>
  <tile gid="0"/>
  <tile gid="0"/>
  <tile gid="0"/>
  <tile gid="0"/>
  <tile gid="0"/>
  <tile gid="0"/>
  <tile gid="0"/>
  <tile gid="0"/>
  <tile gid="0"/>
  <tile gid="0"/>
  <tile gid="0"/>
  <tile gid="0"/>
  <tile gid="0"/>
  <tile gid="0"/>
  <tile gid="0"/>
  <tile gid="0"/>
  <tile gid="0"/>
  <tile gid="0"/>
  <tile gid="0"/>
  <tile gid="0"/>
  <tile gid="0"/>
  <tile gid="0"/>
  <tile gid="0"/>
  <tile gid="0"/>
  <tile gid="0"/>
  <tile gid="0"/>
  <tile gid="0"/>
  <tile gid="0"/>
  <tile gid="0"/>
  <tile gid="0"/>
  <tile gid="0"/>
  <tile gid="0"/>
  <tile gid="0"/>
  <tile gid="0"/>
  <tile gid="0"/>
  <tile gid="0"/>
  <tile gid="0"/>
  <tile gid="0"/>
  <tile gid="0"/>
  <tile gid="0"/>
  <tile gid="0"/>
  <tile gid="0"/>
  <tile gid="0"/>
  <tile gid="0"/>
  <tile gid="0"/>
  <tile gid="0"/>
  <tile gid="0"/>
  <tile gid="0"/>
  <tile gid="0"/>
  <tile gid="0"/>
  <tile gid="0"/>
  <tile gid="0"/>
  <tile gid="0"/>
  <tile gid="0"/>
  <tile gid="0"/>
  <tile gid="0"/>
  <tile gid="0"/>
  <tile gid="0"/>
  <tile gid="0"/>
  <tile gid="0"/>
  <tile gid="0"/>
  <tile gid="0"/>
  <tile gid="0"/>
  <tile gid="0"/>
  <tile gid="0"/>
  <tile gid="0"/>
  <tile gid="0"/>
  <tile gid="0"/>
  <tile gid="0"/>
  <tile gid="0"/>
  <tile gid="0"/>
  <tile gid="0"/>
  <tile gid="0"/>
  <tile gid="0"/>
  <tile gid="0"/>
  <tile gid="0"/>
  <tile gid="0"/>
  <tile gid="0"/>
  <tile gid="0"/>
  <tile gid="0"/>
  <tile gid="0"/>
  <tile gid="0"/>
  <tile gid="0"/>
  <tile gid="0"/>
  <tile gid="0"/>
  <tile gid="0"/>
  <tile gid="0"/>
  <tile gid="0"/>
  <tile gid="0"/>
  <tile gid="0"/>
  <tile gid="0"/>
  <tile gid="0"/>
  <tile gid="0"/>
  <tile gid="0"/>
  <tile gid="0"/>
  <tile gid="0"/>
  <tile gid="0"/>
  <tile gid="0"/>
  <tile gid="0"/>
  <tile gid="0"/>
  <tile gid="0"/>
  <tile gid="0"/>
  <tile gid="0"/>
  <tile gid="0"/>
  <tile gid="0"/>
  <tile gid="0"/>
  <tile gid="0"/>
  <tile gid="0"/>
  <tile gid="0"/>
  <tile gid="0"/>
  <tile gid="0"/>
  <tile gid="0"/>
  <tile gid="0"/>
  <tile gid="0"/>
  <tile gid="0"/>
  <tile gid="0"/>
  <tile gid="0"/>
  <tile gid="0"/>
  <tile gid="0"/>
  <tile gid="0"/>
  <tile gid="0"/>
  <tile gid="0"/>
  <tile gid="0"/>
  <tile gid="0"/>
  <tile gid="0"/>
  <tile gid="0"/>
  <tile gid="0"/>
  <tile gid="0"/>
  <tile gid="0"/>
  <tile gid="0"/>
  <tile gid="0"/>
  <tile gid="0"/>
  <tile gid="0"/>
  <tile gid="0"/>
  <tile gid="0"/>
  <tile gid="0"/>
  <tile gid="0"/>
  <tile gid="0"/>
  <tile gid="0"/>
  <tile gid="0"/>
  <tile gid="0"/>
  <tile gid="0"/>
  <tile gid="0"/>
  <tile gid="0"/>
  <tile gid="0"/>
  <tile gid="0"/>
  <tile gid="0"/>
  <tile gid="0"/>
  <tile gid="0"/>
  <tile gid="0"/>
  <tile gid="0"/>
  <tile gid="0"/>
  <tile gid="0"/>
  <tile gid="0"/>
  <tile gid="0"/>
  <tile gid="0"/>
  <tile gid="0"/>
  <tile gid="0"/>
  <tile gid="0"/>
  <tile gid="0"/>
  <tile gid="0"/>
  <tile gid="0"/>
  <tile gid="0"/>
  <tile gid="0"/>
  <tile gid="0"/>
  <tile gid="0"/>
  <tile gid="0"/>
  <tile gid="0"/>
  <tile gid="0"/>
  <tile gid="0"/>
  <tile gid="0"/>
  <tile gid="0"/>
  <tile gid="0"/>
  <tile gid="0"/>
  <tile gid="0"/>
  <tile gid="0"/>
  <tile gid="0"/>
  <tile gid="0"/>
  <tile gid="0"/>
  <tile gid="0"/>
  <tile gid="0"/>
  <tile gid="0"/>
  <tile gid="0"/>
  <tile gid="0"/>
  <tile gid="0"/>
  <tile gid="0"/>
  <tile gid="0"/>
  <tile gid="0"/>
  <tile gid="0"/>
  <tile gid="0"/>
  <tile gid="0"/>
  <tile gid="0"/>
  <tile gid="0"/>
  <tile gid="0"/>
  <tile gid="0"/>
  <tile gid="0"/>
  <tile gid="0"/>
  <tile gid="0"/>
  <tile gid="772"/>
  <tile gid="941"/>
  <tile gid="769"/>
  <tile gid="0"/>
  <tile gid="0"/>
  <tile gid="0"/>
  <tile gid="0"/>
  <tile gid="0"/>
  <tile gid="0"/>
  <tile gid="0"/>
  <tile gid="0"/>
  <tile gid="0"/>
  <tile gid="0"/>
  <tile gid="0"/>
  <tile gid="0"/>
  <tile gid="0"/>
  <tile gid="0"/>
  <tile gid="0"/>
  <tile gid="0"/>
  <tile gid="0"/>
  <tile gid="0"/>
  <tile gid="0"/>
  <tile gid="0"/>
  <tile gid="0"/>
  <tile gid="0"/>
  <tile gid="0"/>
  <tile gid="0"/>
  <tile gid="0"/>
  <tile gid="0"/>
  <tile gid="0"/>
  <tile gid="0"/>
  <tile gid="0"/>
  <tile gid="0"/>
  <tile gid="0"/>
  <tile gid="0"/>
  <tile gid="0"/>
  <tile gid="0"/>
  <tile gid="0"/>
  <tile gid="0"/>
  <tile gid="0"/>
  <tile gid="0"/>
  <tile gid="0"/>
  <tile gid="0"/>
  <tile gid="0"/>
  <tile gid="0"/>
  <tile gid="0"/>
  <tile gid="0"/>
  <tile gid="0"/>
  <tile gid="0"/>
  <tile gid="0"/>
  <tile gid="0"/>
  <tile gid="0"/>
  <tile gid="0"/>
  <tile gid="0"/>
  <tile gid="0"/>
  <tile gid="0"/>
  <tile gid="0"/>
  <tile gid="0"/>
  <tile gid="0"/>
  <tile gid="0"/>
  <tile gid="0"/>
  <tile gid="0"/>
  <tile gid="0"/>
  <tile gid="0"/>
  <tile gid="0"/>
  <tile gid="0"/>
  <tile gid="0"/>
  <tile gid="0"/>
  <tile gid="0"/>
  <tile gid="0"/>
  <tile gid="0"/>
  <tile gid="0"/>
  <tile gid="0"/>
  <tile gid="0"/>
  <tile gid="0"/>
  <tile gid="0"/>
  <tile gid="0"/>
  <tile gid="0"/>
  <tile gid="0"/>
  <tile gid="0"/>
  <tile gid="0"/>
  <tile gid="0"/>
  <tile gid="0"/>
  <tile gid="0"/>
  <tile gid="0"/>
  <tile gid="0"/>
  <tile gid="0"/>
  <tile gid="0"/>
  <tile gid="0"/>
  <tile gid="0"/>
  <tile gid="0"/>
  <tile gid="0"/>
  <tile gid="0"/>
  <tile gid="0"/>
  <tile gid="0"/>
  <tile gid="0"/>
  <tile gid="0"/>
  <tile gid="0"/>
  <tile gid="0"/>
  <tile gid="0"/>
  <tile gid="0"/>
  <tile gid="0"/>
  <tile gid="0"/>
  <tile gid="0"/>
  <tile gid="0"/>
  <tile gid="0"/>
  <tile gid="0"/>
  <tile gid="0"/>
  <tile gid="0"/>
  <tile gid="0"/>
  <tile gid="0"/>
  <tile gid="0"/>
  <tile gid="0"/>
  <tile gid="0"/>
  <tile gid="0"/>
  <tile gid="0"/>
  <tile gid="0"/>
  <tile gid="0"/>
  <tile gid="0"/>
  <tile gid="0"/>
  <tile gid="0"/>
  <tile gid="0"/>
  <tile gid="0"/>
  <tile gid="0"/>
  <tile gid="0"/>
  <tile gid="0"/>
  <tile gid="0"/>
  <tile gid="0"/>
  <tile gid="0"/>
  <tile gid="0"/>
  <tile gid="0"/>
  <tile gid="0"/>
  <tile gid="0"/>
  <tile gid="0"/>
  <tile gid="0"/>
  <tile gid="0"/>
  <tile gid="0"/>
  <tile gid="0"/>
  <tile gid="0"/>
  <tile gid="0"/>
  <tile gid="0"/>
  <tile gid="0"/>
  <tile gid="0"/>
  <tile gid="0"/>
  <tile gid="0"/>
  <tile gid="0"/>
  <tile gid="0"/>
  <tile gid="0"/>
  <tile gid="0"/>
  <tile gid="0"/>
  <tile gid="0"/>
  <tile gid="0"/>
  <tile gid="0"/>
  <tile gid="0"/>
  <tile gid="0"/>
  <tile gid="0"/>
  <tile gid="0"/>
  <tile gid="0"/>
  <tile gid="0"/>
  <tile gid="0"/>
  <tile gid="0"/>
  <tile gid="0"/>
  <tile gid="0"/>
  <tile gid="0"/>
  <tile gid="0"/>
  <tile gid="0"/>
  <tile gid="0"/>
  <tile gid="0"/>
  <tile gid="0"/>
  <tile gid="0"/>
  <tile gid="0"/>
  <tile gid="0"/>
  <tile gid="0"/>
  <tile gid="0"/>
  <tile gid="0"/>
  <tile gid="0"/>
  <tile gid="0"/>
  <tile gid="0"/>
  <tile gid="0"/>
  <tile gid="0"/>
  <tile gid="0"/>
  <tile gid="0"/>
  <tile gid="0"/>
  <tile gid="0"/>
  <tile gid="0"/>
  <tile gid="0"/>
  <tile gid="0"/>
  <tile gid="0"/>
  <tile gid="0"/>
  <tile gid="0"/>
  <tile gid="0"/>
  <tile gid="0"/>
  <tile gid="0"/>
  <tile gid="0"/>
  <tile gid="0"/>
  <tile gid="0"/>
  <tile gid="0"/>
  <tile gid="0"/>
  <tile gid="0"/>
  <tile gid="0"/>
  <tile gid="0"/>
  <tile gid="0"/>
  <tile gid="0"/>
  <tile gid="0"/>
  <tile gid="0"/>
  <tile gid="0"/>
  <tile gid="0"/>
  <tile gid="0"/>
  <tile gid="0"/>
  <tile gid="0"/>
  <tile gid="0"/>
  <tile gid="0"/>
  <tile gid="0"/>
  <tile gid="0"/>
  <tile gid="0"/>
  <tile gid="0"/>
  <tile gid="0"/>
  <tile gid="0"/>
  <tile gid="0"/>
  <tile gid="0"/>
  <tile gid="0"/>
  <tile gid="0"/>
  <tile gid="0"/>
  <tile gid="0"/>
  <tile gid="0"/>
  <tile gid="0"/>
  <tile gid="0"/>
  <tile gid="0"/>
  <tile gid="0"/>
  <tile gid="0"/>
  <tile gid="0"/>
  <tile gid="0"/>
  <tile gid="0"/>
  <tile gid="0"/>
  <tile gid="0"/>
  <tile gid="0"/>
  <tile gid="0"/>
  <tile gid="0"/>
  <tile gid="0"/>
  <tile gid="0"/>
  <tile gid="0"/>
  <tile gid="0"/>
  <tile gid="0"/>
  <tile gid="0"/>
  <tile gid="0"/>
  <tile gid="0"/>
  <tile gid="0"/>
  <tile gid="0"/>
  <tile gid="0"/>
  <tile gid="0"/>
  <tile gid="0"/>
  <tile gid="0"/>
  <tile gid="0"/>
  <tile gid="0"/>
  <tile gid="0"/>
  <tile gid="0"/>
  <tile gid="0"/>
  <tile gid="0"/>
  <tile gid="0"/>
  <tile gid="0"/>
  <tile gid="0"/>
  <tile gid="0"/>
  <tile gid="0"/>
  <tile gid="0"/>
  <tile gid="0"/>
  <tile gid="0"/>
  <tile gid="0"/>
  <tile gid="0"/>
  <tile gid="0"/>
  <tile gid="0"/>
  <tile gid="0"/>
  <tile gid="0"/>
  <tile gid="0"/>
  <tile gid="0"/>
  <tile gid="0"/>
  <tile gid="0"/>
  <tile gid="0"/>
  <tile gid="0"/>
  <tile gid="0"/>
  <tile gid="0"/>
  <tile gid="0"/>
  <tile gid="0"/>
  <tile gid="0"/>
  <tile gid="0"/>
  <tile gid="0"/>
  <tile gid="0"/>
  <tile gid="0"/>
  <tile gid="0"/>
  <tile gid="0"/>
  <tile gid="0"/>
  <tile gid="0"/>
  <tile gid="0"/>
  <tile gid="0"/>
  <tile gid="0"/>
  <tile gid="0"/>
  <tile gid="0"/>
  <tile gid="0"/>
  <tile gid="0"/>
  <tile gid="0"/>
  <tile gid="0"/>
  <tile gid="0"/>
  <tile gid="0"/>
  <tile gid="0"/>
  <tile gid="0"/>
  <tile gid="0"/>
  <tile gid="0"/>
  <tile gid="0"/>
  <tile gid="0"/>
  <tile gid="0"/>
  <tile gid="0"/>
  <tile gid="0"/>
  <tile gid="0"/>
  <tile gid="0"/>
  <tile gid="0"/>
  <tile gid="0"/>
  <tile gid="0"/>
  <tile gid="0"/>
  <tile gid="0"/>
  <tile gid="0"/>
  <tile gid="0"/>
  <tile gid="0"/>
  <tile gid="0"/>
  <tile gid="0"/>
  <tile gid="0"/>
  <tile gid="0"/>
  <tile gid="0"/>
  <tile gid="0"/>
  <tile gid="0"/>
  <tile gid="0"/>
  <tile gid="0"/>
  <tile gid="0"/>
  <tile gid="0"/>
  <tile gid="0"/>
  <tile gid="0"/>
  <tile gid="0"/>
  <tile gid="0"/>
  <tile gid="0"/>
  <tile gid="0"/>
  <tile gid="0"/>
  <tile gid="0"/>
  <tile gid="0"/>
  <tile gid="0"/>
  <tile gid="0"/>
  <tile gid="0"/>
  <tile gid="0"/>
  <tile gid="0"/>
  <tile gid="0"/>
  <tile gid="0"/>
  <tile gid="0"/>
  <tile gid="0"/>
  <tile gid="0"/>
  <tile gid="0"/>
  <tile gid="0"/>
  <tile gid="0"/>
  <tile gid="0"/>
  <tile gid="0"/>
  <tile gid="0"/>
  <tile gid="0"/>
  <tile gid="0"/>
  <tile gid="0"/>
  <tile gid="0"/>
  <tile gid="0"/>
  <tile gid="0"/>
  <tile gid="0"/>
  <tile gid="0"/>
  <tile gid="0"/>
  <tile gid="0"/>
  <tile gid="0"/>
  <tile gid="0"/>
  <tile gid="0"/>
  <tile gid="0"/>
  <tile gid="0"/>
  <tile gid="0"/>
  <tile gid="0"/>
  <tile gid="0"/>
  <tile gid="0"/>
  <tile gid="0"/>
  <tile gid="0"/>
  <tile gid="0"/>
  <tile gid="0"/>
  <tile gid="0"/>
  <tile gid="0"/>
  <tile gid="0"/>
  <tile gid="0"/>
  <tile gid="0"/>
  <tile gid="0"/>
  <tile gid="0"/>
  <tile gid="0"/>
  <tile gid="0"/>
  <tile gid="0"/>
  <tile gid="0"/>
  <tile gid="0"/>
  <tile gid="0"/>
  <tile gid="0"/>
  <tile gid="0"/>
  <tile gid="0"/>
  <tile gid="0"/>
  <tile gid="0"/>
  <tile gid="0"/>
  <tile gid="0"/>
  <tile gid="0"/>
  <tile gid="0"/>
  <tile gid="0"/>
  <tile gid="0"/>
  </data>
 </layer>
 <layer name="Map Change 1" width="21" height="32">
  <properties>
   <property name="ID" value ="1"/>
   <property name="Height" value ="1"/>
   <property name="Width" value ="3"/>
   <property name="X" value ="13"/>
   <property name="Y" value ="23"/>
  </properties>
  <data>
  <tile gid="0"/>
  <tile gid="0"/>
  <tile gid="0"/>
  <tile gid="0"/>
  <tile gid="0"/>
  <tile gid="0"/>
  <tile gid="0"/>
  <tile gid="0"/>
  <tile gid="0"/>
  <tile gid="0"/>
  <tile gid="0"/>
  <tile gid="0"/>
  <tile gid="0"/>
  <tile gid="0"/>
  <tile gid="0"/>
  <tile gid="0"/>
  <tile gid="0"/>
  <tile gid="0"/>
  <tile gid="0"/>
  <tile gid="0"/>
  <tile gid="0"/>
  <tile gid="0"/>
  <tile gid="0"/>
  <tile gid="0"/>
  <tile gid="0"/>
  <tile gid="0"/>
  <tile gid="0"/>
  <tile gid="0"/>
  <tile gid="0"/>
  <tile gid="0"/>
  <tile gid="0"/>
  <tile gid="0"/>
  <tile gid="0"/>
  <tile gid="0"/>
  <tile gid="0"/>
  <tile gid="0"/>
  <tile gid="0"/>
  <tile gid="0"/>
  <tile gid="0"/>
  <tile gid="0"/>
  <tile gid="0"/>
  <tile gid="0"/>
  <tile gid="0"/>
  <tile gid="0"/>
  <tile gid="0"/>
  <tile gid="0"/>
  <tile gid="0"/>
  <tile gid="0"/>
  <tile gid="0"/>
  <tile gid="0"/>
  <tile gid="0"/>
  <tile gid="0"/>
  <tile gid="0"/>
  <tile gid="0"/>
  <tile gid="0"/>
  <tile gid="0"/>
  <tile gid="0"/>
  <tile gid="0"/>
  <tile gid="0"/>
  <tile gid="0"/>
  <tile gid="0"/>
  <tile gid="0"/>
  <tile gid="0"/>
  <tile gid="0"/>
  <tile gid="0"/>
  <tile gid="0"/>
  <tile gid="0"/>
  <tile gid="0"/>
  <tile gid="0"/>
  <tile gid="0"/>
  <tile gid="0"/>
  <tile gid="0"/>
  <tile gid="0"/>
  <tile gid="0"/>
  <tile gid="0"/>
  <tile gid="0"/>
  <tile gid="0"/>
  <tile gid="0"/>
  <tile gid="0"/>
  <tile gid="0"/>
  <tile gid="0"/>
  <tile gid="0"/>
  <tile gid="0"/>
  <tile gid="0"/>
  <tile gid="0"/>
  <tile gid="0"/>
  <tile gid="0"/>
  <tile gid="0"/>
  <tile gid="0"/>
  <tile gid="0"/>
  <tile gid="0"/>
  <tile gid="0"/>
  <tile gid="0"/>
  <tile gid="0"/>
  <tile gid="0"/>
  <tile gid="0"/>
  <tile gid="0"/>
  <tile gid="0"/>
  <tile gid="0"/>
  <tile gid="0"/>
  <tile gid="0"/>
  <tile gid="0"/>
  <tile gid="0"/>
  <tile gid="0"/>
  <tile gid="0"/>
  <tile gid="0"/>
  <tile gid="0"/>
  <tile gid="0"/>
  <tile gid="0"/>
  <tile gid="0"/>
  <tile gid="0"/>
  <tile gid="0"/>
  <tile gid="0"/>
  <tile gid="0"/>
  <tile gid="0"/>
  <tile gid="0"/>
  <tile gid="0"/>
  <tile gid="0"/>
  <tile gid="0"/>
  <tile gid="0"/>
  <tile gid="0"/>
  <tile gid="0"/>
  <tile gid="0"/>
  <tile gid="0"/>
  <tile gid="0"/>
  <tile gid="0"/>
  <tile gid="0"/>
  <tile gid="0"/>
  <tile gid="0"/>
  <tile gid="0"/>
  <tile gid="0"/>
  <tile gid="0"/>
  <tile gid="0"/>
  <tile gid="0"/>
  <tile gid="0"/>
  <tile gid="0"/>
  <tile gid="0"/>
  <tile gid="0"/>
  <tile gid="0"/>
  <tile gid="0"/>
  <tile gid="0"/>
  <tile gid="0"/>
  <tile gid="0"/>
  <tile gid="0"/>
  <tile gid="0"/>
  <tile gid="0"/>
  <tile gid="0"/>
  <tile gid="0"/>
  <tile gid="0"/>
  <tile gid="0"/>
  <tile gid="0"/>
  <tile gid="0"/>
  <tile gid="0"/>
  <tile gid="0"/>
  <tile gid="0"/>
  <tile gid="0"/>
  <tile gid="0"/>
  <tile gid="0"/>
  <tile gid="0"/>
  <tile gid="0"/>
  <tile gid="0"/>
  <tile gid="0"/>
  <tile gid="0"/>
  <tile gid="0"/>
  <tile gid="0"/>
  <tile gid="0"/>
  <tile gid="0"/>
  <tile gid="0"/>
  <tile gid="0"/>
  <tile gid="0"/>
  <tile gid="0"/>
  <tile gid="0"/>
  <tile gid="0"/>
  <tile gid="0"/>
  <tile gid="0"/>
  <tile gid="0"/>
  <tile gid="0"/>
  <tile gid="0"/>
  <tile gid="0"/>
  <tile gid="0"/>
  <tile gid="0"/>
  <tile gid="0"/>
  <tile gid="0"/>
  <tile gid="0"/>
  <tile gid="0"/>
  <tile gid="0"/>
  <tile gid="0"/>
  <tile gid="0"/>
  <tile gid="0"/>
  <tile gid="0"/>
  <tile gid="0"/>
  <tile gid="0"/>
  <tile gid="0"/>
  <tile gid="0"/>
  <tile gid="0"/>
  <tile gid="0"/>
  <tile gid="0"/>
  <tile gid="0"/>
  <tile gid="0"/>
  <tile gid="0"/>
  <tile gid="0"/>
  <tile gid="0"/>
  <tile gid="0"/>
  <tile gid="0"/>
  <tile gid="0"/>
  <tile gid="0"/>
  <tile gid="0"/>
  <tile gid="0"/>
  <tile gid="0"/>
  <tile gid="0"/>
  <tile gid="0"/>
  <tile gid="0"/>
  <tile gid="0"/>
  <tile gid="0"/>
  <tile gid="0"/>
  <tile gid="0"/>
  <tile gid="0"/>
  <tile gid="0"/>
  <tile gid="0"/>
  <tile gid="0"/>
  <tile gid="0"/>
  <tile gid="0"/>
  <tile gid="0"/>
  <tile gid="0"/>
  <tile gid="0"/>
  <tile gid="0"/>
  <tile gid="0"/>
  <tile gid="0"/>
  <tile gid="0"/>
  <tile gid="0"/>
  <tile gid="0"/>
  <tile gid="0"/>
  <tile gid="0"/>
  <tile gid="0"/>
  <tile gid="0"/>
  <tile gid="0"/>
  <tile gid="0"/>
  <tile gid="0"/>
  <tile gid="0"/>
  <tile gid="0"/>
  <tile gid="0"/>
  <tile gid="0"/>
  <tile gid="0"/>
  <tile gid="0"/>
  <tile gid="0"/>
  <tile gid="0"/>
  <tile gid="0"/>
  <tile gid="0"/>
  <tile gid="0"/>
  <tile gid="0"/>
  <tile gid="0"/>
  <tile gid="0"/>
  <tile gid="0"/>
  <tile gid="0"/>
  <tile gid="0"/>
  <tile gid="0"/>
  <tile gid="0"/>
  <tile gid="0"/>
  <tile gid="0"/>
  <tile gid="0"/>
  <tile gid="0"/>
  <tile gid="0"/>
  <tile gid="0"/>
  <tile gid="0"/>
  <tile gid="0"/>
  <tile gid="0"/>
  <tile gid="0"/>
  <tile gid="0"/>
  <tile gid="0"/>
  <tile gid="0"/>
  <tile gid="0"/>
  <tile gid="0"/>
  <tile gid="0"/>
  <tile gid="0"/>
  <tile gid="0"/>
  <tile gid="0"/>
  <tile gid="0"/>
  <tile gid="0"/>
  <tile gid="0"/>
  <tile gid="0"/>
  <tile gid="0"/>
  <tile gid="0"/>
  <tile gid="0"/>
  <tile gid="0"/>
  <tile gid="0"/>
  <tile gid="0"/>
  <tile gid="0"/>
  <tile gid="0"/>
  <tile gid="0"/>
  <tile gid="0"/>
  <tile gid="0"/>
  <tile gid="0"/>
  <tile gid="0"/>
  <tile gid="0"/>
  <tile gid="0"/>
  <tile gid="0"/>
  <tile gid="0"/>
  <tile gid="0"/>
  <tile gid="0"/>
  <tile gid="0"/>
  <tile gid="0"/>
  <tile gid="0"/>
  <tile gid="0"/>
  <tile gid="0"/>
  <tile gid="0"/>
  <tile gid="0"/>
  <tile gid="0"/>
  <tile gid="0"/>
  <tile gid="0"/>
  <tile gid="0"/>
  <tile gid="0"/>
  <tile gid="0"/>
  <tile gid="0"/>
  <tile gid="0"/>
  <tile gid="0"/>
  <tile gid="0"/>
  <tile gid="0"/>
  <tile gid="0"/>
  <tile gid="0"/>
  <tile gid="0"/>
  <tile gid="0"/>
  <tile gid="0"/>
  <tile gid="0"/>
  <tile gid="0"/>
  <tile gid="0"/>
  <tile gid="0"/>
  <tile gid="0"/>
  <tile gid="0"/>
  <tile gid="0"/>
  <tile gid="0"/>
  <tile gid="0"/>
  <tile gid="0"/>
  <tile gid="0"/>
  <tile gid="0"/>
  <tile gid="0"/>
  <tile gid="0"/>
  <tile gid="0"/>
  <tile gid="0"/>
  <tile gid="0"/>
  <tile gid="0"/>
  <tile gid="0"/>
  <tile gid="0"/>
  <tile gid="0"/>
  <tile gid="0"/>
  <tile gid="0"/>
  <tile gid="0"/>
  <tile gid="0"/>
  <tile gid="0"/>
  <tile gid="0"/>
  <tile gid="0"/>
  <tile gid="0"/>
  <tile gid="0"/>
  <tile gid="0"/>
  <tile gid="0"/>
  <tile gid="0"/>
  <tile gid="0"/>
  <tile gid="0"/>
  <tile gid="0"/>
  <tile gid="0"/>
  <tile gid="0"/>
  <tile gid="0"/>
  <tile gid="0"/>
  <tile gid="0"/>
  <tile gid="0"/>
  <tile gid="0"/>
  <tile gid="0"/>
  <tile gid="0"/>
  <tile gid="0"/>
  <tile gid="0"/>
  <tile gid="0"/>
  <tile gid="0"/>
  <tile gid="0"/>
  <tile gid="0"/>
  <tile gid="0"/>
  <tile gid="0"/>
  <tile gid="0"/>
  <tile gid="0"/>
  <tile gid="0"/>
  <tile gid="0"/>
  <tile gid="0"/>
  <tile gid="0"/>
  <tile gid="0"/>
  <tile gid="0"/>
  <tile gid="0"/>
  <tile gid="0"/>
  <tile gid="0"/>
  <tile gid="0"/>
  <tile gid="0"/>
  <tile gid="0"/>
  <tile gid="0"/>
  <tile gid="0"/>
  <tile gid="0"/>
  <tile gid="0"/>
  <tile gid="0"/>
  <tile gid="0"/>
  <tile gid="0"/>
  <tile gid="0"/>
  <tile gid="0"/>
  <tile gid="0"/>
  <tile gid="0"/>
  <tile gid="0"/>
  <tile gid="0"/>
  <tile gid="0"/>
  <tile gid="0"/>
  <tile gid="0"/>
  <tile gid="0"/>
  <tile gid="0"/>
  <tile gid="0"/>
  <tile gid="0"/>
  <tile gid="0"/>
  <tile gid="0"/>
  <tile gid="0"/>
  <tile gid="0"/>
  <tile gid="0"/>
  <tile gid="0"/>
  <tile gid="0"/>
  <tile gid="0"/>
  <tile gid="0"/>
  <tile gid="0"/>
  <tile gid="0"/>
  <tile gid="0"/>
  <tile gid="0"/>
  <tile gid="0"/>
  <tile gid="0"/>
  <tile gid="0"/>
  <tile gid="0"/>
  <tile gid="0"/>
  <tile gid="0"/>
  <tile gid="0"/>
  <tile gid="0"/>
  <tile gid="0"/>
  <tile gid="0"/>
  <tile gid="0"/>
  <tile gid="0"/>
  <tile gid="0"/>
  <tile gid="0"/>
  <tile gid="0"/>
  <tile gid="0"/>
  <tile gid="0"/>
  <tile gid="0"/>
  <tile gid="0"/>
  <tile gid="0"/>
  <tile gid="0"/>
  <tile gid="0"/>
  <tile gid="0"/>
  <tile gid="0"/>
  <tile gid="0"/>
  <tile gid="0"/>
  <tile gid="0"/>
  <tile gid="0"/>
  <tile gid="0"/>
  <tile gid="0"/>
  <tile gid="0"/>
  <tile gid="0"/>
  <tile gid="0"/>
  <tile gid="0"/>
  <tile gid="0"/>
  <tile gid="0"/>
  <tile gid="0"/>
  <tile gid="0"/>
  <tile gid="0"/>
  <tile gid="0"/>
  <tile gid="0"/>
  <tile gid="0"/>
  <tile gid="0"/>
  <tile gid="0"/>
  <tile gid="0"/>
  <tile gid="0"/>
  <tile gid="0"/>
  <tile gid="0"/>
  <tile gid="0"/>
  <tile gid="0"/>
  <tile gid="0"/>
  <tile gid="0"/>
  <tile gid="0"/>
  <tile gid="0"/>
  <tile gid="0"/>
  <tile gid="0"/>
  <tile gid="0"/>
  <tile gid="0"/>
  <tile gid="0"/>
  <tile gid="0"/>
  <tile gid="0"/>
  <tile gid="0"/>
  <tile gid="0"/>
  <tile gid="0"/>
  <tile gid="0"/>
  <tile gid="0"/>
  <tile gid="0"/>
  <tile gid="0"/>
  <tile gid="0"/>
  <tile gid="0"/>
  <tile gid="0"/>
  <tile gid="0"/>
  <tile gid="0"/>
  <tile gid="0"/>
  <tile gid="770"/>
  <tile gid="941"/>
  <tile gid="769"/>
  <tile gid="0"/>
  <tile gid="0"/>
  <tile gid="0"/>
  <tile gid="0"/>
  <tile gid="0"/>
  <tile gid="0"/>
  <tile gid="0"/>
  <tile gid="0"/>
  <tile gid="0"/>
  <tile gid="0"/>
  <tile gid="0"/>
  <tile gid="0"/>
  <tile gid="0"/>
  <tile gid="0"/>
  <tile gid="0"/>
  <tile gid="0"/>
  <tile gid="0"/>
  <tile gid="0"/>
  <tile gid="0"/>
  <tile gid="0"/>
  <tile gid="0"/>
  <tile gid="0"/>
  <tile gid="0"/>
  <tile gid="0"/>
  <tile gid="0"/>
  <tile gid="0"/>
  <tile gid="0"/>
  <tile gid="0"/>
  <tile gid="0"/>
  <tile gid="0"/>
  <tile gid="0"/>
  <tile gid="0"/>
  <tile gid="0"/>
  <tile gid="0"/>
  <tile gid="0"/>
  <tile gid="0"/>
  <tile gid="0"/>
  <tile gid="0"/>
  <tile gid="0"/>
  <tile gid="0"/>
  <tile gid="0"/>
  <tile gid="0"/>
  <tile gid="0"/>
  <tile gid="0"/>
  <tile gid="0"/>
  <tile gid="0"/>
  <tile gid="0"/>
  <tile gid="0"/>
  <tile gid="0"/>
  <tile gid="0"/>
  <tile gid="0"/>
  <tile gid="0"/>
  <tile gid="0"/>
  <tile gid="0"/>
  <tile gid="0"/>
  <tile gid="0"/>
  <tile gid="0"/>
  <tile gid="0"/>
  <tile gid="0"/>
  <tile gid="0"/>
  <tile gid="0"/>
  <tile gid="0"/>
  <tile gid="0"/>
  <tile gid="0"/>
  <tile gid="0"/>
  <tile gid="0"/>
  <tile gid="0"/>
  <tile gid="0"/>
  <tile gid="0"/>
  <tile gid="0"/>
  <tile gid="0"/>
  <tile gid="0"/>
  <tile gid="0"/>
  <tile gid="0"/>
  <tile gid="0"/>
  <tile gid="0"/>
  <tile gid="0"/>
  <tile gid="0"/>
  <tile gid="0"/>
  <tile gid="0"/>
  <tile gid="0"/>
  <tile gid="0"/>
  <tile gid="0"/>
  <tile gid="0"/>
  <tile gid="0"/>
  <tile gid="0"/>
  <tile gid="0"/>
  <tile gid="0"/>
  <tile gid="0"/>
  <tile gid="0"/>
  <tile gid="0"/>
  <tile gid="0"/>
  <tile gid="0"/>
  <tile gid="0"/>
  <tile gid="0"/>
  <tile gid="0"/>
  <tile gid="0"/>
  <tile gid="0"/>
  <tile gid="0"/>
  <tile gid="0"/>
  <tile gid="0"/>
  <tile gid="0"/>
  <tile gid="0"/>
  <tile gid="0"/>
  <tile gid="0"/>
  <tile gid="0"/>
  <tile gid="0"/>
  <tile gid="0"/>
  <tile gid="0"/>
  <tile gid="0"/>
  <tile gid="0"/>
  <tile gid="0"/>
  <tile gid="0"/>
  <tile gid="0"/>
  <tile gid="0"/>
  <tile gid="0"/>
  <tile gid="0"/>
  <tile gid="0"/>
  <tile gid="0"/>
  <tile gid="0"/>
  <tile gid="0"/>
  <tile gid="0"/>
  <tile gid="0"/>
  <tile gid="0"/>
  <tile gid="0"/>
  <tile gid="0"/>
  <tile gid="0"/>
  <tile gid="0"/>
  <tile gid="0"/>
  <tile gid="0"/>
  <tile gid="0"/>
  <tile gid="0"/>
  <tile gid="0"/>
  <tile gid="0"/>
  <tile gid="0"/>
  <tile gid="0"/>
  <tile gid="0"/>
  <tile gid="0"/>
  <tile gid="0"/>
  <tile gid="0"/>
  <tile gid="0"/>
  <tile gid="0"/>
  <tile gid="0"/>
  <tile gid="0"/>
  <tile gid="0"/>
  <tile gid="0"/>
  <tile gid="0"/>
  <tile gid="0"/>
  <tile gid="0"/>
  <tile gid="0"/>
  <tile gid="0"/>
  <tile gid="0"/>
  <tile gid="0"/>
  <tile gid="0"/>
  <tile gid="0"/>
  <tile gid="0"/>
  <tile gid="0"/>
  <tile gid="0"/>
  <tile gid="0"/>
  <tile gid="0"/>
  <tile gid="0"/>
  <tile gid="0"/>
  <tile gid="0"/>
  <tile gid="0"/>
  <tile gid="0"/>
  <tile gid="0"/>
  <tile gid="0"/>
  <tile gid="0"/>
  <tile gid="0"/>
  <tile gid="0"/>
  <tile gid="0"/>
  <tile gid="0"/>
  <tile gid="0"/>
  </data>
 </layer>
 <layer name="Map Change 2" width="21" height="32">
  <properties>
   <property name="ID" value ="2"/>
   <property name="Height" value ="2"/>
   <property name="Width" value ="3"/>
   <property name="X" value ="9"/>
   <property name="Y" value ="4"/>
  </properties>
  <data>
  <tile gid="0"/>
  <tile gid="0"/>
  <tile gid="0"/>
  <tile gid="0"/>
  <tile gid="0"/>
  <tile gid="0"/>
  <tile gid="0"/>
  <tile gid="0"/>
  <tile gid="0"/>
  <tile gid="0"/>
  <tile gid="0"/>
  <tile gid="0"/>
  <tile gid="0"/>
  <tile gid="0"/>
  <tile gid="0"/>
  <tile gid="0"/>
  <tile gid="0"/>
  <tile gid="0"/>
  <tile gid="0"/>
  <tile gid="0"/>
  <tile gid="0"/>
  <tile gid="0"/>
  <tile gid="0"/>
  <tile gid="0"/>
  <tile gid="0"/>
  <tile gid="0"/>
  <tile gid="0"/>
  <tile gid="0"/>
  <tile gid="0"/>
  <tile gid="0"/>
  <tile gid="0"/>
  <tile gid="0"/>
  <tile gid="0"/>
  <tile gid="0"/>
  <tile gid="0"/>
  <tile gid="0"/>
  <tile gid="0"/>
  <tile gid="0"/>
  <tile gid="0"/>
  <tile gid="0"/>
  <tile gid="0"/>
  <tile gid="0"/>
  <tile gid="0"/>
  <tile gid="0"/>
  <tile gid="0"/>
  <tile gid="0"/>
  <tile gid="0"/>
  <tile gid="0"/>
  <tile gid="0"/>
  <tile gid="0"/>
  <tile gid="0"/>
  <tile gid="0"/>
  <tile gid="0"/>
  <tile gid="0"/>
  <tile gid="0"/>
  <tile gid="0"/>
  <tile gid="0"/>
  <tile gid="0"/>
  <tile gid="0"/>
  <tile gid="0"/>
  <tile gid="0"/>
  <tile gid="0"/>
  <tile gid="0"/>
  <tile gid="0"/>
  <tile gid="0"/>
  <tile gid="0"/>
  <tile gid="0"/>
  <tile gid="0"/>
  <tile gid="0"/>
  <tile gid="0"/>
  <tile gid="0"/>
  <tile gid="0"/>
  <tile gid="0"/>
  <tile gid="0"/>
  <tile gid="0"/>
  <tile gid="0"/>
  <tile gid="0"/>
  <tile gid="0"/>
  <tile gid="0"/>
  <tile gid="0"/>
  <tile gid="0"/>
  <tile gid="0"/>
  <tile gid="0"/>
  <tile gid="0"/>
  <tile gid="0"/>
  <tile gid="0"/>
  <tile gid="0"/>
  <tile gid="0"/>
  <tile gid="0"/>
  <tile gid="0"/>
  <tile gid="0"/>
  <tile gid="0"/>
  <tile gid="0"/>
  <tile gid="24"/>
  <tile gid="25"/>
  <tile gid="26"/>
  <tile gid="0"/>
  <tile gid="0"/>
  <tile gid="0"/>
  <tile gid="0"/>
  <tile gid="0"/>
  <tile gid="0"/>
  <tile gid="0"/>
  <tile gid="0"/>
  <tile gid="0"/>
  <tile gid="0"/>
  <tile gid="0"/>
  <tile gid="0"/>
  <tile gid="0"/>
  <tile gid="0"/>
  <tile gid="0"/>
  <tile gid="0"/>
  <tile gid="0"/>
  <tile gid="0"/>
  <tile gid="88"/>
  <tile gid="89"/>
  <tile gid="90"/>
  <tile gid="0"/>
  <tile gid="0"/>
  <tile gid="0"/>
  <tile gid="0"/>
  <tile gid="0"/>
  <tile gid="0"/>
  <tile gid="0"/>
  <tile gid="0"/>
  <tile gid="0"/>
  <tile gid="0"/>
  <tile gid="0"/>
  <tile gid="0"/>
  <tile gid="0"/>
  <tile gid="0"/>
  <tile gid="0"/>
  <tile gid="0"/>
  <tile gid="0"/>
  <tile gid="0"/>
  <tile gid="0"/>
  <tile gid="0"/>
  <tile gid="0"/>
  <tile gid="0"/>
  <tile gid="0"/>
  <tile gid="0"/>
  <tile gid="0"/>
  <tile gid="0"/>
  <tile gid="0"/>
  <tile gid="0"/>
  <tile gid="0"/>
  <tile gid="0"/>
  <tile gid="0"/>
  <tile gid="0"/>
  <tile gid="0"/>
  <tile gid="0"/>
  <tile gid="0"/>
  <tile gid="0"/>
  <tile gid="0"/>
  <tile gid="0"/>
  <tile gid="0"/>
  <tile gid="0"/>
  <tile gid="0"/>
  <tile gid="0"/>
  <tile gid="0"/>
  <tile gid="0"/>
  <tile gid="0"/>
  <tile gid="0"/>
  <tile gid="0"/>
  <tile gid="0"/>
  <tile gid="0"/>
  <tile gid="0"/>
  <tile gid="0"/>
  <tile gid="0"/>
  <tile gid="0"/>
  <tile gid="0"/>
  <tile gid="0"/>
  <tile gid="0"/>
  <tile gid="0"/>
  <tile gid="0"/>
  <tile gid="0"/>
  <tile gid="0"/>
  <tile gid="0"/>
  <tile gid="0"/>
  <tile gid="0"/>
  <tile gid="0"/>
  <tile gid="0"/>
  <tile gid="0"/>
  <tile gid="0"/>
  <tile gid="0"/>
  <tile gid="0"/>
  <tile gid="0"/>
  <tile gid="0"/>
  <tile gid="0"/>
  <tile gid="0"/>
  <tile gid="0"/>
  <tile gid="0"/>
  <tile gid="0"/>
  <tile gid="0"/>
  <tile gid="0"/>
  <tile gid="0"/>
  <tile gid="0"/>
  <tile gid="0"/>
  <tile gid="0"/>
  <tile gid="0"/>
  <tile gid="0"/>
  <tile gid="0"/>
  <tile gid="0"/>
  <tile gid="0"/>
  <tile gid="0"/>
  <tile gid="0"/>
  <tile gid="0"/>
  <tile gid="0"/>
  <tile gid="0"/>
  <tile gid="0"/>
  <tile gid="0"/>
  <tile gid="0"/>
  <tile gid="0"/>
  <tile gid="0"/>
  <tile gid="0"/>
  <tile gid="0"/>
  <tile gid="0"/>
  <tile gid="0"/>
  <tile gid="0"/>
  <tile gid="0"/>
  <tile gid="0"/>
  <tile gid="0"/>
  <tile gid="0"/>
  <tile gid="0"/>
  <tile gid="0"/>
  <tile gid="0"/>
  <tile gid="0"/>
  <tile gid="0"/>
  <tile gid="0"/>
  <tile gid="0"/>
  <tile gid="0"/>
  <tile gid="0"/>
  <tile gid="0"/>
  <tile gid="0"/>
  <tile gid="0"/>
  <tile gid="0"/>
  <tile gid="0"/>
  <tile gid="0"/>
  <tile gid="0"/>
  <tile gid="0"/>
  <tile gid="0"/>
  <tile gid="0"/>
  <tile gid="0"/>
  <tile gid="0"/>
  <tile gid="0"/>
  <tile gid="0"/>
  <tile gid="0"/>
  <tile gid="0"/>
  <tile gid="0"/>
  <tile gid="0"/>
  <tile gid="0"/>
  <tile gid="0"/>
  <tile gid="0"/>
  <tile gid="0"/>
  <tile gid="0"/>
  <tile gid="0"/>
  <tile gid="0"/>
  <tile gid="0"/>
  <tile gid="0"/>
  <tile gid="0"/>
  <tile gid="0"/>
  <tile gid="0"/>
  <tile gid="0"/>
  <tile gid="0"/>
  <tile gid="0"/>
  <tile gid="0"/>
  <tile gid="0"/>
  <tile gid="0"/>
  <tile gid="0"/>
  <tile gid="0"/>
  <tile gid="0"/>
  <tile gid="0"/>
  <tile gid="0"/>
  <tile gid="0"/>
  <tile gid="0"/>
  <tile gid="0"/>
  <tile gid="0"/>
  <tile gid="0"/>
  <tile gid="0"/>
  <tile gid="0"/>
  <tile gid="0"/>
  <tile gid="0"/>
  <tile gid="0"/>
  <tile gid="0"/>
  <tile gid="0"/>
  <tile gid="0"/>
  <tile gid="0"/>
  <tile gid="0"/>
  <tile gid="0"/>
  <tile gid="0"/>
  <tile gid="0"/>
  <tile gid="0"/>
  <tile gid="0"/>
  <tile gid="0"/>
  <tile gid="0"/>
  <tile gid="0"/>
  <tile gid="0"/>
  <tile gid="0"/>
  <tile gid="0"/>
  <tile gid="0"/>
  <tile gid="0"/>
  <tile gid="0"/>
  <tile gid="0"/>
  <tile gid="0"/>
  <tile gid="0"/>
  <tile gid="0"/>
  <tile gid="0"/>
  <tile gid="0"/>
  <tile gid="0"/>
  <tile gid="0"/>
  <tile gid="0"/>
  <tile gid="0"/>
  <tile gid="0"/>
  <tile gid="0"/>
  <tile gid="0"/>
  <tile gid="0"/>
  <tile gid="0"/>
  <tile gid="0"/>
  <tile gid="0"/>
  <tile gid="0"/>
  <tile gid="0"/>
  <tile gid="0"/>
  <tile gid="0"/>
  <tile gid="0"/>
  <tile gid="0"/>
  <tile gid="0"/>
  <tile gid="0"/>
  <tile gid="0"/>
  <tile gid="0"/>
  <tile gid="0"/>
  <tile gid="0"/>
  <tile gid="0"/>
  <tile gid="0"/>
  <tile gid="0"/>
  <tile gid="0"/>
  <tile gid="0"/>
  <tile gid="0"/>
  <tile gid="0"/>
  <tile gid="0"/>
  <tile gid="0"/>
  <tile gid="0"/>
  <tile gid="0"/>
  <tile gid="0"/>
  <tile gid="0"/>
  <tile gid="0"/>
  <tile gid="0"/>
  <tile gid="0"/>
  <tile gid="0"/>
  <tile gid="0"/>
  <tile gid="0"/>
  <tile gid="0"/>
  <tile gid="0"/>
  <tile gid="0"/>
  <tile gid="0"/>
  <tile gid="0"/>
  <tile gid="0"/>
  <tile gid="0"/>
  <tile gid="0"/>
  <tile gid="0"/>
  <tile gid="0"/>
  <tile gid="0"/>
  <tile gid="0"/>
  <tile gid="0"/>
  <tile gid="0"/>
  <tile gid="0"/>
  <tile gid="0"/>
  <tile gid="0"/>
  <tile gid="0"/>
  <tile gid="0"/>
  <tile gid="0"/>
  <tile gid="0"/>
  <tile gid="0"/>
  <tile gid="0"/>
  <tile gid="0"/>
  <tile gid="0"/>
  <tile gid="0"/>
  <tile gid="0"/>
  <tile gid="0"/>
  <tile gid="0"/>
  <tile gid="0"/>
  <tile gid="0"/>
  <tile gid="0"/>
  <tile gid="0"/>
  <tile gid="0"/>
  <tile gid="0"/>
  <tile gid="0"/>
  <tile gid="0"/>
  <tile gid="0"/>
  <tile gid="0"/>
  <tile gid="0"/>
  <tile gid="0"/>
  <tile gid="0"/>
  <tile gid="0"/>
  <tile gid="0"/>
  <tile gid="0"/>
  <tile gid="0"/>
  <tile gid="0"/>
  <tile gid="0"/>
  <tile gid="0"/>
  <tile gid="0"/>
  <tile gid="0"/>
  <tile gid="0"/>
  <tile gid="0"/>
  <tile gid="0"/>
  <tile gid="0"/>
  <tile gid="0"/>
  <tile gid="0"/>
  <tile gid="0"/>
  <tile gid="0"/>
  <tile gid="0"/>
  <tile gid="0"/>
  <tile gid="0"/>
  <tile gid="0"/>
  <tile gid="0"/>
  <tile gid="0"/>
  <tile gid="0"/>
  <tile gid="0"/>
  <tile gid="0"/>
  <tile gid="0"/>
  <tile gid="0"/>
  <tile gid="0"/>
  <tile gid="0"/>
  <tile gid="0"/>
  <tile gid="0"/>
  <tile gid="0"/>
  <tile gid="0"/>
  <tile gid="0"/>
  <tile gid="0"/>
  <tile gid="0"/>
  <tile gid="0"/>
  <tile gid="0"/>
  <tile gid="0"/>
  <tile gid="0"/>
  <tile gid="0"/>
  <tile gid="0"/>
  <tile gid="0"/>
  <tile gid="0"/>
  <tile gid="0"/>
  <tile gid="0"/>
  <tile gid="0"/>
  <tile gid="0"/>
  <tile gid="0"/>
  <tile gid="0"/>
  <tile gid="0"/>
  <tile gid="0"/>
  <tile gid="0"/>
  <tile gid="0"/>
  <tile gid="0"/>
  <tile gid="0"/>
  <tile gid="0"/>
  <tile gid="0"/>
  <tile gid="0"/>
  <tile gid="0"/>
  <tile gid="0"/>
  <tile gid="0"/>
  <tile gid="0"/>
  <tile gid="0"/>
  <tile gid="0"/>
  <tile gid="0"/>
  <tile gid="0"/>
  <tile gid="0"/>
  <tile gid="0"/>
  <tile gid="0"/>
  <tile gid="0"/>
  <tile gid="0"/>
  <tile gid="0"/>
  <tile gid="0"/>
  <tile gid="0"/>
  <tile gid="0"/>
  <tile gid="0"/>
  <tile gid="0"/>
  <tile gid="0"/>
  <tile gid="0"/>
  <tile gid="0"/>
  <tile gid="0"/>
  <tile gid="0"/>
  <tile gid="0"/>
  <tile gid="0"/>
  <tile gid="0"/>
  <tile gid="0"/>
  <tile gid="0"/>
  <tile gid="0"/>
  <tile gid="0"/>
  <tile gid="0"/>
  <tile gid="0"/>
  <tile gid="0"/>
  <tile gid="0"/>
  <tile gid="0"/>
  <tile gid="0"/>
  <tile gid="0"/>
  <tile gid="0"/>
  <tile gid="0"/>
  <tile gid="0"/>
  <tile gid="0"/>
  <tile gid="0"/>
  <tile gid="0"/>
  <tile gid="0"/>
  <tile gid="0"/>
  <tile gid="0"/>
  <tile gid="0"/>
  <tile gid="0"/>
  <tile gid="0"/>
  <tile gid="0"/>
  <tile gid="0"/>
  <tile gid="0"/>
  <tile gid="0"/>
  <tile gid="0"/>
  <tile gid="0"/>
  <tile gid="0"/>
  <tile gid="0"/>
  <tile gid="0"/>
  <tile gid="0"/>
  <tile gid="0"/>
  <tile gid="0"/>
  <tile gid="0"/>
  <tile gid="0"/>
  <tile gid="0"/>
  <tile gid="0"/>
  <tile gid="0"/>
  <tile gid="0"/>
  <tile gid="0"/>
  <tile gid="0"/>
  <tile gid="0"/>
  <tile gid="0"/>
  <tile gid="0"/>
  <tile gid="0"/>
  <tile gid="0"/>
  <tile gid="0"/>
  <tile gid="0"/>
  <tile gid="0"/>
  <tile gid="0"/>
  <tile gid="0"/>
  <tile gid="0"/>
  <tile gid="0"/>
  <tile gid="0"/>
  <tile gid="0"/>
  <tile gid="0"/>
  <tile gid="0"/>
  <tile gid="0"/>
  <tile gid="0"/>
  <tile gid="0"/>
  <tile gid="0"/>
  <tile gid="0"/>
  <tile gid="0"/>
  <tile gid="0"/>
  <tile gid="0"/>
  <tile gid="0"/>
  <tile gid="0"/>
  <tile gid="0"/>
  <tile gid="0"/>
  <tile gid="0"/>
  <tile gid="0"/>
  <tile gid="0"/>
  <tile gid="0"/>
  <tile gid="0"/>
  <tile gid="0"/>
  <tile gid="0"/>
  <tile gid="0"/>
  <tile gid="0"/>
  <tile gid="0"/>
  <tile gid="0"/>
  <tile gid="0"/>
  <tile gid="0"/>
  <tile gid="0"/>
  <tile gid="0"/>
  <tile gid="0"/>
  <tile gid="0"/>
  <tile gid="0"/>
  <tile gid="0"/>
  <tile gid="0"/>
  <tile gid="0"/>
  <tile gid="0"/>
  <tile gid="0"/>
  <tile gid="0"/>
  <tile gid="0"/>
  <tile gid="0"/>
  <tile gid="0"/>
  <tile gid="0"/>
  <tile gid="0"/>
  <tile gid="0"/>
  <tile gid="0"/>
  <tile gid="0"/>
  <tile gid="0"/>
  <tile gid="0"/>
  <tile gid="0"/>
  <tile gid="0"/>
  <tile gid="0"/>
  <tile gid="0"/>
  <tile gid="0"/>
  <tile gid="0"/>
  <tile gid="0"/>
  <tile gid="0"/>
  <tile gid="0"/>
  <tile gid="0"/>
  <tile gid="0"/>
  <tile gid="0"/>
  <tile gid="0"/>
  <tile gid="0"/>
  <tile gid="0"/>
  <tile gid="0"/>
  <tile gid="0"/>
  <tile gid="0"/>
  <tile gid="0"/>
  <tile gid="0"/>
  <tile gid="0"/>
  <tile gid="0"/>
  <tile gid="0"/>
  <tile gid="0"/>
  <tile gid="0"/>
  <tile gid="0"/>
  <tile gid="0"/>
  <tile gid="0"/>
  <tile gid="0"/>
  <tile gid="0"/>
  <tile gid="0"/>
  <tile gid="0"/>
  <tile gid="0"/>
  <tile gid="0"/>
  <tile gid="0"/>
  <tile gid="0"/>
  <tile gid="0"/>
  <tile gid="0"/>
  <tile gid="0"/>
  <tile gid="0"/>
  <tile gid="0"/>
  <tile gid="0"/>
  <tile gid="0"/>
  <tile gid="0"/>
  <tile gid="0"/>
  <tile gid="0"/>
  <tile gid="0"/>
  <tile gid="0"/>
  <tile gid="0"/>
  <tile gid="0"/>
  <tile gid="0"/>
  <tile gid="0"/>
  <tile gid="0"/>
  <tile gid="0"/>
  <tile gid="0"/>
  <tile gid="0"/>
  <tile gid="0"/>
  <tile gid="0"/>
  <tile gid="0"/>
  <tile gid="0"/>
  <tile gid="0"/>
  <tile gid="0"/>
  <tile gid="0"/>
  <tile gid="0"/>
  <tile gid="0"/>
  <tile gid="0"/>
  <tile gid="0"/>
  <tile gid="0"/>
  <tile gid="0"/>
  <tile gid="0"/>
  <tile gid="0"/>
  <tile gid="0"/>
  <tile gid="0"/>
  <tile gid="0"/>
  <tile gid="0"/>
  <tile gid="0"/>
  <tile gid="0"/>
  <tile gid="0"/>
  <tile gid="0"/>
  <tile gid="0"/>
  <tile gid="0"/>
  <tile gid="0"/>
  <tile gid="0"/>
  <tile gid="0"/>
  <tile gid="0"/>
  <tile gid="0"/>
  <tile gid="0"/>
  <tile gid="0"/>
  </data>
 </layer>
 <layer name="Map Change 3" width="21" height="32">
  <properties>
   <property name="ID" value ="3"/>
   <property name="Height" value ="2"/>
   <property name="Width" value ="3"/>
   <property name="X" value ="9"/>
   <property name="Y" value ="4"/>
  </properties>
  <data>
  <tile gid="0"/>
  <tile gid="0"/>
  <tile gid="0"/>
  <tile gid="0"/>
  <tile gid="0"/>
  <tile gid="0"/>
  <tile gid="0"/>
  <tile gid="0"/>
  <tile gid="0"/>
  <tile gid="0"/>
  <tile gid="0"/>
  <tile gid="0"/>
  <tile gid="0"/>
  <tile gid="0"/>
  <tile gid="0"/>
  <tile gid="0"/>
  <tile gid="0"/>
  <tile gid="0"/>
  <tile gid="0"/>
  <tile gid="0"/>
  <tile gid="0"/>
  <tile gid="0"/>
  <tile gid="0"/>
  <tile gid="0"/>
  <tile gid="0"/>
  <tile gid="0"/>
  <tile gid="0"/>
  <tile gid="0"/>
  <tile gid="0"/>
  <tile gid="0"/>
  <tile gid="0"/>
  <tile gid="0"/>
  <tile gid="0"/>
  <tile gid="0"/>
  <tile gid="0"/>
  <tile gid="0"/>
  <tile gid="0"/>
  <tile gid="0"/>
  <tile gid="0"/>
  <tile gid="0"/>
  <tile gid="0"/>
  <tile gid="0"/>
  <tile gid="0"/>
  <tile gid="0"/>
  <tile gid="0"/>
  <tile gid="0"/>
  <tile gid="0"/>
  <tile gid="0"/>
  <tile gid="0"/>
  <tile gid="0"/>
  <tile gid="0"/>
  <tile gid="0"/>
  <tile gid="0"/>
  <tile gid="0"/>
  <tile gid="0"/>
  <tile gid="0"/>
  <tile gid="0"/>
  <tile gid="0"/>
  <tile gid="0"/>
  <tile gid="0"/>
  <tile gid="0"/>
  <tile gid="0"/>
  <tile gid="0"/>
  <tile gid="0"/>
  <tile gid="0"/>
  <tile gid="0"/>
  <tile gid="0"/>
  <tile gid="0"/>
  <tile gid="0"/>
  <tile gid="0"/>
  <tile gid="0"/>
  <tile gid="0"/>
  <tile gid="0"/>
  <tile gid="0"/>
  <tile gid="0"/>
  <tile gid="0"/>
  <tile gid="0"/>
  <tile gid="0"/>
  <tile gid="0"/>
  <tile gid="0"/>
  <tile gid="0"/>
  <tile gid="0"/>
  <tile gid="0"/>
  <tile gid="0"/>
  <tile gid="0"/>
  <tile gid="0"/>
  <tile gid="0"/>
  <tile gid="0"/>
  <tile gid="0"/>
  <tile gid="0"/>
  <tile gid="0"/>
  <tile gid="0"/>
  <tile gid="0"/>
  <tile gid="1"/>
  <tile gid="1"/>
  <tile gid="1"/>
  <tile gid="0"/>
  <tile gid="0"/>
  <tile gid="0"/>
  <tile gid="0"/>
  <tile gid="0"/>
  <tile gid="0"/>
  <tile gid="0"/>
  <tile gid="0"/>
  <tile gid="0"/>
  <tile gid="0"/>
  <tile gid="0"/>
  <tile gid="0"/>
  <tile gid="0"/>
  <tile gid="0"/>
  <tile gid="0"/>
  <tile gid="0"/>
  <tile gid="0"/>
  <tile gid="0"/>
  <tile gid="1"/>
  <tile gid="434"/>
  <tile gid="1"/>
  <tile gid="0"/>
  <tile gid="0"/>
  <tile gid="0"/>
  <tile gid="0"/>
  <tile gid="0"/>
  <tile gid="0"/>
  <tile gid="0"/>
  <tile gid="0"/>
  <tile gid="0"/>
  <tile gid="0"/>
  <tile gid="0"/>
  <tile gid="0"/>
  <tile gid="0"/>
  <tile gid="0"/>
  <tile gid="0"/>
  <tile gid="0"/>
  <tile gid="0"/>
  <tile gid="0"/>
  <tile gid="0"/>
  <tile gid="0"/>
  <tile gid="0"/>
  <tile gid="0"/>
  <tile gid="0"/>
  <tile gid="0"/>
  <tile gid="0"/>
  <tile gid="0"/>
  <tile gid="0"/>
  <tile gid="0"/>
  <tile gid="0"/>
  <tile gid="0"/>
  <tile gid="0"/>
  <tile gid="0"/>
  <tile gid="0"/>
  <tile gid="0"/>
  <tile gid="0"/>
  <tile gid="0"/>
  <tile gid="0"/>
  <tile gid="0"/>
  <tile gid="0"/>
  <tile gid="0"/>
  <tile gid="0"/>
  <tile gid="0"/>
  <tile gid="0"/>
  <tile gid="0"/>
  <tile gid="0"/>
  <tile gid="0"/>
  <tile gid="0"/>
  <tile gid="0"/>
  <tile gid="0"/>
  <tile gid="0"/>
  <tile gid="0"/>
  <tile gid="0"/>
  <tile gid="0"/>
  <tile gid="0"/>
  <tile gid="0"/>
  <tile gid="0"/>
  <tile gid="0"/>
  <tile gid="0"/>
  <tile gid="0"/>
  <tile gid="0"/>
  <tile gid="0"/>
  <tile gid="0"/>
  <tile gid="0"/>
  <tile gid="0"/>
  <tile gid="0"/>
  <tile gid="0"/>
  <tile gid="0"/>
  <tile gid="0"/>
  <tile gid="0"/>
  <tile gid="0"/>
  <tile gid="0"/>
  <tile gid="0"/>
  <tile gid="0"/>
  <tile gid="0"/>
  <tile gid="0"/>
  <tile gid="0"/>
  <tile gid="0"/>
  <tile gid="0"/>
  <tile gid="0"/>
  <tile gid="0"/>
  <tile gid="0"/>
  <tile gid="0"/>
  <tile gid="0"/>
  <tile gid="0"/>
  <tile gid="0"/>
  <tile gid="0"/>
  <tile gid="0"/>
  <tile gid="0"/>
  <tile gid="0"/>
  <tile gid="0"/>
  <tile gid="0"/>
  <tile gid="0"/>
  <tile gid="0"/>
  <tile gid="0"/>
  <tile gid="0"/>
  <tile gid="0"/>
  <tile gid="0"/>
  <tile gid="0"/>
  <tile gid="0"/>
  <tile gid="0"/>
  <tile gid="0"/>
  <tile gid="0"/>
  <tile gid="0"/>
  <tile gid="0"/>
  <tile gid="0"/>
  <tile gid="0"/>
  <tile gid="0"/>
  <tile gid="0"/>
  <tile gid="0"/>
  <tile gid="0"/>
  <tile gid="0"/>
  <tile gid="0"/>
  <tile gid="0"/>
  <tile gid="0"/>
  <tile gid="0"/>
  <tile gid="0"/>
  <tile gid="0"/>
  <tile gid="0"/>
  <tile gid="0"/>
  <tile gid="0"/>
  <tile gid="0"/>
  <tile gid="0"/>
  <tile gid="0"/>
  <tile gid="0"/>
  <tile gid="0"/>
  <tile gid="0"/>
  <tile gid="0"/>
  <tile gid="0"/>
  <tile gid="0"/>
  <tile gid="0"/>
  <tile gid="0"/>
  <tile gid="0"/>
  <tile gid="0"/>
  <tile gid="0"/>
  <tile gid="0"/>
  <tile gid="0"/>
  <tile gid="0"/>
  <tile gid="0"/>
  <tile gid="0"/>
  <tile gid="0"/>
  <tile gid="0"/>
  <tile gid="0"/>
  <tile gid="0"/>
  <tile gid="0"/>
  <tile gid="0"/>
  <tile gid="0"/>
  <tile gid="0"/>
  <tile gid="0"/>
  <tile gid="0"/>
  <tile gid="0"/>
  <tile gid="0"/>
  <tile gid="0"/>
  <tile gid="0"/>
  <tile gid="0"/>
  <tile gid="0"/>
  <tile gid="0"/>
  <tile gid="0"/>
  <tile gid="0"/>
  <tile gid="0"/>
  <tile gid="0"/>
  <tile gid="0"/>
  <tile gid="0"/>
  <tile gid="0"/>
  <tile gid="0"/>
  <tile gid="0"/>
  <tile gid="0"/>
  <tile gid="0"/>
  <tile gid="0"/>
  <tile gid="0"/>
  <tile gid="0"/>
  <tile gid="0"/>
  <tile gid="0"/>
  <tile gid="0"/>
  <tile gid="0"/>
  <tile gid="0"/>
  <tile gid="0"/>
  <tile gid="0"/>
  <tile gid="0"/>
  <tile gid="0"/>
  <tile gid="0"/>
  <tile gid="0"/>
  <tile gid="0"/>
  <tile gid="0"/>
  <tile gid="0"/>
  <tile gid="0"/>
  <tile gid="0"/>
  <tile gid="0"/>
  <tile gid="0"/>
  <tile gid="0"/>
  <tile gid="0"/>
  <tile gid="0"/>
  <tile gid="0"/>
  <tile gid="0"/>
  <tile gid="0"/>
  <tile gid="0"/>
  <tile gid="0"/>
  <tile gid="0"/>
  <tile gid="0"/>
  <tile gid="0"/>
  <tile gid="0"/>
  <tile gid="0"/>
  <tile gid="0"/>
  <tile gid="0"/>
  <tile gid="0"/>
  <tile gid="0"/>
  <tile gid="0"/>
  <tile gid="0"/>
  <tile gid="0"/>
  <tile gid="0"/>
  <tile gid="0"/>
  <tile gid="0"/>
  <tile gid="0"/>
  <tile gid="0"/>
  <tile gid="0"/>
  <tile gid="0"/>
  <tile gid="0"/>
  <tile gid="0"/>
  <tile gid="0"/>
  <tile gid="0"/>
  <tile gid="0"/>
  <tile gid="0"/>
  <tile gid="0"/>
  <tile gid="0"/>
  <tile gid="0"/>
  <tile gid="0"/>
  <tile gid="0"/>
  <tile gid="0"/>
  <tile gid="0"/>
  <tile gid="0"/>
  <tile gid="0"/>
  <tile gid="0"/>
  <tile gid="0"/>
  <tile gid="0"/>
  <tile gid="0"/>
  <tile gid="0"/>
  <tile gid="0"/>
  <tile gid="0"/>
  <tile gid="0"/>
  <tile gid="0"/>
  <tile gid="0"/>
  <tile gid="0"/>
  <tile gid="0"/>
  <tile gid="0"/>
  <tile gid="0"/>
  <tile gid="0"/>
  <tile gid="0"/>
  <tile gid="0"/>
  <tile gid="0"/>
  <tile gid="0"/>
  <tile gid="0"/>
  <tile gid="0"/>
  <tile gid="0"/>
  <tile gid="0"/>
  <tile gid="0"/>
  <tile gid="0"/>
  <tile gid="0"/>
  <tile gid="0"/>
  <tile gid="0"/>
  <tile gid="0"/>
  <tile gid="0"/>
  <tile gid="0"/>
  <tile gid="0"/>
  <tile gid="0"/>
  <tile gid="0"/>
  <tile gid="0"/>
  <tile gid="0"/>
  <tile gid="0"/>
  <tile gid="0"/>
  <tile gid="0"/>
  <tile gid="0"/>
  <tile gid="0"/>
  <tile gid="0"/>
  <tile gid="0"/>
  <tile gid="0"/>
  <tile gid="0"/>
  <tile gid="0"/>
  <tile gid="0"/>
  <tile gid="0"/>
  <tile gid="0"/>
  <tile gid="0"/>
  <tile gid="0"/>
  <tile gid="0"/>
  <tile gid="0"/>
  <tile gid="0"/>
  <tile gid="0"/>
  <tile gid="0"/>
  <tile gid="0"/>
  <tile gid="0"/>
  <tile gid="0"/>
  <tile gid="0"/>
  <tile gid="0"/>
  <tile gid="0"/>
  <tile gid="0"/>
  <tile gid="0"/>
  <tile gid="0"/>
  <tile gid="0"/>
  <tile gid="0"/>
  <tile gid="0"/>
  <tile gid="0"/>
  <tile gid="0"/>
  <tile gid="0"/>
  <tile gid="0"/>
  <tile gid="0"/>
  <tile gid="0"/>
  <tile gid="0"/>
  <tile gid="0"/>
  <tile gid="0"/>
  <tile gid="0"/>
  <tile gid="0"/>
  <tile gid="0"/>
  <tile gid="0"/>
  <tile gid="0"/>
  <tile gid="0"/>
  <tile gid="0"/>
  <tile gid="0"/>
  <tile gid="0"/>
  <tile gid="0"/>
  <tile gid="0"/>
  <tile gid="0"/>
  <tile gid="0"/>
  <tile gid="0"/>
  <tile gid="0"/>
  <tile gid="0"/>
  <tile gid="0"/>
  <tile gid="0"/>
  <tile gid="0"/>
  <tile gid="0"/>
  <tile gid="0"/>
  <tile gid="0"/>
  <tile gid="0"/>
  <tile gid="0"/>
  <tile gid="0"/>
  <tile gid="0"/>
  <tile gid="0"/>
  <tile gid="0"/>
  <tile gid="0"/>
  <tile gid="0"/>
  <tile gid="0"/>
  <tile gid="0"/>
  <tile gid="0"/>
  <tile gid="0"/>
  <tile gid="0"/>
  <tile gid="0"/>
  <tile gid="0"/>
  <tile gid="0"/>
  <tile gid="0"/>
  <tile gid="0"/>
  <tile gid="0"/>
  <tile gid="0"/>
  <tile gid="0"/>
  <tile gid="0"/>
  <tile gid="0"/>
  <tile gid="0"/>
  <tile gid="0"/>
  <tile gid="0"/>
  <tile gid="0"/>
  <tile gid="0"/>
  <tile gid="0"/>
  <tile gid="0"/>
  <tile gid="0"/>
  <tile gid="0"/>
  <tile gid="0"/>
  <tile gid="0"/>
  <tile gid="0"/>
  <tile gid="0"/>
  <tile gid="0"/>
  <tile gid="0"/>
  <tile gid="0"/>
  <tile gid="0"/>
  <tile gid="0"/>
  <tile gid="0"/>
  <tile gid="0"/>
  <tile gid="0"/>
  <tile gid="0"/>
  <tile gid="0"/>
  <tile gid="0"/>
  <tile gid="0"/>
  <tile gid="0"/>
  <tile gid="0"/>
  <tile gid="0"/>
  <tile gid="0"/>
  <tile gid="0"/>
  <tile gid="0"/>
  <tile gid="0"/>
  <tile gid="0"/>
  <tile gid="0"/>
  <tile gid="0"/>
  <tile gid="0"/>
  <tile gid="0"/>
  <tile gid="0"/>
  <tile gid="0"/>
  <tile gid="0"/>
  <tile gid="0"/>
  <tile gid="0"/>
  <tile gid="0"/>
  <tile gid="0"/>
  <tile gid="0"/>
  <tile gid="0"/>
  <tile gid="0"/>
  <tile gid="0"/>
  <tile gid="0"/>
  <tile gid="0"/>
  <tile gid="0"/>
  <tile gid="0"/>
  <tile gid="0"/>
  <tile gid="0"/>
  <tile gid="0"/>
  <tile gid="0"/>
  <tile gid="0"/>
  <tile gid="0"/>
  <tile gid="0"/>
  <tile gid="0"/>
  <tile gid="0"/>
  <tile gid="0"/>
  <tile gid="0"/>
  <tile gid="0"/>
  <tile gid="0"/>
  <tile gid="0"/>
  <tile gid="0"/>
  <tile gid="0"/>
  <tile gid="0"/>
  <tile gid="0"/>
  <tile gid="0"/>
  <tile gid="0"/>
  <tile gid="0"/>
  <tile gid="0"/>
  <tile gid="0"/>
  <tile gid="0"/>
  <tile gid="0"/>
  <tile gid="0"/>
  <tile gid="0"/>
  <tile gid="0"/>
  <tile gid="0"/>
  <tile gid="0"/>
  <tile gid="0"/>
  <tile gid="0"/>
  <tile gid="0"/>
  <tile gid="0"/>
  <tile gid="0"/>
  <tile gid="0"/>
  <tile gid="0"/>
  <tile gid="0"/>
  <tile gid="0"/>
  <tile gid="0"/>
  <tile gid="0"/>
  <tile gid="0"/>
  <tile gid="0"/>
  <tile gid="0"/>
  <tile gid="0"/>
  <tile gid="0"/>
  <tile gid="0"/>
  <tile gid="0"/>
  <tile gid="0"/>
  <tile gid="0"/>
  <tile gid="0"/>
  <tile gid="0"/>
  <tile gid="0"/>
  <tile gid="0"/>
  <tile gid="0"/>
  <tile gid="0"/>
  <tile gid="0"/>
  <tile gid="0"/>
  <tile gid="0"/>
  <tile gid="0"/>
  <tile gid="0"/>
  <tile gid="0"/>
  <tile gid="0"/>
  <tile gid="0"/>
  <tile gid="0"/>
  <tile gid="0"/>
  <tile gid="0"/>
  <tile gid="0"/>
  <tile gid="0"/>
  <tile gid="0"/>
  <tile gid="0"/>
  <tile gid="0"/>
  <tile gid="0"/>
  <tile gid="0"/>
  <tile gid="0"/>
  <tile gid="0"/>
  <tile gid="0"/>
  <tile gid="0"/>
  <tile gid="0"/>
  <tile gid="0"/>
  <tile gid="0"/>
  <tile gid="0"/>
  <tile gid="0"/>
  <tile gid="0"/>
  <tile gid="0"/>
  <tile gid="0"/>
  <tile gid="0"/>
  <tile gid="0"/>
  <tile gid="0"/>
  <tile gid="0"/>
  <tile gid="0"/>
  <tile gid="0"/>
  <tile gid="0"/>
  <tile gid="0"/>
  <tile gid="0"/>
  <tile gid="0"/>
  <tile gid="0"/>
  <tile gid="0"/>
  <tile gid="0"/>
  <tile gid="0"/>
  <tile gid="0"/>
  <tile gid="0"/>
  <tile gid="0"/>
  <tile gid="0"/>
  <tile gid="0"/>
  <tile gid="0"/>
  <tile gid="0"/>
  <tile gid="0"/>
  <tile gid="0"/>
  <tile gid="0"/>
  <tile gid="0"/>
  <tile gid="0"/>
  <tile gid="0"/>
  <tile gid="0"/>
  <tile gid="0"/>
  <tile gid="0"/>
  <tile gid="0"/>
  <tile gid="0"/>
  <tile gid="0"/>
  <tile gid="0"/>
  <tile gid="0"/>
  <tile gid="0"/>
  <tile gid="0"/>
  <tile gid="0"/>
  <tile gid="0"/>
  <tile gid="0"/>
  <tile gid="0"/>
  <tile gid="0"/>
  <tile gid="0"/>
  <tile gid="0"/>
  <tile gid="0"/>
  <tile gid="0"/>
  <tile gid="0"/>
  <tile gid="0"/>
  <tile gid="0"/>
  <tile gid="0"/>
  <tile gid="0"/>
  <tile gid="0"/>
  <tile gid="0"/>
  <tile gid="0"/>
  <tile gid="0"/>
  <tile gid="0"/>
  <tile gid="0"/>
  <tile gid="0"/>
  <tile gid="0"/>
  <tile gid="0"/>
  <tile gid="0"/>
  <tile gid="0"/>
  <tile gid="0"/>
  <tile gid="0"/>
  <tile gid="0"/>
  </data>
 </layer>
</map>
