<?xml version="1.0" encoding="UTF-8"?>
<map version="1.0" orientation="orthogonal" width="28" height="19" tilewidth="16" tileheight="16">
 <tileset firstgid="1" name="0E000F10" tilewidth="16" tileheight="16">
  <image source="0E000F10.png" trans="ffffff"/>
 </tileset>
 <layer name="Tile Layer 1" width="28" height="19">
  <properties>
   <property name="Main" value =""/>
  </properties>
  <data>
  <tile gid="39"/>
  <tile gid="79"/>
  <tile gid="79"/>
  <tile gid="79"/>
  <tile gid="79"/>
  <tile gid="40"/>
  <tile gid="193"/>
  <tile gid="193"/>
  <tile gid="193"/>
  <tile gid="533"/>
  <tile gid="561"/>
  <tile gid="467"/>
  <tile gid="290"/>
  <tile gid="758"/>
  <tile gid="853"/>
  <tile gid="853"/>
  <tile gid="853"/>
  <tile gid="853"/>
  <tile gid="695"/>
  <tile gid="290"/>
  <tile gid="165"/>
  <tile gid="272"/>
  <tile gid="272"/>
  <tile gid="166"/>
  <tile gid="290"/>
  <tile gid="290"/>
  <tile gid="290"/>
  <tile gid="760"/>
  <tile gid="7"/>
  <tile gid="20"/>
  <tile gid="78"/>
  <tile gid="39"/>
  <tile gid="105"/>
  <tile gid="130"/>
  <tile gid="516"/>
  <tile gid="516"/>
  <tile gid="494"/>
  <tile gid="496"/>
  <tile gid="194"/>
  <tile gid="193"/>
  <tile gid="758"/>
  <tile gid="853"/>
  <tile gid="853"/>
  <tile gid="853"/>
  <tile gid="853"/>
  <tile gid="795"/>
  <tile gid="290"/>
  <tile gid="290"/>
  <tile gid="290"/>
  <tile gid="165"/>
  <tile gid="166"/>
  <tile gid="496"/>
  <tile gid="494"/>
  <tile gid="290"/>
  <tile gid="758"/>
  <tile gid="853"/>
  <tile gid="78"/>
  <tile gid="496"/>
  <tile gid="496"/>
  <tile gid="42"/>
  <tile gid="40"/>
  <tile gid="12"/>
  <tile gid="533"/>
  <tile gid="561"/>
  <tile gid="504"/>
  <tile gid="496"/>
  <tile gid="494"/>
  <tile gid="193"/>
  <tile gid="726"/>
  <tile gid="853"/>
  <tile gid="854"/>
  <tile gid="885"/>
  <tile gid="856"/>
  <tile gid="853"/>
  <tile gid="757"/>
  <tile gid="290"/>
  <tile gid="290"/>
  <tile gid="290"/>
  <tile gid="290"/>
  <tile gid="290"/>
  <tile gid="664"/>
  <tile gid="760"/>
  <tile gid="853"/>
  <tile gid="854"/>
  <tile gid="194"/>
  <tile gid="193"/>
  <tile gid="7"/>
  <tile gid="79"/>
  <tile gid="73"/>
  <tile gid="44"/>
  <tile gid="130"/>
  <tile gid="533"/>
  <tile gid="561"/>
  <tile gid="504"/>
  <tile gid="503"/>
  <tile gid="193"/>
  <tile gid="758"/>
  <tile gid="853"/>
  <tile gid="885"/>
  <tile gid="885"/>
  <tile gid="885"/>
  <tile gid="856"/>
  <tile gid="853"/>
  <tile gid="757"/>
  <tile gid="664"/>
  <tile gid="635"/>
  <tile gid="637"/>
  <tile gid="758"/>
  <tile gid="853"/>
  <tile gid="854"/>
  <tile gid="885"/>
  <tile gid="885"/>
  <tile gid="258"/>
  <tile gid="42"/>
  <tile gid="79"/>
  <tile gid="79"/>
  <tile gid="9"/>
  <tile gid="258"/>
  <tile gid="258"/>
  <tile gid="513"/>
  <tile gid="514"/>
  <tile gid="515"/>
  <tile gid="130"/>
  <tile gid="760"/>
  <tile gid="853"/>
  <tile gid="854"/>
  <tile gid="885"/>
  <tile gid="885"/>
  <tile gid="885"/>
  <tile gid="885"/>
  <tile gid="853"/>
  <tile gid="853"/>
  <tile gid="853"/>
  <tile gid="699"/>
  <tile gid="701"/>
  <tile gid="853"/>
  <tile gid="853"/>
  <tile gid="853"/>
  <tile gid="886"/>
  <tile gid="885"/>
  <tile gid="80"/>
  <tile gid="79"/>
  <tile gid="79"/>
  <tile gid="40"/>
  <tile gid="258"/>
  <tile gid="470"/>
  <tile gid="534"/>
  <tile gid="505"/>
  <tile gid="561"/>
  <tile gid="130"/>
  <tile gid="758"/>
  <tile gid="853"/>
  <tile gid="854"/>
  <tile gid="885"/>
  <tile gid="885"/>
  <tile gid="885"/>
  <tile gid="885"/>
  <tile gid="885"/>
  <tile gid="888"/>
  <tile gid="853"/>
  <tile gid="729"/>
  <tile gid="161"/>
  <tile gid="161"/>
  <tile gid="663"/>
  <tile gid="663"/>
  <tile gid="732"/>
  <tile gid="853"/>
  <tile gid="886"/>
  <tile gid="130"/>
  <tile gid="39"/>
  <tile gid="79"/>
  <tile gid="8"/>
  <tile gid="258"/>
  <tile gid="558"/>
  <tile gid="560"/>
  <tile gid="130"/>
  <tile gid="193"/>
  <tile gid="758"/>
  <tile gid="853"/>
  <tile gid="853"/>
  <tile gid="885"/>
  <tile gid="885"/>
  <tile gid="885"/>
  <tile gid="885"/>
  <tile gid="885"/>
  <tile gid="888"/>
  <tile gid="853"/>
  <tile gid="725"/>
  <tile gid="194"/>
  <tile gid="194"/>
  <tile gid="77"/>
  <tile gid="161"/>
  <tile gid="161"/>
  <tile gid="161"/>
  <tile gid="726"/>
  <tile gid="853"/>
  <tile gid="558"/>
  <tile gid="560"/>
  <tile gid="109"/>
  <tile gid="105"/>
  <tile gid="193"/>
  <tile gid="193"/>
  <tile gid="130"/>
  <tile gid="193"/>
  <tile gid="760"/>
  <tile gid="853"/>
  <tile gid="853"/>
  <tile gid="854"/>
  <tile gid="885"/>
  <tile gid="885"/>
  <tile gid="885"/>
  <tile gid="885"/>
  <tile gid="888"/>
  <tile gid="853"/>
  <tile gid="729"/>
  <tile gid="194"/>
  <tile gid="194"/>
  <tile gid="7"/>
  <tile gid="105"/>
  <tile gid="161"/>
  <tile gid="496"/>
  <tile gid="494"/>
  <tile gid="194"/>
  <tile gid="726"/>
  <tile gid="193"/>
  <tile gid="258"/>
  <tile gid="635"/>
  <tile gid="637"/>
  <tile gid="664"/>
  <tile gid="664"/>
  <tile gid="664"/>
  <tile gid="758"/>
  <tile gid="853"/>
  <tile gid="853"/>
  <tile gid="854"/>
  <tile gid="885"/>
  <tile gid="885"/>
  <tile gid="885"/>
  <tile gid="888"/>
  <tile gid="853"/>
  <tile gid="853"/>
  <tile gid="725"/>
  <tile gid="194"/>
  <tile gid="194"/>
  <tile gid="226"/>
  <tile gid="106"/>
  <tile gid="110"/>
  <tile gid="558"/>
  <tile gid="560"/>
  <tile gid="130"/>
  <tile gid="194"/>
  <tile gid="194"/>
  <tile gid="859"/>
  <tile gid="853"/>
  <tile gid="667"/>
  <tile gid="669"/>
  <tile gid="853"/>
  <tile gid="853"/>
  <tile gid="853"/>
  <tile gid="853"/>
  <tile gid="853"/>
  <tile gid="854"/>
  <tile gid="885"/>
  <tile gid="885"/>
  <tile gid="885"/>
  <tile gid="888"/>
  <tile gid="725"/>
  <tile gid="728"/>
  <tile gid="853"/>
  <tile gid="695"/>
  <tile gid="194"/>
  <tile gid="7"/>
  <tile gid="73"/>
  <tile gid="111"/>
  <tile gid="111"/>
  <tile gid="8"/>
  <tile gid="194"/>
  <tile gid="451"/>
  <tile gid="452"/>
  <tile gid="226"/>
  <tile gid="726"/>
  <tile gid="827"/>
  <tile gid="699"/>
  <tile gid="701"/>
  <tile gid="853"/>
  <tile gid="853"/>
  <tile gid="853"/>
  <tile gid="853"/>
  <tile gid="853"/>
  <tile gid="886"/>
  <tile gid="885"/>
  <tile gid="885"/>
  <tile gid="888"/>
  <tile gid="725"/>
  <tile gid="496"/>
  <tile gid="494"/>
  <tile gid="663"/>
  <tile gid="194"/>
  <tile gid="80"/>
  <tile gid="111"/>
  <tile gid="111"/>
  <tile gid="111"/>
  <tile gid="111"/>
  <tile gid="79"/>
  <tile gid="13"/>
  <tile gid="483"/>
  <tile gid="484"/>
  <tile gid="226"/>
  <tile gid="193"/>
  <tile gid="193"/>
  <tile gid="193"/>
  <tile gid="193"/>
  <tile gid="663"/>
  <tile gid="663"/>
  <tile gid="663"/>
  <tile gid="726"/>
  <tile gid="853"/>
  <tile gid="853"/>
  <tile gid="886"/>
  <tile gid="888"/>
  <tile gid="729"/>
  <tile gid="194"/>
  <tile gid="417"/>
  <tile gid="419"/>
  <tile gid="451"/>
  <tile gid="452"/>
  <tile gid="290"/>
  <tile gid="106"/>
  <tile gid="111"/>
  <tile gid="111"/>
  <tile gid="111"/>
  <tile gid="79"/>
  <tile gid="79"/>
  <tile gid="20"/>
  <tile gid="451"/>
  <tile gid="452"/>
  <tile gid="8"/>
  <tile gid="164"/>
  <tile gid="11"/>
  <tile gid="76"/>
  <tile gid="162"/>
  <tile gid="226"/>
  <tile gid="13"/>
  <tile gid="226"/>
  <tile gid="726"/>
  <tile gid="853"/>
  <tile gid="853"/>
  <tile gid="725"/>
  <tile gid="496"/>
  <tile gid="494"/>
  <tile gid="451"/>
  <tile gid="452"/>
  <tile gid="483"/>
  <tile gid="484"/>
  <tile gid="7"/>
  <tile gid="111"/>
  <tile gid="111"/>
  <tile gid="79"/>
  <tile gid="79"/>
  <tile gid="40"/>
  <tile gid="78"/>
  <tile gid="20"/>
  <tile gid="483"/>
  <tile gid="484"/>
  <tile gid="79"/>
  <tile gid="8"/>
  <tile gid="106"/>
  <tile gid="103"/>
  <tile gid="193"/>
  <tile gid="193"/>
  <tile gid="77"/>
  <tile gid="164"/>
  <tile gid="193"/>
  <tile gid="796"/>
  <tile gid="853"/>
  <tile gid="757"/>
  <tile gid="194"/>
  <tile gid="16"/>
  <tile gid="483"/>
  <tile gid="484"/>
  <tile gid="417"/>
  <tile gid="419"/>
  <tile gid="111"/>
  <tile gid="111"/>
  <tile gid="74"/>
  <tile gid="79"/>
  <tile gid="105"/>
  <tile gid="194"/>
  <tile gid="290"/>
  <tile gid="451"/>
  <tile gid="452"/>
  <tile gid="194"/>
  <tile gid="74"/>
  <tile gid="79"/>
  <tile gid="79"/>
  <tile gid="417"/>
  <tile gid="419"/>
  <tile gid="73"/>
  <tile gid="79"/>
  <tile gid="8"/>
  <tile gid="193"/>
  <tile gid="726"/>
  <tile gid="853"/>
  <tile gid="795"/>
  <tile gid="194"/>
  <tile gid="533"/>
  <tile gid="561"/>
  <tile gid="506"/>
  <tile gid="494"/>
  <tile gid="420"/>
  <tile gid="111"/>
  <tile gid="40"/>
  <tile gid="7"/>
  <tile gid="79"/>
  <tile gid="40"/>
  <tile gid="194"/>
  <tile gid="290"/>
  <tile gid="483"/>
  <tile gid="484"/>
  <tile gid="130"/>
  <tile gid="193"/>
  <tile gid="39"/>
  <tile gid="40"/>
  <tile gid="420"/>
  <tile gid="420"/>
  <tile gid="79"/>
  <tile gid="74"/>
  <tile gid="79"/>
  <tile gid="13"/>
  <tile gid="638"/>
  <tile gid="639"/>
  <tile gid="640"/>
  <tile gid="194"/>
  <tile gid="77"/>
  <tile gid="11"/>
  <tile gid="8"/>
  <tile gid="7"/>
  <tile gid="111"/>
  <tile gid="111"/>
  <tile gid="41"/>
  <tile gid="39"/>
  <tile gid="79"/>
  <tile gid="41"/>
  <tile gid="290"/>
  <tile gid="496"/>
  <tile gid="494"/>
  <tile gid="194"/>
  <tile gid="194"/>
  <tile gid="420"/>
  <tile gid="162"/>
  <tile gid="193"/>
  <tile gid="164"/>
  <tile gid="39"/>
  <tile gid="40"/>
  <tile gid="162"/>
  <tile gid="39"/>
  <tile gid="79"/>
  <tile gid="702"/>
  <tile gid="703"/>
  <tile gid="704"/>
  <tile gid="194"/>
  <tile gid="39"/>
  <tile gid="73"/>
  <tile gid="111"/>
  <tile gid="111"/>
  <tile gid="111"/>
  <tile gid="111"/>
  <tile gid="111"/>
  <tile gid="8"/>
  <tile gid="10"/>
  <tile gid="79"/>
  <tile gid="112"/>
  <tile gid="130"/>
  <tile gid="496"/>
  <tile gid="494"/>
  <tile gid="194"/>
  <tile gid="451"/>
  <tile gid="452"/>
  <tile gid="164"/>
  <tile gid="417"/>
  <tile gid="419"/>
  <tile gid="495"/>
  <tile gid="504"/>
  <tile gid="162"/>
  <tile gid="78"/>
  <tile gid="728"/>
  <tile gid="853"/>
  <tile gid="795"/>
  <tile gid="194"/>
  <tile gid="13"/>
  <tile gid="111"/>
  <tile gid="111"/>
  <tile gid="111"/>
  <tile gid="111"/>
  <tile gid="111"/>
  <tile gid="13"/>
  <tile gid="78"/>
  <tile gid="80"/>
  <tile gid="40"/>
  <tile gid="194"/>
  <tile gid="130"/>
  <tile gid="130"/>
  <tile gid="290"/>
  <tile gid="194"/>
  <tile gid="483"/>
  <tile gid="484"/>
  <tile gid="164"/>
  <tile gid="420"/>
  <tile gid="420"/>
  <tile gid="193"/>
  <tile gid="503"/>
  <tile gid="495"/>
  <tile gid="467"/>
  <tile gid="760"/>
  <tile gid="853"/>
  <tile gid="853"/>
  <tile gid="757"/>
  <tile gid="194"/>
  <tile gid="39"/>
  <tile gid="111"/>
  <tile gid="111"/>
  <tile gid="111"/>
  <tile gid="40"/>
  <tile gid="194"/>
  <tile gid="194"/>
  <tile gid="194"/>
  <tile gid="194"/>
  <tile gid="194"/>
  <tile gid="194"/>
  <tile gid="194"/>
  <tile gid="194"/>
  <tile gid="290"/>
  </data>
 </layer>
</map>
