<?xml version="1.0" encoding="UTF-8"?>
<map version="1.0" orientation="orthogonal" width="15" height="15" tilewidth="16" tileheight="16">
 <tileset firstgid="1" name="0E000F10" tilewidth="16" tileheight="16">
  <image source="0E000F10" trans="ffffff"/>
 </tileset>
 <layer name="Tile Layer 1" width="15" height="15">
  <properties>
   <property name="Main" value =""/>
  </properties>
  <data>
  <tile gid="257"/>
  <tile gid="257"/>
  <tile gid="257"/>
  <tile gid="257"/>
  <tile gid="257"/>
  <tile gid="257"/>
  <tile gid="257"/>
  <tile gid="257"/>
  <tile gid="257"/>
  <tile gid="257"/>
  <tile gid="257"/>
  <tile gid="257"/>
  <tile gid="257"/>
  <tile gid="257"/>
  <tile gid="257"/>
  <tile gid="257"/>
  <tile gid="257"/>
  <tile gid="257"/>
  <tile gid="257"/>
  <tile gid="257"/>
  <tile gid="885"/>
  <tile gid="885"/>
  <tile gid="257"/>
  <tile gid="885"/>
  <tile gid="885"/>
  <tile gid="257"/>
  <tile gid="257"/>
  <tile gid="257"/>
  <tile gid="257"/>
  <tile gid="257"/>
  <tile gid="257"/>
  <tile gid="257"/>
  <tile gid="257"/>
  <tile gid="257"/>
  <tile gid="257"/>
  <tile gid="885"/>
  <tile gid="885"/>
  <tile gid="257"/>
  <tile gid="885"/>
  <tile gid="885"/>
  <tile gid="257"/>
  <tile gid="257"/>
  <tile gid="257"/>
  <tile gid="257"/>
  <tile gid="257"/>
  <tile gid="257"/>
  <tile gid="257"/>
  <tile gid="885"/>
  <tile gid="885"/>
  <tile gid="257"/>
  <tile gid="885"/>
  <tile gid="885"/>
  <tile gid="257"/>
  <tile gid="885"/>
  <tile gid="885"/>
  <tile gid="257"/>
  <tile gid="885"/>
  <tile gid="885"/>
  <tile gid="257"/>
  <tile gid="257"/>
  <tile gid="257"/>
  <tile gid="257"/>
  <tile gid="885"/>
  <tile gid="885"/>
  <tile gid="257"/>
  <tile gid="257"/>
  <tile gid="257"/>
  <tile gid="257"/>
  <tile gid="257"/>
  <tile gid="257"/>
  <tile gid="257"/>
  <tile gid="885"/>
  <tile gid="885"/>
  <tile gid="257"/>
  <tile gid="257"/>
  <tile gid="257"/>
  <tile gid="257"/>
  <tile gid="885"/>
  <tile gid="885"/>
  <tile gid="257"/>
  <tile gid="257"/>
  <tile gid="257"/>
  <tile gid="257"/>
  <tile gid="257"/>
  <tile gid="257"/>
  <tile gid="257"/>
  <tile gid="885"/>
  <tile gid="885"/>
  <tile gid="257"/>
  <tile gid="257"/>
  <tile gid="257"/>
  <tile gid="257"/>
  <tile gid="257"/>
  <tile gid="257"/>
  <tile gid="257"/>
  <tile gid="885"/>
  <tile gid="885"/>
  <tile gid="885"/>
  <tile gid="885"/>
  <tile gid="885"/>
  <tile gid="257"/>
  <tile gid="257"/>
  <tile gid="257"/>
  <tile gid="257"/>
  <tile gid="257"/>
  <tile gid="257"/>
  <tile gid="257"/>
  <tile gid="257"/>
  <tile gid="257"/>
  <tile gid="885"/>
  <tile gid="885"/>
  <tile gid="885"/>
  <tile gid="885"/>
  <tile gid="885"/>
  <tile gid="885"/>
  <tile gid="885"/>
  <tile gid="257"/>
  <tile gid="257"/>
  <tile gid="257"/>
  <tile gid="257"/>
  <tile gid="257"/>
  <tile gid="257"/>
  <tile gid="257"/>
  <tile gid="885"/>
  <tile gid="885"/>
  <tile gid="885"/>
  <tile gid="885"/>
  <tile gid="885"/>
  <tile gid="885"/>
  <tile gid="885"/>
  <tile gid="885"/>
  <tile gid="885"/>
  <tile gid="257"/>
  <tile gid="257"/>
  <tile gid="257"/>
  <tile gid="257"/>
  <tile gid="257"/>
  <tile gid="257"/>
  <tile gid="885"/>
  <tile gid="885"/>
  <tile gid="885"/>
  <tile gid="885"/>
  <tile gid="885"/>
  <tile gid="885"/>
  <tile gid="885"/>
  <tile gid="885"/>
  <tile gid="885"/>
  <tile gid="257"/>
  <tile gid="257"/>
  <tile gid="257"/>
  <tile gid="257"/>
  <tile gid="257"/>
  <tile gid="257"/>
  <tile gid="885"/>
  <tile gid="885"/>
  <tile gid="885"/>
  <tile gid="885"/>
  <tile gid="885"/>
  <tile gid="885"/>
  <tile gid="885"/>
  <tile gid="885"/>
  <tile gid="885"/>
  <tile gid="257"/>
  <tile gid="257"/>
  <tile gid="257"/>
  <tile gid="257"/>
  <tile gid="257"/>
  <tile gid="257"/>
  <tile gid="885"/>
  <tile gid="885"/>
  <tile gid="885"/>
  <tile gid="885"/>
  <tile gid="885"/>
  <tile gid="885"/>
  <tile gid="885"/>
  <tile gid="885"/>
  <tile gid="885"/>
  <tile gid="257"/>
  <tile gid="257"/>
  <tile gid="257"/>
  <tile gid="257"/>
  <tile gid="257"/>
  <tile gid="257"/>
  <tile gid="257"/>
  <tile gid="885"/>
  <tile gid="885"/>
  <tile gid="885"/>
  <tile gid="885"/>
  <tile gid="885"/>
  <tile gid="885"/>
  <tile gid="885"/>
  <tile gid="257"/>
  <tile gid="257"/>
  <tile gid="257"/>
  <tile gid="257"/>
  <tile gid="257"/>
  <tile gid="257"/>
  <tile gid="257"/>
  <tile gid="257"/>
  <tile gid="257"/>
  <tile gid="257"/>
  <tile gid="257"/>
  <tile gid="257"/>
  <tile gid="257"/>
  <tile gid="257"/>
  <tile gid="257"/>
  <tile gid="257"/>
  <tile gid="257"/>
  <tile gid="257"/>
  <tile gid="257"/>
  <tile gid="257"/>
  <tile gid="257"/>
  <tile gid="257"/>
  <tile gid="257"/>
  <tile gid="257"/>
  <tile gid="257"/>
  <tile gid="257"/>
  <tile gid="257"/>
  <tile gid="257"/>
  <tile gid="257"/>
  <tile gid="257"/>
  <tile gid="257"/>
  <tile gid="257"/>
  <tile gid="257"/>
  <tile gid="257"/>
  </data>
 </layer>
</map>